gmarotta2107/reinforcementLearning/datasets/All_positions_dataset.csv
joint_0,joint_1,joint_2,joint_3,joint_4,joint_5,joint_6,joint_7,joint_8,joint_9,joint_10,paddle_x,paddle_y,paddle_z
-0.13970087468624115,0.2805424928665161,0.0642675831913948,0.3192155361175537,-0.002016586484387517,-0.5340393781661987,0.08317308127880096,-0.637628972530365,-0.0011196098057553172,-2.3160316944122314,1.5749205350875854,0.23355092108249664,-1.0287299156188965,0.6786978840827942
-0.09614187479019165,0.29768168926239014,0.05205674096941948,0.4214744567871094,-0.0009194485028274357,-0.6639683246612549,0.059677742421627045,-0.5106121897697449,-0.000574774167034775,-2.3238096237182617,1.5739082098007202,0.26698002219200134,-1.0401159524917603,0.6642629504203796
-0.00817523431032896,0.3163362443447113,0.014646120369434357,0.31595301628112793,0.0051443432457745075,-0.6222821474075317,-0.030847107991576195,-0.6015375256538391,0.0006477479473687708,-2.346853256225586,1.5708919763565063,0.32973167300224304,-0.9239838719367981,0.6697789430618286
0.03091331198811531,-0.07725268602371216,-0.00011616166011663154,0.08095648884773254,0.053385037928819656,-0.5372465252876282,0.007850517518818378,-0.4046086072921753,0.0034890859387815,-2.3556745052337646,1.5726268291473389,-0.10286858677864075,-0.6828513145446777,0.6393889784812927
0.03443541377782822,-0.05581403151154518,-9.409094491275027e-05,0.17986805737018585,0.05000762268900871,-0.6514804363250732,0.020956743508577347,-0.35604068636894226,0.0013448541285470128,-2.351141929626465,1.5730284452438354,-0.09195615351200104,-0.7200399041175842,0.6544339060783386
0.02705659717321396,-0.044781215488910675,-7.621366967214271e-05,0.19971030950546265,0.03961549326777458,-0.6985199451446533,0.00985203217715025,-0.31583234667778015,0.0017667619977146387,-2.351921319961548,1.5722792148590088,-0.07056885212659836,-0.7389354109764099,0.6515425443649292
0.010132897645235062,-0.02596927247941494,-0.0004074603202752769,0.16551975905895233,0.03458435460925102,-0.7451138496398926,0.01931879110634327,-0.2430652379989624,0.0003029645304195583,-2.352587938308716,1.5724058151245117,-0.05522672086954117,-0.730530321598053,0.6434189677238464
0.010218033567070961,0.006300544366240501,-0.00033002300187945366,0.10653998702764511,0.033100634813308716,-0.6695523858070374,0.034328896552324295,-0.14742505550384521,-0.0014412135351449251,-2.353257417678833,1.5725009441375732,-0.03186163678765297,-0.7001414895057678,0.6415043473243713
-0.021143300458788872,0.028277477249503136,-0.00026731862453743815,0.0031244938727468252,0.019957417622208595,-0.5705201625823975,0.016394024714827538,-0.22258853912353516,-0.0005208838265389204,-2.353808879852295,1.5719672441482544,0.0017230279045179486,-0.6778097152709961,0.6664519309997559
-0.06876435875892639,0.03449688106775284,-0.00021652808936778456,-0.12104398012161255,-0.0027395577635616064,-0.5882525444030762,0.0006535074207931757,-0.11224868893623352,-0.0010263054864481091,-2.354081392288208,1.5707628726959229,0.027789894491434097,-0.6543343663215637,0.6333496570587158
-0.11230617016553879,0.026160066947340965,-0.0001753877440933138,-0.2746603190898895,-0.027487706393003464,-0.6023450493812561,-0.009734031744301319,-0.022826652973890305,-0.0030857648234814405,-2.3540139198303223,1.5691568851470947,0.04035208746790886,-0.6035321950912476,0.5778108835220337
-0.12880800664424896,0.03176654130220413,-0.00014206407649908215,-0.4420924186706543,-0.017665613442659378,-0.49751946330070496,-0.006246303208172321,0.05138576775789261,-0.0023550037294626236,-2.354597568511963,1.5696830749511719,0.04023852199316025,-0.5397464632987976,0.5124486088752747
0.0952126607298851,-0.23942497372627258,0.0002801343216560781,-0.03695986792445183,0.0947636291384697,-0.4531393051147461,-0.00999798346310854,-0.4127589464187622,0.011432058177888393,-2.356229305267334,1.573591947555542,-0.2848265767097473,-0.5596492886543274,0.627268373966217
0.14331023395061493,-0.17354048788547516,0.0001842886849772185,0.28023895621299744,0.07067978382110596,-0.5882207155227661,-0.0022981504444032907,-0.4997687339782715,0.007624011021107435,-2.3574321269989014,1.572995901107788,-0.21495500206947327,-0.6953660249710083,0.6483251452445984
0.14815786480903625,-0.13994793593883514,0.00014857207133900374,0.29912447929382324,0.05653741955757141,-0.4219911992549896,0.009228919632732868,-0.5344732403755188,0.005568055901676416,-2.3559417724609375,1.5729113817214966,-0.18264418840408325,-0.7495386004447937,0.6911486983299255
0.11325851082801819,-0.1132049486041069,0.00012034337851218879,0.285897821187973,0.04758865758776665,-0.33810660243034363,-0.009502922184765339,-0.6928916573524475,0.00487491674721241,-2.3556606769561768,1.5723145008087158,-0.14216248691082,-0.8055606484413147,0.709649920463562
0.06710802763700485,-0.07742936909198761,9.692860476206988e-05,0.20802223682403564,0.03675172105431557,-0.21716539561748505,0.009419350884854794,-0.695149302482605,0.003727451665326953,-2.3573408126831055,1.5720009803771973,-0.10956653952598572,-0.8499650359153748,0.7050601840019226
0.03572157770395279,-0.04893467575311661,7.774832920404151e-05,0.242841899394989,0.03141577169299126,-0.33309924602508545,-0.012134922668337822,-0.8269479274749756,0.0031416972633451223,-2.35683274269104,1.5720293521881104,-0.0711575597524643,-0.8810014128684998,0.6986902356147766
0.014837588183581829,-0.011796971783041954,6.252378079807386e-05,0.24279464781284332,0.024418959394097328,-0.3838704228401184,0.002867791336029768,-0.6982408761978149,0.002135699614882469,-2.3566031455993652,1.5717236995697021,-0.0393826849758625,-0.9007092118263245,0.664829671382904
0.004142634104937315,0.03425123915076256,8.093971700873226e-05,0.2544441819190979,0.01924316957592964,-0.44220292568206787,0.00845604483038187,-0.731324315071106,0.0015242549125105143,-2.3562064170837402,1.5715632438659668,0.003321432275697589,-0.903752326965332,0.6717789769172668
-0.017828645184636116,0.08965933322906494,5.7569130149204284e-05,0.22154107689857483,0.014877700246870518,-0.42177218198776245,0.017659680917859077,-0.700019896030426,0.0007851546397432685,-2.3562021255493164,1.571463942527771,0.05206318944692612,-0.9049150347709656,0.6625276803970337
-0.0509832538664341,0.1363886445760727,4.567351788864471e-05,0.1235712543129921,0.012263992801308632,-0.3576730489730835,0.005561361089348793,-0.47249481081962585,0.001032677129842341,-2.355778694152832,1.571230411529541,0.10754178464412689,-0.883329451084137,0.6886952519416809
-0.004477736074477434,0.16868796944618225,3.6995548725826666e-05,0.21288922429084778,0.009719591587781906,-0.36534440517425537,-0.010938948020339012,-0.5637604594230652,0.0013977428898215294,-2.3565101623535156,1.5708048343658447,0.15137673914432526,-0.8704388737678528,0.7059705853462219
0.059535376727581024,0.18672873079776764,2.9709291993640363e-05,0.36275404691696167,0.009557543322443962,-0.41586580872535706,-0.027080409228801727,-0.499557226896286,0.0016133879544213414,-2.3563966751098633,1.5705252885818481,0.18040741980075836,-0.8904349207878113,0.717982828617096
-0.0898066833615303,0.24769900739192963,1.2737634278892074e-05,0.12142094224691391,0.002854340709745884,-0.411495566368103,-0.0027891332283616066,-0.4724719226360321,0.0009725315612740815,-2.3553178310394287,1.5703798532485962,0.23839299380779266,-0.9003012180328369,0.7178592681884766
-0.12680378556251526,0.2506345808506012,1.0337171261198819e-05,0.03700985759496689,-0.0010387079091742635,-0.47553014755249023,-0.015387150458991528,-0.29954957962036133,0.0014891873579472303,-2.356161594390869,1.569933533668518,0.25231820344924927,-0.8545031547546387,0.6878594756126404
-0.10888464748859406,0.26353275775909424,8.371980584342964e-06,0.03191274031996727,0.006268006283789873,-0.43951094150543213,-0.002918779384344816,-0.37341544032096863,0.0009346854640170932,-2.356208086013794,1.5706592798233032,0.25666341185569763,-0.8281691074371338,0.6757239699363708
-0.0796356126666069,0.26642516255378723,6.7617525019159075e-06,0.11780604720115662,0.0001539206423331052,-0.6435724496841431,-0.011869270354509354,-0.281480997800827,0.0013563442043960094,-2.3556289672851562,1.5702142715454102,0.26664432883262634,-0.8159341812133789,0.6666176915168762
-0.06588595360517502,0.27902424335479736,5.468419658427592e-06,0.10529933124780655,0.004644511733204126,-0.6980774402618408,0.000795950589235872,-0.4488092064857483,-5.7485616707708687e-05,-2.3546323776245117,1.5707733631134033,0.27145302295684814,-0.8010339140892029,0.6236012578010559
0.02689242549240589,0.42524954676628113,8.374704520974774e-06,-0.11643689125776291,-0.021795053035020828,-0.3388977348804474,-0.011604554951190948,-0.3973844051361084,-0.0005847510765306652,-2.3541619777679443,1.5696477890014648,0.4339771568775177,-0.6403712630271912,0.6404109597206116
0.048846010118722916,0.43435031175613403,6.783510798413772e-06,-0.04691300168633461,-0.008978770114481449,-0.459405779838562,-0.0051655154675245285,-0.2443276345729828,0.0001449275587219745,-2.3545217514038086,1.5704474449157715,0.43624961376190186,-0.6039210557937622,0.6596686840057373
0.04633244499564171,0.4327864646911621,5.494643573911162e-06,0.017073100432753563,-0.016530530527234077,-0.5986610054969788,-0.010089061222970486,-0.3419954180717468,-0.00016879818576853722,-2.3545422554016113,1.5699658393859863,0.441367506980896,-0.6103078126907349,0.6537829637527466
-0.015330932103097439,0.415348619222641,4.45066143583972e-06,-0.1624010056257248,-0.035382065922021866,-0.5191611051559448,-0.019075071439146996,-0.18643051385879517,-0.0009269577567465603,-2.3549845218658447,1.5689257383346558,0.43942195177078247,-0.601841390132904,0.6168789267539978
-0.029605986550450325,0.3846028745174408,3.6050357721251203e-06,-0.25670942664146423,-0.05190984904766083,-0.4637672007083893,-0.023334000259637833,-0.06596779078245163,-0.003699549939483404,-2.355581283569336,1.5673936605453491,0.424576997756958,-0.5481072664260864,0.5988324284553528
-0.03940408676862717,0.3413975238800049,2.920078941315296e-06,-0.3368596136569977,-0.057945992797613144,-0.3578658998012543,-0.031795669347047806,-0.07885576039552689,-0.004499762784689665,-2.3564741611480713,1.5668312311172485,0.39300504326820374,-0.5136155486106873,0.6027491688728333
-0.023174354806542397,0.3069024085998535,2.334289320060634e-06,-0.25031498074531555,-0.03720560669898987,-0.42124176025390625,-0.01805109903216362,-0.3180237412452698,-0.002443681238219142,-2.356276512145996,1.568640947341919,0.346275269985199,-0.5334064960479736,0.5856057405471802
-0.03735356405377388,0.2595355212688446,1.5833643374207895e-06,-0.2171337604522705,-0.022668492048978806,-0.4074417054653168,-0.007408712059259415,-0.31435129046440125,-0.0011302258353680372,-2.356163740158081,1.56978440284729,0.2838987410068512,-0.5946055054664612,0.596997082233429
-0.06736430525779724,0.24065646529197693,1.2825252042603097e-06,-0.332364946603775,-0.010687194764614105,-0.31170231103897095,-0.0017110246699303389,-0.16043592989444733,5.6764212786220014e-05,-2.356092929840088,1.5707091093063354,0.2561313509941101,-0.5763610005378723,0.6058208346366882
-0.0640362799167633,0.23580971360206604,1.0388454256826662e-06,-0.29799872636795044,0.0019474156433716416,-0.4931269884109497,0.014651251025497913,-0.1105591282248497,0.001312519540078938,-2.356050491333008,1.5720890760421753,0.23606665432453156,-0.5451189279556274,0.5868179798126221
0.025377623736858368,0.2859755754470825,2.318829217529128e-07,-0.16905583441257477,-0.030610600486397743,-0.4711861312389374,0.0022851196117699146,-0.30767887830734253,-0.0038467654958367348,-2.3560452461242676,1.5697754621505737,0.3052195608615875,-0.5444134473800659,0.5858219265937805
0.03778989985585213,0.2818991541862488,-3.691545771289384e-07,-0.13032841682434082,-0.012344187125563622,-0.46805402636528015,0.0038238728884607553,-0.22405670583248138,-0.0015639412449672818,-2.3575429916381836,1.570773720741272,0.2907436192035675,-0.5508723855018616,0.6155436635017395
0.048397649079561234,0.26671507954597473,-2.990151983794931e-07,-0.1475401669740677,-0.020436586812138557,-0.33555006980895996,-0.00013938781921751797,-0.39868390560150146,-0.002310855546966195,-2.3563971519470215,1.5700721740722656,0.28108710050582886,-0.5678763389587402,0.6400043964385986
0.07161024957895279,0.23541508615016937,-3.1458793614547176e-07,-0.10405346751213074,-0.034910961985588074,-0.38240495324134827,-0.00854402594268322,-0.5455456972122192,-0.0032799479085952044,-2.356261730194092,1.5690462589263916,0.263504296541214,-0.5899556279182434,0.6306370496749878
0.12367282807826996,-0.12803979218006134,0.00021476294205058366,0.42664098739624023,-0.026184674352407455,-0.7451825737953186,0.023437879979610443,-0.4105600416660309,-0.0062415823340415955,-2.3564672470092773,1.5714285373687744,-0.1107247993350029,-0.7721632122993469,0.6356139183044434
-0.04407212510704994,-0.3026089370250702,-0.00010894194565480575,0.5785546898841858,-0.007490132935345173,-0.6813867688179016,0.04553116858005524,-0.5404096245765686,-0.0016628287266939878,-2.356083869934082,1.5723075866699219,-0.3212623596191406,-1.0763866901397705,0.6652939319610596
-0.1054353341460228,-0.24219651520252228,-7.156917854445055e-05,0.3870825469493866,-0.005004493054002523,-0.5536115169525146,0.030030541121959686,-0.4828973710536957,-0.0010562199167907238,-2.356055974960327,1.571775197982788,-0.2604333758354187,-1.0537909269332886,0.6895166039466858
-0.11857238411903381,-0.20786312222480774,-5.7971032219938934e-05,0.37549710273742676,-0.005147585179656744,-0.6260017156600952,0.035830046981573105,-0.6483531594276428,-0.0012608150718733668,-2.356088161468506,1.5718809366226196,-0.2320503145456314,-1.0513803958892822,0.6779155135154724
-0.15530048310756683,-0.15964099764823914,-4.6956534788478166e-05,0.26186618208885193,-0.00483204098418355,-0.7062495350837708,0.03891941159963608,-0.47170913219451904,-0.0016294633969664574,-2.3564815521240234,1.5719579458236694,-0.19193297624588013,-1.0207270383834839,0.6401211023330688
0.087322898209095,0.0538780614733696,0.00014384552196133882,0.6626976132392883,-0.0053197708912193775,-0.9543546438217163,-0.0055364989675581455,-0.5848696231842041,0.0022074850276112556,-2.353564500808716,1.5706955194473267,0.0601186566054821,-0.9204950332641602,0.5819827318191528
0.05805230513215065,0.03755844011902809,0.00011651487147901207,0.6794213652610779,-0.003769433358684182,-1.0541596412658691,-0.010748372413218021,-0.4685083329677582,0.0020390425343066454,-2.3536908626556396,1.5704582929611206,0.05049658939242363,-0.9471145272254944,0.5747770071029663
0.04224028438329697,0.029107389971613884,9.437704284209758e-05,0.6073780655860901,-0.0036854781210422516,-0.9422242045402527,-0.0005565169849433005,-0.4535479247570038,0.0013309464557096362,-2.3543736934661865,1.5708963871002197,0.03400934115052223,-0.9453903436660767,0.5877259373664856
0.02820301614701748,0.01270141452550888,7.644540892215446e-05,0.5620994567871094,-0.0023954997304826975,-0.9556143879890442,-0.008190988563001156,-0.417797714471817,0.0013840105384588242,-2.3542141914367676,1.5705357789993286,0.024484621360898018,-0.9344781041145325,0.6100303530693054
0.014779678545892239,0.004198345821350813,6.192074943101034e-05,0.4894405007362366,-0.0024954751133918762,-0.8620519638061523,0.001459030550904572,-0.39191514253616333,0.000758165551815182,-2.3545897006988525,1.5709577798843384,0.008246353827416897,-0.9142414331436157,0.6128478646278381
0.014892186038196087,-0.012240941636264324,5.015580973122269e-05,0.4885062575340271,-0.001412626588717103,-0.7805415987968445,-0.007428736891597509,-0.42928364872932434,0.0009904641192406416,-2.354938507080078,1.5705578327178955,-0.0010755929397419095,-0.9170358777046204,0.6430191993713379
0.019932406023144722,-0.04327211156487465,4.06262042815797e-05,0.5087810158729553,-0.00013180571841076016,-0.6647390723228455,-0.01857428438961506,-0.4045843183994293,0.0012480036821216345,-2.3558270931243896,1.5701260566711426,-0.022887464612722397,-0.9455797076225281,0.6741655468940735
-0.04591519385576248,-0.07443678379058838,2.665485044417437e-05,0.5556590557098389,-0.002082891296595335,-0.7416219711303711,0.008860033005475998,-0.6573590040206909,0.000251618679612875,-2.3535866737365723,1.5710124969482422,-0.07234407961368561,-1.0454927682876587,0.6488271951675415
-0.06674450635910034,-0.06834627687931061,2.1590429241769016e-05,0.5746948719024658,-0.0024257111363112926,-0.8152683973312378,0.014833278954029083,-0.7972774505615234,-0.00010351766104577109,-2.3542771339416504,1.5711344480514526,-0.07509592920541763,-1.0908960103988647,0.597597062587738
0.19035011529922485,0.021903200075030327,-9.587787644704804e-05,-0.07202982902526855,0.020509453490376472,-0.43859800696372986,0.009883027523756027,-0.35251256823539734,0.00869480799883604,-2.351583480834961,1.5736538171768188,-0.02610989287495613,-0.4347781240940094,0.6107079982757568
0.2134137749671936,0.07202927768230438,-7.766108319628984e-05,0.057417094707489014,-0.0030293744057416916,-0.36785537004470825,-0.004274464212357998,-0.4401247203350067,0.006190987769514322,-2.3525328636169434,1.5718934535980225,0.043670933693647385,-0.49685221910476685,0.670811653137207
0.2167263776063919,0.11017202585935593,-6.28875641268678e-05,0.21719007194042206,-0.006114622112363577,-0.48238399624824524,-0.02177010476589203,-0.3822394609451294,0.005786819849163294,-2.352649211883545,1.5709799528121948,0.0967552438378334,-0.5822563171386719,0.7071111798286438
-0.11449258774518967,-0.1719454675912857,0.0008129905327223241,-0.09790292382240295,0.05764273554086685,-0.30094683170318604,0.019334930926561356,-0.45525601506233215,0.0038855192251503468,-2.3551509380340576,1.5733535289764404,-0.21523667871952057,-0.7859029173851013,0.6448233723640442
-0.09096908569335938,-0.14147110283374786,0.0006585223018191755,0.09638883918523788,0.03413664549589157,-0.46971452236175537,0.007291228044778109,-0.5797262787818909,0.002844292903319001,-2.355245590209961,1.5722132921218872,-0.17336370050907135,-0.8276845812797546,0.6544152498245239
-0.0793769359588623,-0.10569373518228531,0.00045165148912929,0.2343122661113739,0.029186489060521126,-0.6097022294998169,0.009762058034539223,-0.5781171917915344,0.0019728706683963537,-2.355367422103882,1.5720505714416504,-0.13694395124912262,-0.9001901149749756,0.6441034078598022
-0.0878223329782486,-0.0796332135796547,0.000703671423252672,0.27626678347587585,0.023038547486066818,-0.7036769986152649,0.0019313094671815634,-0.44077134132385254,0.0021429487969726324,-2.35555362701416,1.57162344455719,-0.10320595651865005,-0.9223147034645081,0.6405271887779236
-0.1225760355591774,-0.06596019119024277,0.0005699716275557876,0.2564353346824646,0.018489284440875053,-0.7762467861175537,-0.007802448235452175,-0.517976701259613,0.0026324514765292406,-2.355020046234131,1.5710164308547974,-0.07871726155281067,-0.931187093257904,0.6231867671012878
-0.08733433485031128,-0.07118283957242966,0.00013242242857813835,0.2330448180437088,0.0035502302926033735,-0.6174073815345764,-0.010548392310738564,-0.4976435899734497,0.001829212182201445,-2.356710433959961,1.5705264806747437,-0.0694611445069313,-0.9371644258499146,0.6349961161613464
-0.07383612543344498,-0.07819092273712158,0.00030594217241741717,0.12335337698459625,0.0025016935542225838,-0.4175947308540344,-0.01236793864518404,-0.6284849643707275,0.00179826351813972,-2.354337692260742,1.570448637008667,-0.07342919707298279,-0.9056288599967957,0.6578399538993835
-0.1056862473487854,-0.09660815447568893,0.00024781262618489563,-0.08306203037500381,-0.0029962428379803896,-0.26680228114128113,-0.019783562049269676,-0.45450031757354736,0.0018342221155762672,-2.3546342849731445,1.5702548027038574,-0.0827106386423111,-0.8423460125923157,0.6751835942268372
-0.11251402646303177,-0.10482453554868698,0.00020072823099326342,-0.17003567516803741,0.006521305534988642,-0.23533019423484802,-0.006748152431100607,-0.4087582528591156,0.001766104600392282,-2.3548851013183594,1.5711634159088135,-0.09985411167144775,-0.7656251788139343,0.6716112494468689
-0.08048553764820099,-0.09824880957603455,0.0001625898585189134,-0.205265074968338,0.01690215803682804,-0.15551169216632843,0.01640881784260273,-0.3676541745662689,0.0014082195702940226,-2.3552942276000977,1.5727468729019165,-0.10829992592334747,-0.7213983535766602,0.6713672876358032
-0.04836636781692505,-0.0777670294046402,0.0001323403266724199,-0.25604796409606934,0.02138039842247963,-0.07658635824918747,0.04635258764028549,-0.3416879177093506,-0.0001863899960881099,-2.355328321456909,1.5743380784988403,-0.10270974040031433,-0.6782479882240295,0.693884015083313
-0.043988365679979324,-0.06675232946872711,0.00010719566489569843,-0.2327495664358139,0.013616153039038181,-0.3150011897087097,0.030239494517445564,-0.18590447306632996,-1.3254626537673175e-05,-2.3540172576904297,1.5731035470962524,-0.08569459617137909,-0.62171471118927,0.6813133358955383
-0.03153207525610924,-0.04734274744987488,8.682848419994116e-05,-0.3100791275501251,0.019841114059090614,-0.29333409667015076,0.03134893625974655,-0.07239404320716858,0.0006909823860041797,-2.3547983169555664,1.5734761953353882,-0.07143575698137283,-0.5578362345695496,0.6435530185699463
-0.022846857085824013,-0.01254168339073658,7.033107249299064e-05,-0.3649751842021942,0.02145387791097164,-0.2565390467643738,0.04650527611374855,-0.31332704424858093,0.000941226608119905,-2.350983142852783,1.573879361152649,-0.04784325882792473,-0.5197710394859314,0.6188640594482422
0.1505974382162094,0.12823277711868286,2.403687540208921e-05,-0.13140086829662323,0.001460172818042338,-0.4818463623523712,0.009785694070160389,-0.2399616539478302,-0.00040830436046235263,-2.3562448024749756,1.5711634159088135,0.11147280037403107,-0.4412418305873871,0.5943050980567932
0.16935603320598602,0.13579565286636353,1.9469867766019888e-05,-0.05768457055091858,-0.02074224129319191,-0.47736063599586487,0.000899135775398463,-0.3422386050224304,-0.0025050335098057985,-2.3504412174224854,1.5696499347686768,0.1365182250738144,-0.45650655031204224,0.6339800953865051
0.15814746916294098,0.12947629392147064,1.58771981659811e-05,-0.0993887409567833,-0.0404178723692894,-0.4099644422531128,-0.01031798217445612,-0.26394736766815186,-0.0035998173989355564,-2.351827621459961,1.5683940649032593,0.14743675291538239,-0.47367992997169495,0.6521168351173401
0.13038937747478485,0.11048129945993423,1.7554428268340416e-05,-0.1913689374923706,-0.052799832075834274,-0.2516172528266907,-0.02157912217080593,-0.4692705571651459,-0.004512266721576452,-2.348235607147217,1.5671502351760864,0.14210334420204163,-0.4782104194164276,0.6519339084625244
0.08917234092950821,0.07601526379585266,1.4219087461242452e-05,-0.20067280530929565,-0.05799923092126846,-0.3836873769760132,-0.03194960951805115,-0.32565298676490784,-0.004652632400393486,-2.3504672050476074,1.5663771629333496,0.12069405615329742,-0.48556825518608093,0.6273731589317322
0.02809145301580429,0.028930047526955605,1.1517460734467022e-05,-0.3416726291179657,-0.06616052240133286,-0.33152273297309875,-0.04186655208468437,-0.19606438279151917,-0.006194251589477062,-2.35188889503479,1.5651788711547852,0.08615358173847198,-0.47095784544944763,0.6038302779197693
-0.008079475723206997,-0.0323563888669014,9.329142812930513e-06,-0.42542731761932373,-0.06083099916577339,-0.3651382625102997,-0.055738478899002075,-0.16269835829734802,-0.006162201054394245,-2.3491156101226807,1.5647767782211304,0.03566926345229149,-0.4453386962413788,0.5584644079208374
-0.03237627074122429,0.021694427356123924,-0.0004875006270594895,-0.27008962631225586,-0.037681397050619125,-0.39989516139030457,-0.0029513875488191843,-0.2057730108499527,-0.0002280196058563888,-2.355722665786743,1.5707722902297974,0.053553663194179535,-0.5733742117881775,0.5884057879447937
-0.03320688009262085,0.01042140368372202,-0.0003971255209762603,-0.3987046778202057,-0.01738159731030464,-0.23436293005943298,0.012935617007315159,-0.2680891156196594,0.0015483660390600562,-2.3549976348876953,1.572475790977478,0.022616781294345856,-0.5287915468215942,0.5907238125801086
-0.01519093383103609,-0.013197318650782108,-0.0003216716577298939,-0.40362581610679626,-0.017065763473510742,-0.39942246675491333,0.005606934428215027,-0.1618899554014206,0.0008750666165724397,-2.3551058769226074,1.5717062950134277,0.0030153996776789427,-0.48039674758911133,0.5559257864952087
0.08130945265293121,-0.030736850574612617,0.0015869574854150414,-0.24409551918506622,0.004262286704033613,-0.2192116528749466,0.0014401403022930026,-0.17790767550468445,0.0011118538677692413,-2.381500005722046,1.5716242790222168,-0.032018084079027176,-0.4480590224266052,0.6298384070396423
0.0918622687458992,-0.02076840028166771,0.0012822579592466354,-0.08630204200744629,0.010203291662037373,-0.21215702593326569,0.01873697154223919,-0.2505931556224823,0.0009103165939450264,-2.372390031814575,1.5725079774856567,-0.03265818953514099,-0.5420035719871521,0.7162183523178101
-0.1777358204126358,0.16739556193351746,7.226988145703217e-06,0.35200589895248413,0.002381646540015936,-0.45341959595680237,-0.024745937436819077,-0.5780894756317139,7.807718793628737e-05,-2.3564987182617188,1.5702952146530151,0.1800047904253006,-1.1546447277069092,0.7136809229850769
-0.12406032532453537,0.13872003555297852,4.860443368670531e-06,0.4250392019748688,0.003506988752633333,-0.6142946481704712,-0.03600265458226204,-0.43520087003707886,0.0005191011005081236,-2.356389284133911,1.5700398683547974,0.16082589328289032,-1.0977944135665894,0.6972299814224243
-0.12462176382541656,0.11796936392784119,3.936959274142282e-06,0.298231840133667,0.0018464361783117056,-0.4680938124656677,-0.018484624102711678,-0.5958943963050842,7.613437628606334e-05,-2.356081008911133,1.5704872608184814,0.1318066120147705,-1.0575872659683228,0.6926594972610474
-0.14474034309387207,0.11214182525873184,-0.0003020609146915376,0.20886315405368805,0.0008788328850641847,-0.596197247505188,-0.001134530990384519,-0.43913450837135315,-0.0005643267068080604,-2.355754852294922,1.570855736732483,0.11527116596698761,-0.9986563324928284,0.6776453852653503
-0.12431421875953674,0.10564467310905457,-0.00020830854191444814,0.07515973597764969,0.0006567646050825715,-0.4290522336959839,-0.0016255461378023028,-0.5596303343772888,-0.00039521895814687014,-2.356234073638916,1.570817470550537,0.10910744965076447,-0.9243342876434326,0.6574851870536804
0.06042186915874481,-0.17191630601882935,-0.00028501529595814645,0.09818477183580399,-0.00512150302529335,-0.5365279912948608,0.0038501587696373463,-0.3599949777126312,-0.006061919499188662,-2.3563790321350098,1.570651650428772,-0.13468481600284576,-0.6479504704475403,0.6397818922996521
0.06382357329130173,-0.22353197634220123,-0.0011019660159945488,0.2767437696456909,0.002542653353884816,-0.689605712890625,0.021820848807692528,-0.30845335125923157,-0.006289365701377392,-2.35609769821167,1.5714452266693115,-0.20079465210437775,-0.7177397012710571,0.676010012626648
0.045276012271642685,-0.262621134519577,-0.0008925924776121974,0.32593655586242676,0.0017980837728828192,-0.7259988784790039,0.032857347279787064,-0.15790681540966034,-0.00596234668046236,-2.356231212615967,1.5718837976455688,-0.2507734000682831,-0.7700750827789307,0.690065860748291
-0.011767368763685226,-0.2962169349193573,-0.0005856261122971773,0.36199280619621277,0.0001646083837840706,-0.7893178462982178,0.04533236101269722,-0.5438767671585083,-0.005027425475418568,-2.3555493354797363,1.5723092555999756,-0.3024234175682068,-0.8683098554611206,0.6373918056488037
-0.0760408416390419,-0.23838505148887634,-0.0003117229789495468,0.13487935066223145,0.004673476796597242,-0.5198198556900024,0.04782269150018692,-0.4768678545951843,-0.005481545347720385,-2.3566596508026123,1.5726497173309326,-0.2678530216217041,-0.8569580912590027,0.6461485028266907
-0.028569217771291733,-0.19029521942138672,-0.000252298399573192,0.15635031461715698,0.006140419747680426,-0.37663573026657104,0.0532737597823143,-0.3604069948196411,-0.005494048353284597,-2.356492042541504,1.5728567838668823,-0.2284514605998993,-0.8487683534622192,0.6955999732017517
0.057459913194179535,-0.040602877736091614,-0.00013405043864622712,0.508425772190094,0.0023352261632680893,-0.821675181388855,0.043723974376916885,-0.4236242175102234,-0.003503839485347271,-2.356585741043091,1.5723798274993896,-0.08374544233083725,-0.8668914437294006,0.678468644618988
0.04960034787654877,0.035952359437942505,-0.00010858085443032905,0.5564112067222595,0.0009870689827948809,-0.9322593808174133,0.046950653195381165,-0.5639364123344421,-0.003327053040266037,-2.3563554286956787,1.572554349899292,-0.014474296942353249,-0.910810112953186,0.6121786832809448
0.039220817387104034,0.33820265531539917,-2.0216035409248434e-05,0.5337223410606384,0.001546926680020988,-0.9634652733802795,-0.010645097121596336,-0.35785824060440063,0.0005582569283433259,-2.356126070022583,1.5704245567321777,0.3435079753398895,-0.9066317081451416,0.5937526822090149
0.00680620176717639,0.34077757596969604,-1.637498826312367e-05,0.39626818895339966,0.0007992778555490077,-0.8471118211746216,-0.0014196637785062194,-0.5735816359519958,6.442416633944958e-05,-2.356137752532959,1.5708284378051758,0.3385319411754608,-0.8898635506629944,0.6077523231506348
0.028863564133644104,0.3045204281806946,-8.670244824315887e-06,0.09647322446107864,0.0033484366722404957,-0.4637547433376312,-0.0037700021639466286,-0.5596530437469482,0.0008030051831156015,-2.3568668365478516,1.5706678628921509,0.3101493716239929,-0.7448558807373047,0.6471997499465942
-0.0049936892464756966,0.12739041447639465,0.04163093864917755,0.58658766746521,0.00018219831690657884,-0.5612320303916931,0.0030094606336206198,-0.735227108001709,0.00034309038892388344,-2.3333821296691895,1.5716482400894165,0.14125537872314453,-1.0967096090316772,0.6338289380073547
-0.012044706381857395,0.08820509910583496,0.03372839093208313,0.48140788078308105,0.0014873462496325374,-0.37117037177085876,-0.01075105182826519,-0.8194794058799744,0.0004807977529708296,-2.3381216526031494,1.571366548538208,0.11139685660600662,-1.0926588773727417,0.6601597666740417
-0.017756029963493347,0.03384501859545708,0.027317095547914505,0.39592382311820984,0.0029862760566174984,-0.21400943398475647,-0.028536008670926094,-0.8876819014549255,0.0005455557256937027,-2.3414011001586914,1.57131826877594,0.06678451597690582,-1.090323805809021,0.6775723695755005
-0.015879996120929718,-0.03588670864701271,0.022126847878098488,0.4233773946762085,0.0042754835449159145,-0.2298421561717987,-0.05038788169622421,-0.9414452314376831,0.0005197444697842002,-2.344724178314209,1.5714571475982666,0.008115067146718502,-1.0964233875274658,0.6757892966270447
-0.016520116478204727,-0.11933810263872147,0.017922746017575264,0.48953747749328613,0.005434013437479734,-0.38420870900154114,-0.06795888394117355,-1.0148369073867798,0.0005688845994882286,-2.346867084503174,1.5716010332107544,-0.06524132937192917,-1.1201452016830444,0.6466274261474609
-0.014828771352767944,-0.19299247860908508,0.014517424628138542,0.5656358003616333,0.0035727114882320166,-0.5275048017501831,-0.04614673927426338,-0.9468666315078735,0.00031899759778752923,-2.34883713722229,1.5713576078414917,-0.14792132377624512,-1.1255159378051758,0.6203561425209045
-0.021566027775406837,-0.26065894961357117,0.011541465297341347,0.46230167150497437,0.0024437839165329933,-0.3401653468608856,-0.030233027413487434,-0.8454515337944031,0.00023501190298702568,-2.35052752494812,1.5712171792984009,-0.2210787534713745,-1.1190001964569092,0.6424643397331238
-0.05200487747788429,-0.3135029375553131,0.009348953142762184,0.38981279730796814,0.0004197235102765262,-0.30532577633857727,-0.005728147458285093,-0.8187299966812134,3.1283998396247625e-05,-2.3497962951660156,1.571068525314331,-0.28555840253829956,-1.0955097675323486,0.678070604801178
-0.09654930979013443,-0.35164666175842285,0.00757265230640769,0.2521558701992035,-0.0020946122240275145,-0.25138840079307556,0.019645633175969124,-0.6055600643157959,-0.00019475806038826704,-2.3509273529052734,1.5709419250488281,-0.3360721468925476,-1.0652577877044678,0.7099713683128357
-0.1017846167087555,-0.375705361366272,0.006133848335593939,0.24601741135120392,-0.0047342232428491116,-0.3220447897911072,0.042979348450899124,-0.7156832218170166,-0.0004280014836695045,-2.348442554473877,1.5709067583084106,-0.3722924292087555,-1.0329827070236206,0.7115687131881714
-0.1018635481595993,-0.38623160123825073,0.004968417342752218,0.2909899353981018,-0.005522079300135374,-0.4924725592136383,0.05350739508867264,-0.6047226786613464,-0.0008402554667554796,-2.350301504135132,1.5709459781646729,-0.3926616907119751,-1.0144950151443481,0.6836096048355103
-0.1261003613471985,-0.40474626421928406,0.004024466499686241,0.19343441724777222,-0.0038218731060624123,-0.4173724949359894,0.0342555046081543,-0.7254986763000488,-0.00026800495106726885,-2.3512654304504395,1.570784091949463,-0.40238848328590393,-1.0063027143478394,0.6681318879127502
0.03735246881842613,-0.1649537980556488,-6.925320121808909e-06,0.30671027302742004,-0.01850784942507744,-0.7498534321784973,-0.0005567384068854153,-0.20284195244312286,-0.00024571173707954586,-2.3557584285736084,1.570412516593933,-0.15389244258403778,-0.7740402221679688,0.6439909338951111
0.05699596181511879,-0.19492757320404053,1.9253327991464175e-05,0.4197748303413391,-0.009767930023372173,-0.685772180557251,-0.003006415208801627,-0.44832372665405273,3.3139334846055135e-05,-2.356415033340454,1.5704567432403564,-0.18498429656028748,-0.8357530832290649,0.685374915599823
0.07015588134527206,-0.19380171597003937,1.5595194781781174e-05,0.5102345943450928,-0.008764488622546196,-0.7308189272880554,0.007443905808031559,-0.6633483171463013,-0.0003776267112698406,-2.3558051586151123,1.570851445198059,-0.1934015154838562,-0.903537392616272,0.645057737827301
0.0698167234659195,-0.17831672728061676,1.2632108337129466e-05,0.554978609085083,-0.007859592325985432,-0.7393301129341125,0.014106594026088715,-0.5897249579429626,-0.0006416726973839104,-2.3558852672576904,1.5710453987121582,-0.1873096227645874,-0.9362021684646606,0.6217300295829773
0.07403931766748428,-0.1482257843017578,1.057788722391706e-05,0.591342568397522,-0.007457866333425045,-0.6369894742965698,0.022806214168667793,-0.5304731726646423,-0.0008621773449704051,-2.3565661907196045,1.5713268518447876,-0.16620567440986633,-0.9624593257904053,0.6568717956542969
-0.12875628471374512,0.5172147750854492,-0.0001621677802177146,0.41557201743125916,-0.0012904294999316335,-0.5150012969970703,0.008377250283956528,-0.7650154232978821,-0.00016538426280021667,-2.3559184074401855,1.5711994171142578,0.4878682792186737,-1.1760282516479492,0.638606607913971
-0.17391617596149445,0.5628533959388733,-0.00013135590415913612,0.20492082834243774,-0.0002547911135479808,-0.505052924156189,-0.0019404516788199544,-0.7022185921669006,0.0002208375808550045,-2.3554742336273193,1.5710670948028564,0.5413798093795776,-1.0859582424163818,0.6506069302558899
0.1685914695262909,-0.10869308561086655,0.0015200019115582108,0.4657057523727417,-0.021805645897984505,-0.6002150774002075,-0.014353073202073574,-0.5407385230064392,0.0030567378271371126,-2.351532459259033,1.5698636770248413,-0.08774945884943008,-0.7627730965614319,0.6549082398414612
-0.285058856010437,-0.5133601427078247,-8.49037169246003e-05,0.5935783386230469,-0.001994495978578925,-0.7731891870498657,0.010434595867991447,-0.8869392275810242,0.0004024291702080518,-2.3533782958984375,1.571305274963379,-0.5048015117645264,-1.3860416412353516,0.580394983291626
-0.023509502410888672,0.25878965854644775,5.106465323478915e-05,0.16328631341457367,-0.02621716819703579,-0.38301610946655273,-0.028797756880521774,-0.5912843942642212,0.0010893294820562005,-2.3562204837799072,1.5702389478683472,0.2756936848163605,-0.8742606043815613,0.662190318107605
-0.02665085531771183,0.2413484901189804,4.1363695345353335e-05,0.17121896147727966,-0.02104647271335125,-0.33536508679389954,-0.03625725582242012,-0.7573265433311462,0.0013403473421931267,-2.356210470199585,1.5702844858169556,0.2655082046985626,-0.887519896030426,0.6867625117301941
-0.04166032001376152,0.20950093865394592,3.297249713796191e-05,0.14014796912670135,-0.0168647151440382,-0.2092897593975067,-0.044239964336156845,-0.8722391724586487,0.0014779435005038977,-2.3562047481536865,1.5705879926681519,0.2397807389497757,-0.9266183972358704,0.6692832708358765
-0.05521927401423454,0.18586918711662292,2.670772300916724e-05,0.21679340302944183,-0.01406517531722784,-0.41680121421813965,-0.025136049836874008,-0.6429846882820129,0.0009652700973674655,-2.3560869693756104,1.5704671144485474,0.20708371698856354,-0.9430765509605408,0.6766265630722046
-0.08155619353055954,0.17684128880500793,2.16332555282861e-05,0.18753856420516968,-0.011921831406652927,-0.49883580207824707,-0.007989675737917423,-0.4799431264400482,0.00017472375475335866,-2.3558034896850586,1.570742130279541,0.18735504150390625,-0.9204204082489014,0.6811568140983582
-0.10896177589893341,0.15912577509880066,1.752293792378623e-05,0.10420110821723938,-0.01060214452445507,-0.5179877877235413,-0.0157282967120409,-0.38569560647010803,0.0008274010615423322,-2.3539366722106934,1.5703792572021484,0.17622609436511993,-0.8809567093849182,0.6770446300506592
-0.11450895667076111,0.12574221193790436,1.4193578863341827e-05,0.07996155321598053,-0.014153871685266495,-0.6245349049568176,-0.025410791859030724,-0.4837609529495239,0.001754552242346108,-2.3541653156280518,1.5698522329330444,0.1532110869884491,-0.8523586988449097,0.6437630653381348
0.014325463213026524,0.04251888021826744,-0.00010088869748869911,0.21289609372615814,0.009657616727054119,-0.5461202263832092,0.0023959768004715443,-0.5794544219970703,-0.00015553826233372092,-2.3569185733795166,1.5710417032241821,0.036990996450185776,-0.8384680151939392,0.6394768357276917
0.011355385184288025,0.05469508096575737,-0.00016957364277914166,0.1450914591550827,0.008203098550438881,-0.34823116660118103,0.008213050663471222,-0.6874602437019348,-0.0005946618621237576,-2.3566579818725586,1.5711473226547241,0.044238217175006866,-0.8318100571632385,0.6629471778869629
0.005743326153606176,0.05554584413766861,-0.00013738824054598808,0.11592037975788116,0.006306925322860479,-0.34650519490242004,-0.004188207909464836,-0.469699501991272,-6.485976336989552e-05,-2.3564422130584717,1.5709986686706543,0.05421147868037224,-0.8225247859954834,0.694979190826416
0.012481319718062878,0.06535150855779648,-0.00011129036283819005,0.1520683318376541,0.005642782896757126,-0.5042180418968201,0.0064286356791853905,-0.35702696442604065,-0.000494329840876162,-2.3560712337493896,1.5712791681289673,0.05665452405810356,-0.7871631979942322,0.7062975764274597
0.010335635393857956,0.06631999462842941,-9.015358227770776e-05,0.12204903364181519,0.00330020091496408,-0.5060704350471497,-0.005460541695356369,-0.2751951813697815,0.0002705268852878362,-2.3563711643218994,1.5707370042800903,0.06559941917657852,-0.7524865865707397,0.6987060308456421
0.015441227704286575,0.052555739879608154,-7.302439917111769e-05,0.13128356635570526,-5.355636676540598e-05,-0.5978115200996399,-0.021153267472982407,-0.23306584358215332,0.0012372498167678714,-2.3560683727264404,1.5701229572296143,0.06366333365440369,-0.7327771186828613,0.6949552893638611
0.015121478587388992,0.048129428178071976,-5.9154957853024825e-05,0.05910287797451019,0.003378927940502763,-0.42996811866760254,-0.006287534721195698,-0.4770084023475647,0.0002417762007098645,-2.3562631607055664,1.5706990957260132,0.051256585866212845,-0.7245042324066162,0.674496054649353
0.01908344030380249,0.03435732424259186,-4.7935140173649415e-05,0.08539044857025146,-0.0018848794279620051,-0.4635598957538605,-0.01407740730792284,-0.40437081456184387,0.0007068920531310141,-2.35623836517334,1.5703204870224,0.044764064252376556,-0.730933666229248,0.6735166907310486
0.056442756205797195,0.006140235345810652,-3.882746386807412e-05,0.2368585467338562,-0.004761804360896349,-0.6688329577445984,-0.026388470083475113,-0.3299446702003479,0.0016545657999813557,-2.3533668518066406,1.5697294473648071,0.028081387281417847,-0.7387120127677917,0.6747937798500061
0.09688306599855423,-0.012950945645570755,-3.14502467517741e-05,0.3859770894050598,-0.003924599848687649,-0.799202024936676,-0.012421216815710068,-0.301059365272522,0.0007308967760764062,-2.3543083667755127,1.5703357458114624,0.0010373081313446164,-0.7506481409072876,0.6614084243774414
0.07471352070569992,0.04448975250124931,-8.882422662281897e-06,0.5489705204963684,-0.002041816245764494,-0.6186459064483643,0.013349694199860096,-0.6122907996177673,-0.00021753615874331445,-2.3558974266052246,1.5712816715240479,0.034877605736255646,-0.9820994138717651,0.6439402103424072
0.045059699565172195,0.06856146454811096,-7.194762474682648e-06,0.43604424595832825,-0.0026775936130434275,-0.5841957330703735,0.02067701146006584,-0.7270963191986084,-0.0004355971177574247,-2.355959892272949,1.5713645219802856,0.052003368735313416,-0.9606490135192871,0.6603312492370605
0.19728440046310425,0.010184081271290779,1.6697873661541962e-06,0.657666802406311,0.004731413442641497,-0.49658718705177307,-0.0007728622294962406,-0.6680910587310791,-0.0005963271833024919,-2.3552255630493164,1.5706678628921509,0.004106124863028526,-0.906591534614563,0.6359952092170715
-0.25361040234565735,-0.03848422318696976,1.527972926851362e-05,0.5375938415527344,0.0026251154486089945,-0.8068807125091553,-0.020535795018076897,-0.4082900285720825,0.0001419115869794041,-2.3544678688049316,1.5702773332595825,-0.021504132077097893,-1.2303411960601807,0.6588316559791565
-0.2504270672798157,-0.0550985261797905,1.2376580343698151e-05,0.48951348662376404,0.0014859299408271909,-0.8137431144714355,-0.008546189405024052,-0.5503172278404236,-0.00019573132158257067,-2.3541486263275146,1.5706956386566162,-0.045962270349264145,-1.21626615524292,0.6350481510162354
-0.27384698390960693,-0.079439677298069,1.0025029951066244e-05,0.2843162417411804,0.0017136515816673636,-0.700471818447113,-0.014200580306351185,-0.43089908361434937,0.00026046441053040326,-2.355207920074463,1.5704203844070435,-0.06356830894947052,-1.1590393781661987,0.6361227035522461
-0.2505616247653961,-0.11851679533720016,8.120274287648499e-06,0.21951410174369812,0.0012723938561975956,-0.7108258008956909,-0.020846528932452202,-0.5817702412605286,0.001060965470969677,-2.3528084754943848,1.5700459480285645,-0.09379151463508606,-1.088941216468811,0.6235055923461914
-0.019819561392068863,-0.30196279287338257,0.0001435912708984688,0.169838085770607,0.007708798162639141,-0.6124729514122009,0.003893397282809019,-0.4340679943561554,-0.0013794555561617017,-2.3562562465667725,1.5709861516952515,-0.29192066192626953,-0.8115572333335876,0.6324993968009949
0.034675661474466324,-0.31456753611564636,0.00011636292038019747,0.21791082620620728,0.008001941256225109,-0.6092754006385803,0.015180380083620548,-0.602212131023407,-0.0023415659088641405,-2.3557636737823486,1.5714668035507202,-0.31489360332489014,-0.801756739616394,0.6440279483795166
0.24908950924873352,-0.41179537773132324,4.926886686007492e-05,0.6637728810310364,0.002341702813282609,-0.633095383644104,0.01181914284825325,-0.6227779388427734,-0.0008409181609749794,-2.3570926189422607,1.5710738897323608,-0.4097256660461426,-0.8517673015594482,0.634056031703949
-0.05722109600901604,-0.17786376178264618,9.671693260315806e-05,0.3427363932132721,-0.005169365089386702,-0.22991129755973816,0.08318205177783966,-0.981410026550293,-0.0003436000260990113,-2.356172800064087,1.5708509683609009,-0.22591164708137512,-1.0822315216064453,0.681330680847168
-0.05853395536541939,-0.12160222232341766,7.842474587960169e-05,0.47588202357292175,-0.003093552077189088,-0.4459882080554962,0.05535493046045303,-0.8740805983543396,-0.0001264032325707376,-2.356227159500122,1.570988416671753,-0.15988291800022125,-1.116923213005066,0.654389500617981
-0.05442514643073082,-0.07942129671573639,6.353144999593496e-05,0.5831211805343628,-0.0013120040530338883,-0.6068786382675171,0.03242051228880882,-0.8987738490104675,0.00014440927770920098,-2.3560101985931396,1.5710023641586304,-0.106232188642025,-1.1472444534301758,0.6248089075088501
-0.02410183660686016,-0.05138207599520683,5.1519633416319266e-05,0.7157415747642517,-0.00024387003213632852,-0.7060675621032715,0.01822163350880146,-0.925191342830658,0.0003215849574189633,-2.3564329147338867,1.5709902048110962,-0.0680321753025055,-1.1717500686645508,0.5889214873313904
0.005720163229852915,-0.029121212661266327,0.00016098536434583366,0.8035863041877747,-4.052528311149217e-05,-0.6192775964736938,0.01179261039942503,-1.0284065008163452,0.0002666305226739496,-2.35634708404541,1.5709675550460815,-0.042298365384340286,-1.211663007736206,0.5624369978904724
-0.011866919696331024,-0.0069136423990130424,0.00012917084677610546,0.8840343356132507,-3.3314521715510637e-05,-0.7366155982017517,0.009608381427824497,-0.8850017189979553,0.0002131604851456359,-2.3562750816345215,1.570932149887085,-0.019553285092115402,-1.2464674711227417,0.5479776263237
-0.017785275354981422,0.025439826771616936,0.00010459006443852559,0.8237273097038269,-0.00044302144669927657,-0.5635183453559875,0.013177942484617233,-0.771242618560791,0.0001536026393296197,-2.3558311462402344,1.5709290504455566,0.00532975560054183,-1.2576724290847778,0.5805069804191589
-0.18614396452903748,0.11587141454219818,4.502221418078989e-05,0.4421409070491791,0.0014530867338180542,-0.6470515131950378,-0.011882561258971691,-0.8676398992538452,0.0003415460523683578,-2.3556251525878906,1.5707820653915405,0.11402320861816406,-1.213538646697998,0.6226345896720886
0.14305822551250458,0.1645432859659195,0.0006296130595728755,-0.10140044242143631,0.01818372681736946,-0.3271610736846924,0.01629766635596752,-0.4045003056526184,0.0025891137775033712,-2.3560986518859863,1.5722098350524902,0.13418659567832947,-0.48361220955848694,0.6251926422119141
0.15312643349170685,0.2204076200723648,0.0005111634964123368,-0.0068184733390808105,0.030070019885897636,-0.2500845491886139,0.026095189154148102,-0.49593812227249146,0.0027703267987817526,-2.354856491088867,1.5730595588684082,0.17741557955741882,-0.5569602251052856,0.6855177879333496
0.16010156273841858,0.28970178961753845,0.00041404241346754134,0.05413835868239403,0.03249163180589676,-0.18716654181480408,0.04089611396193504,-0.5700228214263916,0.002235780004411936,-2.3534951210021973,1.5731033086776733,0.2358955442905426,-0.6270977854728699,0.713093638420105
0.12410066276788712,0.34996646642684937,0.00033537435228936374,0.1422347128391266,0.025820141658186913,-0.41984349489212036,0.023332111537456512,-0.3940126597881317,0.0019750897772610188,-2.353707790374756,1.5725353956222534,0.30438661575317383,-0.6647955179214478,0.7210755348205566
0.05911094322800636,0.393978476524353,0.0002717017778195441,0.07509978115558624,0.019913308322429657,-0.34352073073387146,0.004203624092042446,-0.3221012353897095,0.0022203857079148293,-2.354384422302246,1.5716524124145508,0.3620227873325348,-0.6871067881584167,0.721289873123169
0.013006041757762432,0.423595130443573,0.00022007845109328628,0.04199306294322014,0.013631561771035194,-0.24919143319129944,-0.014840886928141117,-0.4964924156665802,0.0021366113796830177,-2.3497729301452637,1.5708855390548706,0.4060986042022705,-0.7376251220703125,0.7264158725738525
0.01992828957736492,0.43872547149658203,0.00017826353723648936,0.09736490249633789,0.007402344606816769,-0.17029651999473572,-0.029962502419948578,-0.6782525777816772,0.0018131297547370195,-2.3511805534362793,1.570723533630371,0.43465256690979004,-0.801687479019165,0.7106354832649231
0.009311359375715256,0.4400983452796936,0.00014439347432926297,0.22518037259578705,0.00696281623095274,-0.35786905884742737,-0.05035176873207092,-0.6378897428512573,0.0016171594616025686,-2.348316192626953,1.5710636377334595,0.4479789435863495,-0.8606566190719604,0.705039918422699
-0.005601170007139444,0.42762303352355957,0.00011695871216943488,0.3444957137107849,0.00708341458812356,-0.46529561281204224,-0.0573711171746254,-0.6581852436065674,0.0018025290919467807,-2.350193738937378,1.5708690881729126,0.4451221227645874,-0.9194014072418213,0.6868563890457153
-0.002789613790810108,0.42371895909309387,9.473656245972961e-05,0.4438917934894562,0.004225920420140028,-0.3966674506664276,-0.032291557639837265,-0.6986880302429199,0.0011088995961472392,-2.3514556884765625,1.5709987878799438,0.4316968321800232,-0.9978315234184265,0.6862389445304871
-0.10069543123245239,-0.3243512213230133,-0.00011984018055954948,-0.2693113684654236,-0.012456695549190044,-0.03615029156208038,0.07781002670526505,-0.5153930187225342,0.0009375709341838956,-2.3532423973083496,1.5699071884155273,-0.3484767973423004,-0.777140736579895,0.700782835483551
0.053043052554130554,-0.1435287892818451,-0.00010459230543347076,-0.07142786681652069,0.007301438134163618,-0.4845702648162842,0.0029856953769922256,-0.2375178039073944,0.0016662947600707412,-2.3566017150878906,1.5711740255355835,-0.14190146327018738,-0.54127436876297,0.6127458810806274
0.057402946054935455,-0.17469128966331482,-9.86964805633761e-05,0.05285060405731201,-0.014059001579880714,-0.483701229095459,-0.008087800815701485,-0.3976132571697235,0.00025579522480256855,-2.3562328815460205,1.5699412822723389,-0.1556786596775055,-0.6205527782440186,0.6644195318222046
0.008430657908320427,-0.21785850822925568,-7.990895392140374e-05,-0.04074328765273094,-0.02394166588783264,-0.30495306849479675,-0.02536570467054844,-0.2725268602371216,0.0007986391428858042,-2.3561365604400635,1.5690250396728516,-0.18394701182842255,-0.6751155257225037,0.6960042715072632
0.028312480077147484,-0.2750895917415619,-6.472624954767525e-05,0.05134251341223717,-0.02801446057856083,-0.24190117418766022,-0.03702584654092789,-0.5202485918998718,0.0005326659884303808,-2.355851173400879,1.5684597492218018,-0.22931091487407684,-0.7245866656303406,0.7182266116142273
0.005544348154217005,-0.3437735140323639,9.562032209942117e-05,0.033897776156663895,-0.027129193767905235,-0.1372828483581543,-0.048773497343063354,-0.539638102054596,0.0003807366010732949,-2.356492280960083,1.5687172412872314,-0.29070907831192017,-0.7828935384750366,0.7261072397232056
0.00011106926831416786,-0.40262898802757263,7.740587170701474e-05,0.17091764509677887,-0.02086063288152218,-0.3455377519130707,-0.024273164570331573,-0.6240015029907227,0.00032791958074085414,-2.356297731399536,1.569043517112732,-0.3601476848125458,-0.8337750434875488,0.7195832133293152
-0.030896387994289398,-0.44620710611343384,6.275718624237925e-05,0.16544702649116516,-0.017253227531909943,-0.4387761056423187,-0.007078961003571749,-0.5021994709968567,-0.00022258804528973997,-2.356055498123169,1.5695345401763916,-0.4167117178440094,-0.8599985241889954,0.6925256848335266
0.011072910390794277,0.12556786835193634,0.05812593922019005,-0.09325822442770004,-0.0014722539344802499,-0.3602832555770874,0.061099614948034286,-0.49801015853881836,-0.0005913568311370909,-2.3239004611968994,1.5734059810638428,0.08224450051784515,-0.6583766937255859,0.6373037695884705
0.030479781329631805,0.10906688123941422,0.04707794263958931,-0.12912219762802124,-0.020882394164800644,-0.41129758954048157,0.042153093963861465,-0.3665860891342163,-0.0018443691078573465,-2.3296566009521484,1.5718269348144531,0.08912147581577301,-0.6174274682998657,0.6339704394340515
0.06611413508653641,0.07798440754413605,0.03813645616173744,-0.15801244974136353,-0.03993716835975647,-0.3773767054080963,0.024755682796239853,-0.35565289855003357,-0.0037981225177645683,-2.335097551345825,1.5699992179870605,0.07981068640947342,-0.5546135902404785,0.6266627907752991
-0.052366580814123154,-0.0840146541595459,0.04966064915060997,0.569575846195221,-0.0004752528329845518,-0.5891114473342896,0.025662288069725037,-0.8614621758460999,5.8637838264985476e-06,-2.327845335006714,1.572324514389038,-0.059109751135110855,-1.1719576120376587,0.6271113753318787
-0.09296305477619171,-0.14586205780506134,0.04030006751418114,0.2870539128780365,0.0001287098857574165,-0.4500173032283783,0.015112419612705708,-0.7274008989334106,0.0001239584817085415,-2.333261251449585,1.5720139741897583,-0.12071795761585236,-1.0762611627578735,0.6430426836013794
-0.12519243359565735,-0.2202446311712265,0.03264305368065834,0.058769743889570236,0.00017624518659431487,-0.4224296510219574,0.002537023974582553,-0.5085570216178894,0.000592525175306946,-2.3325185775756836,1.571617603302002,-0.1911693513393402,-0.9437326192855835,0.6687812805175781
-0.11119689047336578,-0.2895694971084595,0.02631671540439129,-0.03494873642921448,0.008950482122600079,-0.4345087707042694,0.007165602874010801,-0.5958288908004761,0.0005979221896268427,-2.3365228176116943,1.5717554092407227,-0.2683766782283783,-0.8415926098823547,0.6380470395088196
0.1101139485836029,-0.262001633644104,-8.998471457744017e-05,0.04149914160370827,0.05135999992489815,-0.47201672196388245,0.002476426074281335,-0.3477782607078552,0.0037006305065006018,-2.3559036254882812,1.5722742080688477,-0.2933417558670044,-0.5801108479499817,0.6643650531768799
0.13034097850322723,-0.22245104610919952,-7.288761844392866e-05,0.21366126835346222,0.04814794287085533,-0.5448025465011597,0.018507158383727074,-0.44612711668014526,0.0020566352177411318,-2.357353448867798,1.5727952718734741,-0.265612930059433,-0.6471377015113831,0.6775417923927307
0.09301839768886566,-0.17004741728305817,-5.916766167501919e-05,0.28607475757598877,0.0386822484433651,-0.6340540051460266,0.029846055433154106,-0.364319384098053,0.0007226854213513434,-2.3566927909851074,1.5730146169662476,-0.2202850878238678,-0.7235565185546875,0.6835716962814331
0.04488914832472801,-0.12718021869659424,-4.909241761197336e-05,0.27719563245773315,0.03174645081162453,-0.5438166856765747,0.015405099838972092,-0.29523757100105286,0.0010424898937344551,-2.356513261795044,1.572237491607666,-0.1660660058259964,-0.7772021889686584,0.6974008679389954
-0.20282919704914093,-0.35643884539604187,0.05783701688051224,0.24884366989135742,-0.0027184912469238043,-0.6666398048400879,0.05866656079888344,-0.4144497811794281,-0.0007261477294377983,-2.324296712875366,1.5738879442214966,-0.3678610324859619,-1.0378437042236328,0.6731234192848206
-0.2161904126405716,-0.3781433701515198,0.046847984194755554,0.08662169426679611,-0.000769308302551508,-0.5587184429168701,0.05740999057888985,-0.5499952435493469,-0.001577958231791854,-2.3309826850891113,1.5738064050674438,-0.39581990242004395,-0.9894127249717712,0.6358950734138489
-0.0639028325676918,-0.38895854353904724,0.024899719282984734,0.027084888890385628,0.009043081663548946,-0.4985010325908661,0.04442565515637398,-0.38399749994277954,-0.002692069858312607,-2.342270612716675,1.5730891227722168,-0.4116688370704651,-0.7982210516929626,0.6462374329566956
-0.029045291244983673,-0.38355162739753723,0.020193293690681458,-0.029430871829390526,0.01642162911593914,-0.47165125608444214,0.04034872353076935,-0.5345616936683655,-0.0019294375088065863,-2.344341516494751,1.5730397701263428,-0.4091360569000244,-0.7428470253944397,0.6404796838760376
0.047112707048654556,-0.33689478039741516,0.010732170194387436,-0.2579238712787628,0.02085321769118309,-0.15024204552173615,0.028442230075597763,-0.4760380983352661,-0.0007985097472555935,-2.350332260131836,1.572545051574707,-0.3645462989807129,-0.5620146989822388,0.6333699226379395
0.09075451642274857,-0.3282938599586487,0.008693058043718338,-0.20539548993110657,0.011735726147890091,-0.10993006080389023,0.005088005680590868,-0.5653446912765503,-4.404078208608553e-05,-2.35141921043396,1.5711445808410645,-0.3435352146625519,-0.556079626083374,0.6504025459289551
0.1593809276819229,-0.30923667550086975,0.007041377015411854,0.03633188083767891,0.015289339236915112,-0.3441711664199829,0.010020965710282326,-0.6457435488700867,1.3614733688882552e-05,-2.3535993099212646,1.5714693069458008,-0.3279417157173157,-0.5878265500068665,0.6599453091621399
0.15449784696102142,-0.27520376443862915,0.005703515373170376,0.024199992418289185,0.021170886233448982,-0.27126726508140564,0.02072976715862751,-0.6079965829849243,-0.0003228253044653684,-2.353198528289795,1.5715290307998657,-0.304577499628067,-0.6197831630706787,0.6717875599861145
0.15730392932891846,-0.24208740890026093,0.0047410824336111546,0.15087436139583588,0.01598260924220085,-0.4210469722747803,0.013941507786512375,-0.7565960884094238,-0.0002209017548011616,-2.3514068126678467,1.571391224861145,-0.26830753684043884,-0.65755295753479,0.6634770631790161
0.1271827518939972,-0.14629510045051575,0.0031392143573611975,0.2184610813856125,0.012570356950163841,-0.6123238205909729,0.02097165770828724,-0.45880717039108276,-0.0010760532459244132,-2.3536951541900635,1.5712800025939941,-0.1824343055486679,-0.6866737604141235,0.6482458114624023
0.12064486742019653,-0.10711619257926941,0.002542763715609908,0.17649158835411072,0.00979039166122675,-0.49533528089523315,0.007642512675374746,-0.5632563829421997,-8.384753891732544e-05,-2.3539652824401855,1.5708115100860596,-0.13258515298366547,-0.6983272433280945,0.6607608795166016
0.11322314292192459,-0.08235209435224533,0.002059638500213623,0.19115714728832245,0.007281303405761719,-0.5249243974685669,-0.005022251047194004,-0.38642868399620056,0.0007604256388731301,-2.3548004627227783,1.5704265832901,-0.0968649759888649,-0.6944441795349121,0.6765958666801453
0.13692601025104523,-0.0489862896502018,0.0016683072317391634,0.36467498540878296,0.00570279685780406,-0.6763591170310974,0.004645629320293665,-0.4530435800552368,7.799622107995674e-05,-2.3549370765686035,1.5708566904067993,-0.07017754763364792,-0.7223489880561829,0.6777101755142212
0.149482861161232,-0.004025846254080534,0.001251645851880312,0.47393542528152466,0.0040216329507529736,-0.7616338729858398,0.012941875495016575,-0.4820549190044403,-0.0003839164273813367,-2.3550517559051514,1.5711851119995117,-0.03125032037496567,-0.7804545760154724,0.6557067632675171
0.11142022162675858,0.030136743560433388,0.0010138701181858778,0.39636316895484924,0.003971410449594259,-0.636165201663971,0.002163115656003356,-0.6851679682731628,5.846911153639667e-05,-2.355090856552124,1.570838212966919,0.011724396608769894,-0.8225818872451782,0.6410258412361145
0.0435725562274456,0.07227771729230881,0.0008212344837374985,0.2891198396682739,0.0026719816960394382,-0.6717306971549988,0.008910486474633217,-0.5835447311401367,-0.0003758392413146794,-2.3550806045532227,1.570995569229126,0.04702897369861603,-0.8341217041015625,0.6336175203323364
0.01697821356356144,0.12883025407791138,0.0006651999428868294,0.19497208297252655,0.0023651733063161373,-0.5715924501419067,0.01525795366615057,-0.5278839468955994,-0.0010710719507187605,-2.355541944503784,1.5712547302246094,0.09517984092235565,-0.8096221089363098,0.6354541182518005
0.03878297284245491,0.17696531116962433,0.0005388925201259553,0.26145699620246887,0.0014779650373384356,-0.5649129152297974,0.004204384051263332,-0.6548373103141785,-0.00013771571684628725,-2.3553614616394043,1.5708997249603271,0.15194635093212128,-0.8178544640541077,0.6448143124580383
0.005755185149610043,0.14576734602451324,-7.315565017051995e-05,0.20332399010658264,-0.004660537466406822,-0.4185490608215332,-0.015216792933642864,-0.4381427466869354,-0.000572566466871649,-2.3544774055480957,1.5699541568756104,0.16724050045013428,-0.8402565717697144,0.6910294890403748
-0.01613781787455082,0.12337986379861832,-5.925607547396794e-05,0.16252343356609344,-0.00462312949821353,-0.2905304729938507,-0.0001153213597717695,-0.6237523555755615,-0.0008354558376595378,-2.354576587677002,1.5703489780426025,0.1363094300031662,-0.8639184832572937,0.7149436473846436
-0.058951545506715775,0.09235242754220963,-4.7997422370826825e-05,0.07275579869747162,-0.003556622890755534,-0.19450727105140686,-0.01278209313750267,-0.7915663123130798,-0.00048062059795483947,-2.3547396659851074,1.5705468654632568,0.11206251382827759,-0.9010698795318604,0.69228595495224
-0.0842306837439537,0.046240318566560745,-3.890314474119805e-05,0.04919238016009331,-0.00643440056592226,-0.20965927839279175,-0.027759602293372154,-0.718204915523529,-0.0002975822426378727,-2.3551645278930664,1.5709706544876099,0.07665619254112244,-0.906205415725708,0.6799101233482361
-0.10455095022916794,-0.014146196655929089,-3.15115466946736e-05,0.01801171526312828,-0.010504026897251606,-0.08939256519079208,-0.04025507718324661,-0.8024686574935913,-0.00022713738144375384,-2.3554461002349854,1.5712085962295532,0.02685198001563549,-0.9236062169075012,0.6851789951324463
-0.1290530562400818,-0.06435388326644897,-2.552435216784943e-05,0.025348706170916557,-0.005929962266236544,-0.15166185796260834,-0.022631272673606873,-0.6478943228721619,-0.00012483781029004604,-2.355543613433838,1.5709620714187622,-0.031884778290987015,-0.9445697665214539,0.6990628838539124
-0.1329878568649292,-0.09955573827028275,-2.0674724510172382e-05,0.10582469403743744,0.0006039979052729905,-0.3229866027832031,0.0020349333062767982,-0.81855708360672,-8.680288738105446e-05,-2.355590343475342,1.5706825256347656,-0.08123130351305008,-0.961807131767273,0.6834971904754639
-0.16617202758789062,-0.22555339336395264,-1.099168093787739e-05,0.025688698515295982,-0.0029211104847490788,-0.49964696168899536,-0.0037267471197992563,-0.40381568670272827,-2.0301467884564772e-05,-2.356168508529663,1.5705695152282715,-0.20204205811023712,-0.8753546476364136,0.6515058875083923
-0.12369843572378159,-0.26082050800323486,-8.904434253054205e-06,0.07159851491451263,0.004026163835078478,-0.37643322348594666,0.00424302788451314,-0.5768697261810303,-0.0003510088718030602,-2.3562910556793213,1.5709762573242188,-0.24482323229312897,-0.8872812986373901,0.6589943766593933
-0.10590417683124542,-0.28172948956489563,-7.216931408038363e-06,0.17616264522075653,0.007029801141470671,-0.5422244668006897,0.016351541504263878,-0.463954359292984,-0.0010821918258443475,-2.35589337348938,1.5712977647781372,-0.27737849950790405,-0.9097726941108704,0.6706634759902954
-0.12135662138462067,-0.28866079449653625,-5.8281571000406984e-06,0.1804642528295517,0.006794643588364124,-0.590909481048584,0.02418612316250801,-0.6719620227813721,-0.001860672258771956,-2.3557233810424805,1.571606993675232,-0.2937122583389282,-0.9309816956520081,0.6423462629318237
-0.06569526344537735,-0.298645943403244,-3.1654285521653946e-06,0.2963576316833496,0.0031942303758114576,-0.8393712639808655,0.0011470626341179013,-0.284768670797348,0.0003706537827383727,-2.356133222579956,1.5705245733261108,-0.29239365458488464,-0.8833196759223938,0.6040458679199219
-0.01139803696423769,-0.3059225082397461,-2.63307833847648e-06,0.3536028265953064,0.002599859843030572,-0.7543796896934509,0.009586506523191929,-0.30781126022338867,-0.0003271694004070014,-2.3562543392181396,1.570952296257019,-0.30644455552101135,-0.8610487580299377,0.6477867364883423
0.00794187095016241,-0.29855355620384216,-2.09915060622734e-06,0.3269267976284027,0.0014428844442591071,-0.6174697875976562,0.02027956210076809,-0.4238985478878021,-0.0009112191037274897,-2.355701208114624,1.5714422464370728,-0.3082599937915802,-0.8709593415260315,0.6766766905784607
0.009652510285377502,-0.27678775787353516,-1.6633006225674762e-06,0.27411794662475586,0.00025747480685822666,-0.5562920570373535,0.03019171580672264,-0.3364832401275635,-0.0013903847429901361,-2.356025457382202,1.5718393325805664,-0.29550379514694214,-0.8550691604614258,0.6979081034660339
0.017581241205334663,-0.24021396040916443,-1.3472734963215771e-06,0.21786940097808838,-0.0007121965172700584,-0.3585394024848938,0.03848475590348244,-0.48715919256210327,-0.0016914552543312311,-2.356295108795166,1.572104573249817,-0.2678907811641693,-0.8471331596374512,0.7191706895828247
0.016069896519184113,-0.09683650732040405,-9.339753432868747e-07,0.2876296043395996,-0.0013224243884906173,-0.6315694451332092,0.03472933918237686,-0.4152520000934601,-0.0015064642066136003,-2.3554601669311523,1.5718915462493896,-0.13068892061710358,-0.8264377117156982,0.6948384642601013
0.03846272826194763,-0.054951705038547516,-7.56520023514895e-07,0.3685685694217682,-0.0006278809742070735,-0.7422388195991516,0.018523182719945908,-0.24641452729701996,-0.0006795766530558467,-2.3555915355682373,1.5712776184082031,-0.07996385544538498,-0.8255552053451538,0.6717422008514404
0.04098714143037796,-0.027165135368704796,-6.127392566668277e-07,0.3837357461452484,0.00021946188644506037,-0.7086600065231323,0.0016938047483563423,-0.4925834834575653,4.775589695782401e-05,-2.3557026386260986,1.5706943273544312,-0.04125194251537323,-0.8425969481468201,0.6758022308349609
0.03602773696184158,-0.013987389393150806,-5.045976649853401e-07,0.43040356040000916,0.000894544180482626,-0.7867434620857239,-0.008590136654675007,-0.5465781688690186,0.0006033054087311029,-2.3576571941375732,1.5703295469284058,-0.018140781670808792,-0.874768078327179,0.633277952671051
-0.029316462576389313,-0.013474535197019577,0.00015893274394329637,0.23798300325870514,0.0010877298191189766,-0.5817917585372925,-0.014779414981603622,-0.5661556720733643,0.0009878204436972737,-2.3563811779022217,1.5701510906219482,-0.010638375766575336,-0.8858280777931213,0.6383638978004456
0.016773788258433342,0.08005358278751373,5.541613427340053e-05,0.2088824063539505,0.0013892388669773936,-0.6356024146080017,-0.004013732075691223,-0.48740649223327637,0.00019187263387721032,-2.356198310852051,1.570549488067627,0.0724901631474495,-0.784128725528717,0.630488932132721
0.04557886719703674,0.08185456693172455,4.488365084398538e-05,0.2317054122686386,0.000550074502825737,-0.535879909992218,-0.014551211148500443,-0.3467118442058563,0.0011655808193609118,-2.356196880340576,1.5700948238372803,0.08444946259260178,-0.7835378050804138,0.6681510806083679
0.050172071903944016,0.09035740047693253,-0.00011712023115251213,0.2665626108646393,0.0001582135009812191,-0.5058548450469971,-0.002863741246983409,-0.4148887097835541,0.0005611018859781325,-2.3561902046203613,1.5705289840698242,0.08686910569667816,-0.7982892990112305,0.7167888879776001
0.03428424149751663,0.08909125626087189,-9.486738417763263e-05,0.2793140411376953,0.0008941817795857787,-0.5852786898612976,-0.013512672856450081,-0.3598034679889679,0.0009412257932126522,-2.35579514503479,1.5701878070831299,0.09295088797807693,-0.8174979090690613,0.7043508887290955
0.05069350823760033,0.07338147610425949,-7.683597505092621e-05,0.33712533116340637,0.0014243858167901635,-0.6574590802192688,-0.024723349139094353,-0.23242346942424774,0.0014174722600728273,-2.356264114379883,1.5697849988937378,0.08687850832939148,-0.8080731630325317,0.7046448588371277
-0.1551152467727661,-0.10923247039318085,0.00011768023250624537,0.30856558680534363,-6.4600128098391e-05,-0.3190915286540985,-0.005238280165940523,-0.5569495558738708,-0.00019127439009025693,-2.3560898303985596,1.5707672834396362,-0.10158966481685638,-1.1670172214508057,0.7025082111358643
-0.08736244589090347,0.2045660763978958,0.10177913308143616,-0.2909315228462219,-0.0232437364757061,-0.32196876406669617,0.03386626020073891,-0.32612526416778564,-0.0010157381184399128,-2.3063106536865234,1.5714222192764282,0.1653733104467392,-0.626509964466095,0.594041645526886
-0.07172928005456924,0.16488748788833618,0.08244109898805618,-0.32325032353401184,-0.015627333894371986,-0.33093613386154175,0.028814299032092094,-0.31529897451400757,-0.0004904066445305943,-2.3149988651275635,1.5715752840042114,0.13321007788181305,-0.585798442363739,0.5822625160217285
0.06831485033035278,-0.09407428652048111,0.003503351239487529,0.24960504472255707,0.013190249912440777,-0.704908549785614,0.021485870704054832,-0.3909209668636322,-0.0018349415622651577,-2.351689100265503,1.5720175504684448,-0.10971298813819885,-0.7473134398460388,0.6101186275482178
0.062358688563108444,-0.09516283124685287,0.0028377145063132048,0.18791550397872925,0.010228730738162994,-0.5353540182113647,0.008284580893814564,-0.5683363080024719,-0.0006744586862623692,-2.352545738220215,1.5713750123977661,-0.10105765610933304,-0.7497366666793823,0.6566455960273743
0.07431446015834808,-0.05163397267460823,0.0015080785378813744,0.4206131398677826,0.006236970890313387,-0.6495941281318665,0.00597953237593174,-0.6260085105895996,-0.0007384687778539956,-2.355170965194702,1.5711147785186768,-0.06171580031514168,-0.848220705986023,0.6543062329292297
0.0739477351307869,-0.02955806441605091,0.0012215436436235905,0.5370159149169922,0.004258086439222097,-0.7925013899803162,0.013707022182643414,-0.4149935245513916,-0.0009609961416572332,-2.3554341793060303,1.5713245868682861,-0.04633837193250656,-0.8925846815109253,0.6511130332946777
-0.05961035564541817,-0.17792238295078278,0.00010497432231204584,0.5973939299583435,0.0033605925273150206,-0.5926828980445862,-0.02978302165865898,-0.8168697357177734,-2.1802499759360217e-05,-2.3557589054107666,1.5702259540557861,-0.15837600827217102,-1.1439728736877441,0.6358215808868408
-0.08673232793807983,-0.21468226611614227,8.502802666043863e-05,0.6087433695793152,0.0035264419857412577,-0.7553136348724365,-0.03211935609579086,-0.6134852766990662,0.0001732292730594054,-2.35585618019104,1.5702464580535889,-0.18910659849643707,-1.1515830755233765,0.626392662525177
-0.12261861562728882,-0.24358904361724854,6.887270137667656e-05,0.5054143071174622,0.002136711496859789,-0.7643609046936035,-0.01846230775117874,-0.5311200618743896,-0.00010948063572868705,-2.355804920196533,1.5705753564834595,-0.22622144222259521,-1.1176003217697144,0.6342483758926392
-0.10505524277687073,-0.2579551041126251,5.578688796958886e-05,0.523581326007843,0.0008474822388961911,-0.8316404819488525,-0.004569091834127903,-0.4786317050457001,-0.0005313367582857609,-2.35622239112854,1.5709983110427856,-0.25047001242637634,-1.0796658992767334,0.632208526134491
-0.0808267593383789,-0.257882297039032,4.517573688644916e-05,0.41715919971466064,-0.00024765473790466785,-0.6356041431427002,0.007921234704554081,-0.3875736594200134,-0.0008933601784519851,-2.3562123775482178,1.5714123249053955,-0.2600459158420563,-1.0386289358139038,0.663110613822937
0.09226833283901215,-0.04321594908833504,-0.0001119506559916772,0.35019832849502563,-0.0059313285164535046,-0.6291337609291077,0.06936950236558914,-0.48471689224243164,-0.001924445852637291,-2.354560613632202,1.5728963613510132,-0.09186220169067383,-0.8265222907066345,0.6923797726631165
0.041806772351264954,0.023575175553560257,-2.995652494064416e-06,0.11018182337284088,-0.00533245550468564,-0.5305647850036621,0.054968323558568954,-0.3431772291660309,-0.0013950364664196968,-2.3543858528137207,1.5724281072616577,-0.021006280556321144,-0.7557926774024963,0.677584171295166
0.034897349774837494,0.07490556687116623,-2.4154603579518152e-06,0.012465326115489006,-0.01103960070759058,-0.5359585881233215,0.029774537310004234,-0.2762377858161926,-0.0001629595790291205,-2.3545291423797607,1.5713986158370972,0.04405913129448891,-0.6680135726928711,0.6660685539245605
0.0685059055685997,0.11054755002260208,-1.9565229649742832e-06,0.110233835875988,-0.02317092940211296,-0.7218129634857178,0.009105712175369263,-0.4316971004009247,0.000728650891687721,-2.3547208309173584,1.5703952312469482,0.09687739610671997,-0.6462393999099731,0.6203078031539917
-0.018639134243130684,-0.25048941373825073,-0.00027973257238045335,0.09197212755680084,0.022355571389198303,-0.4783848226070404,0.01684669591486454,-0.3815198838710785,-0.0012695721816271544,-2.355422019958496,1.5714807510375977,-0.25788289308547974,-0.7650303840637207,0.6389305591583252
-0.008730190806090832,-0.26707887649536133,-0.00022657793306279927,0.12826155126094818,0.01625676080584526,-0.33504316210746765,0.004723414778709412,-0.6059555411338806,-0.0006035236874595284,-2.3555703163146973,1.5710721015930176,-0.26588907837867737,-0.8046960234642029,0.6957110166549683
-0.007718958426266909,-0.27454307675361633,-0.00018482359882909805,0.17738758027553558,0.012996210716664791,-0.23498861491680145,0.015268607996404171,-0.741395890712738,-0.0007716021500527859,-2.358384847640991,1.5709917545318604,-0.27846071124076843,-0.8778368234634399,0.6938654780387878
-0.0019788930658251047,-0.29016202688217163,-0.00014997842663433403,0.31523001194000244,0.011717955581843853,-0.37101972103118896,-0.0019370084628462791,-0.81816166639328,-0.0004050104762427509,-2.3575963973999023,1.5711092948913574,-0.2850976586341858,-0.9509382247924805,0.6822567582130432
-0.049484092742204666,-0.2973410487174988,-0.00012194045848445967,0.24540375173091888,0.008260543458163738,-0.2716050446033478,0.011425474658608437,-0.9443467259407043,-0.0005968231707811356,-2.3570916652679443,1.5709004402160645,-0.2986702620983124,-1.0039652585983276,0.6629208326339722
-0.10748793184757233,-0.2893499433994293,-9.883613529382274e-05,0.21819014847278595,0.00517652090638876,-0.4363499879837036,0.02854336053133011,-0.7120840549468994,-0.0009415773674845695,-2.3567686080932617,1.5705782175064087,-0.30078279972076416,-1.009676218032837,0.6615360379219055
-0.17804022133350372,-0.29068830609321594,-8.005649578990415e-05,0.05390819162130356,0.0035624441225081682,-0.3929738402366638,0.016125870868563652,-0.5817904472351074,-0.00034065026557072997,-2.3554816246032715,1.5705519914627075,-0.29447343945503235,-0.9717506766319275,0.6621472835540771
-0.25417560338974,-0.282526433467865,-6.484575715148821e-05,-0.17967022955417633,0.012042278423905373,-0.2845604121685028,0.020141854882240295,-0.4163172245025635,-0.00012407680333126336,-2.3548741340637207,1.5710493326187134,-0.294430673122406,-0.9101690053939819,0.6566319465637207
-0.2623818814754486,-0.2586658298969269,-5.278856406221166e-05,-0.17422643303871155,0.025226561352610588,-0.46471530199050903,0.02631700597703457,-0.3003101050853729,0.0013058714102953672,-2.3553481101989746,1.5723100900650024,-0.2845212519168854,-0.8516162633895874,0.6195122003555298
-0.2501521110534668,-0.22066840529441833,-4.2758736526593566e-05,-0.23884353041648865,0.04296044632792473,-0.35944390296936035,0.026491891592741013,-0.3123170733451843,0.004146540071815252,-2.3558285236358643,1.5736315250396729,-0.2604229152202606,-0.8234366178512573,0.5961033701896667
-0.2343723475933075,-0.16794617474079132,-1.9297487597214058e-05,-0.19765251874923706,0.048624537885189056,-0.5312420725822449,0.034236736595630646,-0.19784283638000488,0.005378996953368187,-2.352405071258545,1.5746885538101196,-0.22135725617408752,-0.7881037592887878,0.5990169048309326
-0.07161363959312439,-0.02973940223455429,-5.4925163567531854e-05,0.18243572115898132,0.023937806487083435,-0.6219146251678467,-0.0013319205027073622,-0.37991267442703247,0.0037514371797442436,-2.353828191757202,1.5718132257461548,-0.047091078013181686,-0.829614520072937,0.647590696811676
-0.0826435387134552,-0.030239535495638847,-4.448938125278801e-05,0.24833016097545624,0.01839919574558735,-0.6652591228485107,-0.014037449844181538,-0.30188143253326416,0.004136100877076387,-2.3540725708007812,1.5710221529006958,-0.03542439267039299,-0.8701545596122742,0.6690025925636292
-0.11655081808567047,-0.02191300503909588,-3.603558070608415e-05,0.2862637937068939,0.014957449398934841,-0.7703149914741516,-0.0024637694004923105,-0.291339248418808,0.002728797495365143,-2.354275703430176,1.5713567733764648,-0.03327123820781708,-0.9057281613349915,0.6644428968429565
-0.1774536520242691,-0.0006158880423754454,-0.00033382244873791933,0.11664203554391861,0.013324355706572533,-0.5502352714538574,0.010311560705304146,-0.4694713354110718,0.0011582229053601623,-2.3547232151031494,1.5717668533325195,-0.019414018839597702,-0.9334198832511902,0.6515577435493469
-0.022128790616989136,0.12230101972818375,7.055910828057677e-05,0.2974185645580292,0.00038157126982696354,-0.627393364906311,0.0023984690196812153,-0.552065908908844,0.0001721216831356287,-2.3553643226623535,1.570972204208374,0.1122155636548996,-0.9072502255439758,0.625145673751831
-0.06765580177307129,0.1306828111410141,5.7152879890054464e-05,0.14419692754745483,0.0005039217649027705,-0.4808944761753082,-0.006513765547424555,-0.4025816321372986,0.0007255587843246758,-2.355236530303955,1.570627212524414,0.12835565209388733,-0.8766879439353943,0.673677921295166
-0.1137414425611496,0.12398997694253922,4.6293833293020725e-05,-0.02664973959326744,-0.0028214051853865385,-0.36209094524383545,-0.018777497112751007,-0.28149735927581787,0.0012672124430537224,-2.3550362586975098,1.5700541734695435,0.13203272223472595,-0.8279580473899841,0.7019523978233337
-0.13411739468574524,0.1272820681333542,3.750347241293639e-05,-0.12873579561710358,0.0058405897580087185,-0.28747910261154175,-0.005781036801636219,-0.16163639724254608,0.001386569463647902,-2.355414390563965,1.5709463357925415,0.12663985788822174,-0.7736814618110657,0.7100672125816345
-0.03540756180882454,0.08944805711507797,1.1362340956111439e-05,0.11513882875442505,-0.0013582310639321804,-0.4456254541873932,-0.039705924689769745,-0.39764314889907837,0.0018340673996135592,-2.3586225509643555,1.571202278137207,0.1173432320356369,-0.8034231662750244,0.7065363526344299
-0.060757119208574295,0.05595129728317261,-0.00012512320245150477,0.07207433879375458,0.0002346045948797837,-0.36591672897338867,-0.028853489086031914,-0.4597947895526886,0.0013717871624976397,-2.357748508453369,1.5712460279464722,0.08000368624925613,-0.8188510537147522,0.6954784989356995
-0.07542508095502853,0.011785240843892097,-0.00010137322533410043,0.10418493300676346,-0.002557203406468034,-0.4578005373477936,-0.033741265535354614,-0.5088112354278564,0.0016204422572627664,-2.3570785522460938,1.5708085298538208,0.04280594363808632,-0.8461451530456543,0.6829714775085449
-0.10948248952627182,-0.02277277782559395,-8.268010424217209e-05,-0.03420816361904144,0.0025473586283624172,-0.302028626203537,-0.019606996327638626,-0.5136966109275818,0.0009618715848773718,-2.356760263442993,1.5711044073104858,-0.001064731739461422,-0.8434668183326721,0.6706461906433105
-0.12506936490535736,-0.06735235452651978,-6.697088974760845e-05,-0.08447530120611191,-0.007351477164775133,-0.35317254066467285,-0.02235136739909649,-0.4691583216190338,0.0004733373934868723,-2.3564064502716064,1.5705522298812866,-0.03830484300851822,-0.8161287903785706,0.6630096435546875
-0.15857265889644623,-0.1614799201488495,0.01605202816426754,0.12006258964538574,-0.004011775832623243,-0.6861549615859985,0.07686937600374222,-0.2241380363702774,-0.0017896435456350446,-2.344867467880249,1.5734920501708984,-0.209255188703537,-0.9188940525054932,0.6674568057060242
-0.09239423274993896,-0.09706772118806839,0.01300168689340353,0.059295788407325745,0.005247739143669605,-0.6733423471450806,0.07970227301120758,-0.1656712293624878,-0.0028911654371768236,-2.3473148345947266,1.5733699798583984,-0.1546299308538437,-0.806571364402771,0.642861545085907
-0.033003345131874084,-0.0178344938904047,0.010531366802752018,-0.025072621181607246,0.02038940228521824,-0.5537593364715576,0.08114127069711685,-0.12657739222049713,-0.0029714039992541075,-2.3516201972961426,1.573226809501648,-0.08757255226373672,-0.7052201628684998,0.6532021760940552
0.06447383016347885,0.04841870442032814,0.008530407212674618,0.10840955376625061,0.006048258394002914,-0.6903795003890991,0.05599915608763695,-0.1923978477716446,-0.0021796305663883686,-2.352337598800659,1.5724766254425049,-0.00837064441293478,-0.6440932154655457,0.6545273661613464
0.10918160527944565,0.12423200160264969,0.006581597961485386,0.14915971457958221,0.00954053271561861,-0.8390960097312927,0.05519182235002518,-0.11649434268474579,-0.0025765630416572094,-2.352919340133667,1.5721685886383057,0.06682360172271729,-0.6043271422386169,0.6365355253219604
0.11739078164100647,0.18860381841659546,0.00533109437674284,0.06196038797497749,0.00154866895172745,-0.7792645692825317,0.031097212806344032,-0.05292264744639397,-0.0012014555977657437,-2.3535168170928955,1.5723190307617188,0.14301054179668427,-0.5480506420135498,0.6104171276092529
0.13420918583869934,0.2365531474351883,0.004318186081945896,0.012894232757389545,-0.017285946756601334,-0.6529092192649841,0.004054345656186342,-0.17029815912246704,-0.00028981093782931566,-2.354015350341797,1.572373390197754,0.21186667680740356,-0.5090185403823853,0.6241238713264465
0.17041991651058197,0.27028343081474304,0.003497730940580368,0.0750078558921814,-0.03344982489943504,-0.6261875033378601,-0.016255110502243042,-0.33823734521865845,0.0005076569505035877,-2.3545889854431152,1.5712077617645264,0.2658768594264984,-0.518106997013092,0.6294373273849487
0.1912299543619156,0.3173271417617798,0.0028331619687378407,0.10073845088481903,-0.023458018898963928,-0.5131694078445435,-0.007722626905888319,-0.5563276410102844,-0.00017641829617787153,-2.3562793731689453,1.5713948011398315,0.3047333359718323,-0.5577074885368347,0.6361900568008423
0.20666882395744324,0.3648020625114441,0.002290514064952731,0.1640636920928955,-0.018475281074643135,-0.4805428683757782,-0.006227555219084024,-0.553309440612793,-0.00015164364594966173,-2.3562488555908203,1.5712908506393433,0.3495011627674103,-0.5941911935806274,0.6521259546279907
0.16569139063358307,0.39873138070106506,0.001855316455475986,0.10064675658941269,-0.01585584506392479,-0.372999370098114,-0.016140427440404892,-0.5293885469436646,0.0006018489366397262,-2.356022596359253,1.5709021091461182,0.39116865396499634,-0.6227255463600159,0.6815382838249207
0.11873558163642883,0.41737502813339233,0.0015028063207864761,0.10503330081701279,-0.015030087903141975,-0.38753142952919006,-0.024256838485598564,-0.5966541767120361,0.0010296948021277785,-2.355715274810791,1.570638656616211,0.41867679357528687,-0.6573386788368225,0.6802043318748474
0.09603924304246902,0.42125988006591797,0.0012178109027445316,0.22884318232536316,-0.01387073379009962,-0.5527715086936951,-0.030350234359502792,-0.5807245969772339,0.0015137745067477226,-2.3573765754699707,1.57045316696167,0.4314689636230469,-0.7184410691261292,0.6621866226196289
0.05318500101566315,0.4114554524421692,0.0009866979671642184,0.2068454623222351,-0.011201503686606884,-0.4917559325695038,-0.035300113260746,-0.624820351600647,0.002020846586674452,-2.3569509983062744,1.5702370405197144,0.42902135848999023,-0.7809818983078003,0.6572719216346741
0.050673797726631165,0.3481026291847229,0.0006479765870608389,0.521263062953949,-0.006697459612041712,-0.778755247592926,-0.03767849877476692,-0.6074454188346863,0.002287069335579872,-2.3563437461853027,1.57011878490448,0.3794724643230438,-0.9094529747962952,0.6254305243492126
0.07395148277282715,0.29502153396606445,0.0005248610395938158,0.6957901120185852,-0.004521997645497322,-0.8995593190193176,-0.03959360718727112,-0.5464959144592285,0.002219868591055274,-2.354671001434326,1.5699607133865356,0.3335074186325073,-0.9632954001426697,0.6117537617683411
0.08617135882377625,0.25021207332611084,0.00042513746302574873,0.7460824251174927,-0.004346555098891258,-0.885585367679596,-0.024662908166646957,-0.3755190074443817,0.0016036296728998423,-2.355452299118042,1.5704091787338257,0.2796580195426941,-0.9883760809898376,0.6228746771812439
-0.009720522910356522,0.001833812682889402,0.00014822858793195337,0.5717411637306213,-0.0008741572382859886,-0.704663872718811,-0.014672047458589077,-0.5227877497673035,0.0005818027420900762,-2.3554909229278564,1.570421814918518,0.03433207795023918,-1.064552903175354,0.6500696539878845
-0.03700892627239227,-0.04244082048535347,0.00012006515316898003,0.43451017141342163,-0.001890811719931662,-0.6245448589324951,0.00035490805748850107,-0.5640285015106201,0.00011058794189011678,-2.355503559112549,1.5708644390106201,-0.020176345482468605,-1.0203444957733154,0.6632346510887146
-0.0396135188639164,-0.07220886647701263,9.724857955006883e-05,0.4500139057636261,-0.0026158937253057957,-0.767880916595459,0.012340676039457321,-0.4664546847343445,-0.0003939731977880001,-2.355555295944214,1.5712220668792725,-0.05983220040798187,-0.9815769791603088,0.6544921398162842
-0.03885650634765625,-0.09134915471076965,-0.0001963305548997596,0.4635780155658722,-0.002605296205729246,-0.9222345948219299,0.019302012398838997,-0.42757681012153625,-0.0007761693559587002,-2.354079246520996,1.5714821815490723,-0.08520039170980453,-0.9558750987052917,0.6235096454620361
-0.03981868922710419,-0.12097062170505524,-0.00015902775339782238,0.4413600265979767,-0.0017075573559850454,-0.9757029414176941,0.007677630055695772,-0.30485469102859497,-0.00013962409866508096,-2.354478359222412,1.5709480047225952,-0.10664718598127365,-0.9191357493400574,0.5959014296531677
-0.024945493787527084,-0.14254063367843628,-0.00012881247675977647,0.5085960626602173,-0.00164319749455899,-1.0779194831848145,0.014089877717196941,-0.20935335755348206,-0.0005383518873713911,-2.354879140853882,1.5712580680847168,-0.1352066844701767,-0.8951200842857361,0.5973966121673584
-0.05608129873871803,-0.16732868552207947,-0.000107605526864063,0.4819145202636719,-0.0012464193860068917,-1.1261855363845825,0.008262948133051395,-0.25736239552497864,-0.0003018064016941935,-2.3544135093688965,1.5710725784301758,-0.15680962800979614,-0.9035804271697998,0.5802388787269592
-0.11535685509443283,-0.20252858102321625,-8.716047886991873e-05,0.3621197044849396,-0.0009757641819305718,-1.1867140531539917,-0.0023279129527509212,-0.19160430133342743,0.0003189369454048574,-2.353630781173706,1.5706764459609985,-0.18343444168567657,-0.9015753865242004,0.5422731041908264
-0.0831560268998146,-0.22897306084632874,-3.2348001695936546e-05,0.054877039045095444,0.04759865626692772,-0.6766754984855652,0.023614345118403435,-0.2486589550971985,4.0297476516570896e-05,-2.355818510055542,1.5727150440216064,-0.27100035548210144,-0.7606057524681091,0.6337675452232361
-0.020825479179620743,0.021273208782076836,3.618028495111503e-05,0.1252654790878296,-0.018455980345606804,-0.6815911531448364,-0.014315320178866386,-0.3667617738246918,0.0030771950259804726,-2.355175256729126,1.5712740421295166,0.03885176405310631,-0.7590487599372864,0.6221847534179688
0.0237500611692667,0.023682883009314537,2.9306031137821265e-05,0.20147670805454254,-0.008838867768645287,-0.6294681429862976,0.005096539855003357,-0.5441354513168335,0.0004194144275970757,-2.355872631072998,1.571946620941162,0.026191098615527153,-0.768644392490387,0.6250482797622681
0.06912783533334732,0.038839731365442276,2.378420322202146e-05,0.3304145336151123,-0.006396693177521229,-0.6579654216766357,0.015151332132518291,-0.482357919216156,-0.0007659385446459055,-2.356257438659668,1.5721739530563354,0.029720276594161987,-0.7966681718826294,0.6438249945640564
0.09680485725402832,0.06752947717905045,-0.00019653135677799582,0.3950198292732239,-0.005867169704288244,-0.6369953751564026,0.0245348010212183,-0.4418236315250397,-0.001242424943484366,-2.3558993339538574,1.5723377466201782,0.049673497676849365,-0.8201615810394287,0.6724124550819397
0.07582885771989822,0.10978689789772034,-0.00015919040015432984,0.41595786809921265,-0.006014018319547176,-0.7448519468307495,0.035225532948970795,-0.35078132152557373,-0.0015895214164629579,-2.355170965194702,1.572601556777954,0.08243586868047714,-0.8257330060005188,0.679665207862854
0.03060830943286419,0.1661849468946457,-0.0001289442298002541,0.36870360374450684,-0.0056909723207354546,-0.868035078048706,0.04287762567400932,-0.21110311150550842,-0.001917002024129033,-2.355050563812256,1.5728243589401245,0.12971806526184082,-0.8125921487808228,0.662375271320343
-0.01585986651480198,0.21460331976413727,-0.00010444482177263126,0.2787381708621979,-0.004726768936961889,-0.9571418166160583,0.026295393705368042,-0.22641965746879578,-0.0010128458961844444,-2.354763984680176,1.5721874237060547,0.18643026053905487,-0.7882257103919983,0.6197131872177124
0.2285110354423523,-0.30921345949172974,0.010611814446747303,0.03321382775902748,0.047620270401239395,-0.4236745834350586,0.03514757752418518,-0.3352612853050232,-0.001202926505357027,-2.348585844039917,1.5726063251495361,-0.3431011438369751,-0.4673883318901062,0.674177348613739
0.168931245803833,-0.2849474847316742,0.008595569990575314,0.04442304000258446,0.04630795121192932,-0.4393041133880615,0.042868636548519135,-0.40988460183143616,-0.0014517501695081592,-2.3498098850250244,1.573056936264038,-0.32739102840423584,-0.5270147919654846,0.6849064826965332
0.10980961471796036,-0.24665991961956024,0.006962411571294069,-0.0047925361432135105,0.04885187745094299,-0.4089570939540863,0.053194690495729446,-0.23988889157772064,-0.0016836508875712752,-2.355422019958496,1.5735783576965332,-0.2983394265174866,-0.5693486928939819,0.6882020831108093
-0.2246648520231247,-0.13548317551612854,0.00025405839551240206,0.6146454811096191,0.001212963368743658,-0.5620048642158508,-0.00019282722496427596,-0.7495282888412476,-0.00016238780517596751,-2.353860855102539,1.5708465576171875,-0.1354595422744751,-1.3596018552780151,0.6355777382850647
-0.21309557557106018,-0.12331794202327728,0.00020578730618581176,0.5363693833351135,-0.0001488190609961748,-0.6208384037017822,0.010928637348115444,-0.6004164218902588,-0.0003317298833280802,-2.3540565967559814,1.5709863901138306,-0.13247424364089966,-1.295255422592163,0.6546130180358887
-0.19815272092819214,-0.09666074812412262,0.00016668772150296718,0.39607787132263184,-0.0013893905561417341,-0.43870285153388977,0.021069921553134918,-0.7370608448982239,-0.0005792230367660522,-2.3547332286834717,1.5711714029312134,-0.11493690311908722,-1.2217233180999756,0.6693073511123657
-0.17117488384246826,-0.05549630895256996,0.0001350170496152714,0.32672396302223206,-0.0028706879820674658,-0.4079413414001465,0.03313353657722473,-0.7187948226928711,-0.0008495004731230438,-2.3538365364074707,1.5711616277694702,-0.08283252269029617,-1.1689649820327759,0.6766948103904724
-0.10292878746986389,-0.02337757684290409,0.00010932867007795721,0.3163585960865021,-0.0009520044550299644,-0.38227856159210205,0.013998833484947681,-0.490143358707428,-0.0003704387927427888,-2.354844331741333,1.5709609985351562,-0.04245128855109215,-1.0845654010772705,0.7030013799667358
-0.06180485710501671,0.04970015212893486,7.17305374564603e-05,0.12120435386896133,-0.0007303619640879333,-0.2275027334690094,0.007877165451645851,-0.6464696526527405,-0.00023359090846497566,-2.3536598682403564,1.5710344314575195,0.03198927268385887,-0.9634527564048767,0.7130076289176941
-0.051910027861595154,0.0805298388004303,9.123928612098098e-05,0.0005400237860158086,-0.0012765609426423907,-0.1761404275894165,0.004525995813310146,-0.48195916414260864,-0.00022250524489209056,-2.35428786277771,1.5709744691848755,0.06436941027641296,-0.8669878840446472,0.7178929448127747
-0.04938293993473053,0.09762618690729141,7.390251266770065e-05,-0.062182098627090454,-0.008030426688492298,-0.21124231815338135,-0.013995621353387833,-0.660772979259491,1.7613876480027102e-05,-2.3546483516693115,1.5704090595245361,0.09297226369380951,-0.8016668558120728,0.7054438591003418
0.1076110303401947,-0.1358228474855423,0.00016075944586191326,-0.11052671819925308,-0.013558282516896725,-0.5356238484382629,-0.004288335796445608,-0.2534882724285126,-0.0021335522178560495,-2.35636305809021,1.5700970888137817,-0.10053528845310211,-0.4731992781162262,0.5949075222015381
0.10342403501272202,-0.17366476356983185,0.00013021528138779104,-0.041201505810022354,0.010267090983688831,-0.48734480142593384,0.0023795501329004765,-0.3287753462791443,0.0002704374201130122,-2.356302499771118,1.5714836120605469,-0.15538044273853302,-0.5175971388816833,0.6249910593032837
0.07202132046222687,-0.1974017471075058,0.00010547753481660038,0.019923491403460503,0.028482455760240555,-0.5419022440910339,0.014666416682302952,-0.3414818048477173,0.0007101522060111165,-2.3550689220428467,1.5725382566452026,-0.19701331853866577,-0.5851782560348511,0.6463671326637268
-0.036939121782779694,-0.4538242816925049,5.018460433348082e-05,-0.24606136977672577,-0.008811087347567081,-0.4422103464603424,-0.00012744600826408714,-0.1893768608570099,-0.0012070051161572337,-2.3531198501586914,1.570349931716919,-0.4399765133857727,-0.5756789445877075,0.5840895771980286
-0.04323556274175644,0.12267041951417923,-0.00015770172467455268,0.3609951138496399,0.0011704934295266867,-0.3745546042919159,-0.030916517600417137,-0.8521230220794678,0.0009533271077089012,-2.35620379447937,1.571818232536316,0.12015922367572784,-1.0174461603164673,0.6615332365036011
-0.018495410680770874,0.14868827164173126,-0.0001324930926784873,0.563319981098175,-0.0004003712965641171,-0.46240007877349854,-0.013109124265611172,-0.6389689445495605,0.000552623940166086,-2.3559792041778564,1.571621298789978,0.13838660717010498,-1.0839645862579346,0.6766436100006104
-0.10183971375226974,-0.18380104005336761,1.659735517023364e-06,0.5986331105232239,0.0007698421250097454,-0.6291268467903137,-0.01047856081277132,-0.6116533279418945,-8.24797316454351e-05,-2.3575797080993652,1.5704306364059448,-0.16260609030723572,-1.1960029602050781,0.6505323052406311
-0.09045109152793884,-0.20841600000858307,1.3426251825876534e-06,0.5979509949684143,-0.0005498265963979065,-0.6625409126281738,0.0029550071340054274,-0.6141825914382935,-0.0003147175011690706,-2.357024669647217,1.5707612037658691,-0.19714567065238953,-1.1625163555145264,0.6546375155448914
-0.07438219338655472,-0.21854819357395172,1.1892796010215534e-06,0.5926513075828552,-0.0015682289376854897,-0.5888125896453857,0.01338484138250351,-0.649383544921875,-0.0004981934325769544,-2.3567256927490234,1.5710105895996094,-0.21668291091918945,-1.1546969413757324,0.6557460427284241
-0.24889150261878967,0.35744279623031616,0.05014729127287865,0.3371222913265228,-0.00038215951644815505,-0.39821577072143555,0.03348797559738159,-0.7471511960029602,0.00016044620133470744,-2.3292694091796875,1.5723878145217896,0.34587031602859497,-1.2577824592590332,0.6852882504463196
-0.21424993872642517,0.3434276580810547,0.04061930626630783,0.26818299293518066,0.0012371918419376016,-0.4028811752796173,0.01155859511345625,-0.8554573655128479,0.0005569103523157537,-2.3344762325286865,1.572064757347107,0.34312188625335693,-1.1841163635253906,0.6595858931541443
0.0913657695055008,0.22396637499332428,0.0009680747170932591,-0.042119357734918594,-0.033934809267520905,-0.34242942929267883,-0.028410084545612335,-0.5077976584434509,0.0014217080315575004,-2.356018304824829,1.5698330402374268,0.2688940465450287,-0.6239484548568726,0.6605957746505737
0.06521397829055786,-0.0325399748980999,0.0005169421783648431,0.0691981092095375,-0.04475073888897896,-0.37877151370048523,-0.04421009495854378,-0.4983196556568146,0.0028923528734594584,-2.3579280376434326,1.5690606832504272,0.041619230061769485,-0.69850093126297,0.65282142162323
0.08951237052679062,-0.121049664914608,0.0004190579929854721,0.20157167315483093,-0.03368189185857773,-0.35047733783721924,-0.0224139504134655,-0.6365432143211365,0.001763600273989141,-2.35721755027771,1.5696804523468018,-0.05984468013048172,-0.7481623888015747,0.6894139647483826
0.07533074170351028,-0.19595561921596527,0.0003398013359401375,0.34595435857772827,-0.028805693611502647,-0.48606055974960327,0.0003584777005016804,-0.7749704122543335,0.0008818092755973339,-2.3564791679382324,1.569958209991455,-0.14931520819664001,-0.8427186608314514,0.6793858408927917
-0.01420513167977333,-0.03403736278414726,6.033222234691493e-05,0.32451245188713074,0.01915590651333332,-0.8068469166755676,0.020062251016497612,-0.40590882301330566,-0.0006675849435850978,-2.3559205532073975,1.5719263553619385,-0.07286366075277328,-0.8081002235412598,0.5969509482383728
0.035240571945905685,0.00892083439975977,4.8869100282900035e-05,0.546678364276886,0.01582314632833004,-0.8534775972366333,0.009266427718102932,-0.5471822023391724,-8.630137745058164e-05,-2.353807210922241,1.571392297744751,-0.020743126049637794,-0.898245096206665,0.6222854852676392
0.08085624873638153,0.03700249642133713,3.9550439396407455e-05,0.7046847343444824,0.0135820796713233,-0.7551574110984802,-0.0010128451976925135,-0.5488920211791992,0.0002574298996478319,-2.355473756790161,1.5709691047668457,0.018489398062229156,-0.9787750840187073,0.6203713417053223
0.13338032364845276,0.01642203889787197,0.0006454117828980088,-0.002000636886805296,0.05251545459032059,-0.25634872913360596,0.011249976232647896,-0.5528714656829834,0.00540278060361743,-2.3565170764923096,1.573730707168579,-0.027129478752613068,-0.6050414443016052,0.6624710559844971
0.17229773104190826,0.04262901470065117,0.0005224635824561119,0.0987643152475357,0.034889429807662964,-0.14356014132499695,-0.01088016014546156,-0.5713348388671875,0.00436634523794055,-2.356400966644287,1.5729113817214966,0.01795562542974949,-0.6505298614501953,0.7163224220275879
-0.020261291414499283,0.28859272599220276,0.00014144706074148417,0.4261762797832489,0.007712044287472963,-0.4980762004852295,-0.0350937694311142,-0.748283863067627,0.000748676247894764,-2.3571979999542236,1.570676326751709,0.29190492630004883,-0.9971845149993896,0.6841779351234436
-0.013100791722536087,0.3021961748600006,0.00011445613199612126,0.533464252948761,0.005485298577696085,-0.6548568606376648,-0.020953621715307236,-0.8105964064598083,0.000383497477741912,-2.3568367958068848,1.5707426071166992,0.29725030064582825,-1.0515246391296387,0.6354888677597046
-0.025972282513976097,0.3301698565483093,9.265631524613127e-05,0.4616396129131317,0.0035832731518894434,-0.5890913605690002,-0.008341358043253422,-0.6934581398963928,1.3175651474739425e-05,-2.356186628341675,1.570819616317749,0.31593480706214905,-1.051830768585205,0.6312182545661926
-0.05072643980383873,0.3498918116092682,7.505161920562387e-05,0.3185379207134247,0.0038972957991063595,-0.49877485632896423,-0.016618486493825912,-0.5033459663391113,0.0003362616116646677,-2.356032609939575,1.5706321001052856,0.34314677119255066,-0.9986125826835632,0.6776913404464722
-0.05957445502281189,0.35476982593536377,6.079180820961483e-05,0.24904456734657288,0.004499970469623804,-0.418724000453949,-0.028258418664336205,-0.6000378727912903,0.0008012276375666261,-2.3558120727539062,1.5703239440917969,0.3577674329280853,-0.9552409052848816,0.6948623657226562
-0.06820891052484512,0.3455187678337097,4.9241367378272116e-05,0.19346213340759277,0.004789617843925953,-0.4490690231323242,-0.038662370294332504,-0.3960705101490021,0.0012595297303050756,-2.356098175048828,1.570095181465149,0.3579016923904419,-0.9251866936683655,0.703605055809021
-0.08852500468492508,0.3213304877281189,3.9853181078797206e-05,0.07806717604398727,0.0038911530282348394,-0.37424781918525696,-0.045533161610364914,-0.4856034815311432,0.0016666408628225327,-2.3554601669311523,1.569751501083374,0.3432304263114929,-0.8826228380203247,0.7048693299293518
-0.05922567471861839,0.2820381820201874,3.2281077437801287e-05,0.021084189414978027,-0.0018818842945620418,-0.23801322281360626,-0.04841797798871994,-0.6864036321640015,0.0016991239972412586,-2.3558528423309326,1.5696665048599243,0.3131200075149536,-0.858372688293457,0.6792644262313843
-0.034149423241615295,0.2412579357624054,4.969973088009283e-05,0.06527963280677795,-0.003454881953075528,-0.3796014189720154,-0.041849344968795776,-0.611762523651123,0.0013206514995545149,-2.3549866676330566,1.56987464427948,0.2718978226184845,-0.8335052132606506,0.6693668365478516
0.09597764164209366,-0.2204750031232834,-8.154997340170667e-05,0.2021915167570114,0.02211158163845539,-0.5743804574012756,0.016656503081321716,-0.6082369685173035,-5.206621153774904e-06,-2.3549253940582275,1.5718684196472168,-0.24266551434993744,-0.690091073513031,0.6523095965385437
0.0797944962978363,-0.185883030295372,-6.613726145587862e-05,0.28687146306037903,0.018570631742477417,-0.7048116326332092,0.024933328852057457,-0.5013459324836731,-0.001113327918574214,-2.355482578277588,1.5720481872558594,-0.21688911318778992,-0.7542276978492737,0.635010302066803
0.04504101723432541,-0.16014602780342102,-5.357118061510846e-05,0.25632739067077637,0.015027612447738647,-0.7251222133636475,0.013364283367991447,-0.3915198743343353,-0.00028624056722037494,-2.3555872440338135,1.5714876651763916,-0.18201705813407898,-0.7665141820907593,0.6367682814598083
0.06022593751549721,-0.1258883774280548,-4.33926543337293e-05,0.3561252951622009,0.012277481146156788,-0.8479805588722229,0.01812310889363289,-0.46848124265670776,-0.0009299234370701015,-2.3536510467529297,1.571730613708496,-0.153523787856102,-0.781700849533081,0.6204534769058228
