gmarotta2107/reinforcementLearning/datasets/High_position_dataset_test.csv
joint_0,joint_1,joint_2,joint_3,joint_4,joint_5,joint_6,joint_7,joint_8,joint_9,joint_10,paddle_x,paddle_y,paddle_z
-0.2172022614585465,-0.13600209572003052,0,-0.7943204735391667,0,0.1181352117031893,0,-0.5037339213065266,0,-2.356194490192345,1.5707963267948966,-0.057056184858083725,-1.0543813705444336,0.6858716011047363
-0.127291633806966,-0.6325066189946607,0,1.4938662523637167,0,-1.0529918383330505,0,-0.8348926813690203,0,-2.356194490192345,1.5707963267948966,-0.06716285645961761,-0.9784091114997864,0.6676024794578552
-0.22873878472770598,0.6158333090310337,0,-0.9950694994163231,0,0.08209966070748131,0,-0.2766524909062319,0,-2.356194490192345,1.5707963267948966,0.05246027559041977,-0.84292072057724,0.6356083750724792
-0.29589328699656836,-0.74208677920304,0,0.7941699867907137,0,-1.1243199158265944,0,-0.5106219296680565,0,-2.356194490192345,1.5707963267948966,0.1128927618265152,-0.8605888485908508,0.6581118702888489
0.29639448871223156,0.4995966384082897,0,-0.2704038207041939,0,-1.121354102694805,0,-0.5789953048779274,0,-2.356194490192345,1.5707963267948966,0.1799299120903015,-0.8690707683563232,0.65630042552948
0.26581137978639674,0.5761535698091995,0,-1.421958750699495,0,0.07833834554705299,0,-0.5751813644172502,0,-2.356194490192345,1.5707963267948966,0.23776404559612274,-0.9043851494789124,0.6346601247787476
0.11478502440737937,0.27029580387345975,0,-1.16690520484523,0,-1.1151783488572617,0,-0.4920250508419618,0,-2.356194490192345,1.5707963267948966,0.15685901045799255,-0.7323876619338989,0.6516256928443909
0.10219069704391331,0.5301300375890361,0,1.346583535157016,0,-0.8426732385356266,0,-0.703289860362402,0,-2.356194490192345,1.5707963267948966,0.05551602691411972,-0.7478889226913452,0.6719074845314026
0.09143585340214683,0.14602702326941674,0,0.5529318964851648,0,-0.22119049787859713,0,-0.8500019054985688,0,-2.356194490192345,1.5707963267948966,-0.033042628318071365,-0.7700146436691284,0.6574845314025879
-0.28750753391999134,-0.2952527264744419,0,-0.7474510056102086,0,0.03602474306039438,0,-0.7984746860761747,0,-2.356194490192345,1.5707963267948966,-0.10545191913843155,-0.812684178352356,0.6624849438667297
0.23518577188710627,0.03676088060637639,0,-0.13142600991017428,0,-1.1688817189145755,0,-0.6688970987370761,0,-2.356194490192345,1.5707963267948966,-0.16235662996768951,-0.8578053116798401,0.678506076335907
-0.19523913172372315,-0.4515200010780731,0,-0.17207931478873784,0,-0.3429797651489851,0,0.03500858926957706,0,-2.356194490192345,1.5707963267948966,-0.20453573763370514,-0.8901506066322327,0.6667595505714417
-0.002615279342789656,-0.3445494835979879,0,-0.7327705309983937,0,-0.1621913285040728,0,-0.8364905605438793,0,-2.356194490192345,1.5707963267948966,-0.23715972900390625,-0.8955012559890747,0.6492751240730286
-0.21865696101878915,-0.31050290806049524,0,1.5687814750047036,0,-0.38637748019334495,0,-0.1565429593386416,0,-2.356194490192345,1.5707963267948966,-0.275179386138916,-0.8902783989906311,0.6519759297370911
-0.0134968835960943,-0.1278277254417377,0,0.5199493169438969,0,0.04821395730482725,0,-0.12296577153799748,0,-2.356194490192345,1.5707963267948966,-0.30145594477653503,-0.8755241632461548,0.6448332667350769
0.08533249592230369,0.52834058172968,0,1.111787326850468,0,-0.27766477623758823,0,-0.36037316472975656,0,-2.356194490192345,1.5707963267948966,-0.31423965096473694,-0.8619226813316345,0.6683874726295471
0.1383835087985864,0.12902430149690025,0,0.2555374156566248,0,-0.6313173239572103,0,-0.7276131569495217,0,-2.356194490192345,1.5707963267948966,-0.3123188614845276,-0.8713181018829346,0.7097669839859009
-0.07820864187982127,0.33469277323110114,0,0.12919968037730034,0,-0.8759709074819813,0,-1.1409031632066098,0,-2.356194490192345,1.5707963267948966,-0.2938149869441986,-0.9109615683555603,0.7279319763183594
0.03281215741855564,-0.7440461701909348,0,-1.3628495911203333,0,0.0730595547950379,0,0.10677813987696028,0,-2.356194490192345,1.5707963267948966,-0.2597930431365967,-0.946200430393219,0.7040802240371704
-0.152692541323779,0.18442937136651172,0,1.134397452640513,0,-1.176385085298716,0,-0.7498931598752778,0,-2.356194490192345,1.5707963267948966,-0.21741071343421936,-0.9407545328140259,0.702842116355896
-0.2076154736562884,0.26939132832825163,0,1.3111170184195546,0,-0.5082454902860049,0,0.13398807583423933,0,-2.356194490192345,1.5707963267948966,-0.181135892868042,-0.9228084087371826,0.6941031813621521
0.25978383566629887,-0.3115268991128636,0,0.47691031276552653,0,-0.5703145969800854,0,-1.193845828359136,0,-2.356194490192345,1.5707963267948966,-0.1329386979341507,-0.9343344569206238,0.6748431921005249
0.11608100552687145,-0.5771602875147182,0,-0.7558866111138715,0,-0.9958838804642941,0,-0.5510283143076827,0,-2.356194490192345,1.5707963267948966,-0.07568728923797607,-0.9588040709495544,0.6796345114707947
0.2283135865311508,-0.5892164784680137,0,-1.1637108713092899,0,-0.08727800131427998,0,-0.9001483127977349,0,-2.356194490192345,1.5707963267948966,-0.031533677130937576,-0.9805777072906494,0.6598133444786072
-0.15147715200041192,0.22525639694829502,0,-0.0036982964492879855,0,-0.3062833579888682,0,-0.7310838853233903,0,-2.356194490192345,1.5707963267948966,-0.002980972873046994,-0.9691884517669678,0.6500282287597656
0.277242775530593,0.6394308841991889,0,-1.0579281538098204,0,-0.4485749565562156,0,-0.9139637097024191,0,-2.356194490192345,1.5707963267948966,0.43726491928100586,-0.5884661078453064,0.6218737959861755
0.05035270258647967,0.14895582039283595,0,1.3007535322024273,0,-0.6454540817638205,0,-0.31847440286542916,0,-2.356194490192345,1.5707963267948966,0.4043799638748169,-0.595249354839325,0.6366004943847656
0.12345465381034859,-0.17419491301149337,0,-0.5321155831374644,0,-0.8617577129720899,0,0.08084839713510439,0,-2.356194490192345,1.5707963267948966,0.3768616020679474,-0.597862184047699,0.634769856929779
0.2992384282514379,0.24405644051839204,0,-0.5313272177761266,0,-1.1668765353170945,0,-1.1873215503822483,0,-2.356194490192345,1.5707963267948966,0.3424173593521118,-0.5946226119995117,0.6435710787773132
0.12442782498746108,0.7501740336946445,0,-1.0148352355918502,0,-0.5035349908211931,0,-0.6175340323682417,0,-2.356194490192345,1.5707963267948966,-0.48645278811454773,-0.7350220680236816,0.6754083633422852
-0.06163288302376113,-0.0063772064526688155,0,1.3796592601520863,0,0.013727022399160571,0,-0.39344658601754234,0,-2.356194490192345,1.5707963267948966,-0.4658675491809845,-0.8105160593986511,0.6986417770385742
0.1475888216496346,0.0657141124577374,0,-1.3384424530256291,0,-0.8726754965395151,0,-0.5358297804450091,0,-2.356194490192345,1.5707963267948966,-0.37224212288856506,-1.0520200729370117,0.7083184719085693
-0.0439346880614257,0.6152955660934845,0,-1.1327969807863951,0,-0.7223116462279484,0,-0.12331579195334963,0,-2.356194490192345,1.5707963267948966,-0.36412712931632996,-1.0368905067443848,0.6610293984413147
-0.1305513013641312,-0.7800163130682256,0,0.2687433227650571,0,-0.13848615817046617,0,-0.6839759970969115,0,-2.356194490192345,1.5707963267948966,-0.057217489928007126,-0.5966364145278931,0.6293163895606995
-0.18463447907060232,-0.25324315452228563,0,-0.9397537371108049,0,-0.24972140978326485,0,0.026627933732978448,0,-2.356194490192345,1.5707963267948966,-0.06726710498332977,-0.6545562744140625,0.6380136013031006
-0.2572940753557817,-0.16201093248454546,0,1.5464997172241182,0,0.056109508724977886,0,-0.7191480680384339,0,-2.356194490192345,1.5707963267948966,-0.08668222278356552,-0.7043817043304443,0.6627135872840881
0.1792825934236158,0.6091484144687109,0,-1.4111895403844394,0,-0.8777027117487174,0,-1.0428672805682455,0,-2.356194490192345,1.5707963267948966,-0.11351656168699265,-0.7456378936767578,0.6789391040802002
-0.06408897631379826,0.46904211273673235,0,1.5219392029136967,0,-0.017681250127984605,0,-0.05246184780412766,0,-2.356194490192345,1.5707963267948966,-0.1312447488307953,-0.8233951926231384,0.6751245856285095
0.20364638644006988,0.2742455497513834,0,-1.0560337685680024,0,-1.1581469276298038,0,-0.2379968420120543,0,-2.356194490192345,1.5707963267948966,-0.13185644149780273,-0.879433274269104,0.6657795310020447
-0.10775859307879798,0.057076808285613234,0,0.34160462227269517,0,-1.1092431328935835,0,-0.9340060548927893,0,-2.356194490192345,1.5707963267948966,-0.11628218740224838,-0.9204581379890442,0.6896091103553772
0.07798752970701023,-0.23968739701382746,0,-0.2501236899007937,0,-0.14899140020264268,0,-0.7830211308144697,0,-2.356194490192345,1.5707963267948966,-0.08761250227689743,-0.9639914035797119,0.6667742729187012
-0.11118130398961157,0.3584553604536569,0,-0.15393818318168173,0,-0.7507969522200302,0,-0.8991758410959713,0,-2.356194490192345,1.5707963267948966,-0.061405014246702194,-0.9864434599876404,0.6517051458358765
-0.19922197983715517,-0.545535281201159,0,-0.5838887538113156,0,0.035042120944980715,0,-1.0485707706721865,0,-2.356194490192345,1.5707963267948966,-0.04365009814500809,-0.9813999533653259,0.637450098991394
0.02329719453184076,0.11189232849519559,0,0.8523648626258447,0,0.145844487527661,0,-1.091576580404717,0,-2.356194490192345,1.5707963267948966,-0.00589138874784112,-1.0040560960769653,0.6481745839118958
0.09694977648596403,-0.2598113787901172,0,0.9591162521328469,0,-0.17698456214139058,0,-0.34580384786325447,0,-2.356194490192345,1.5707963267948966,0.013196867890655994,-1.036509394645691,0.6891278028488159
0.06425364247405058,0.5025698378341812,0,-0.572589278734378,0,0.11725478482059448,0,-1.1583802022841412,0,-2.356194490192345,1.5707963267948966,0.18413779139518738,-0.9141897559165955,0.6968449354171753
-0.12882592249031868,0.7287836109752712,0,-0.5657233492102038,0,-0.9239880664544359,0,-0.28866044741842756,0,-2.356194490192345,1.5707963267948966,0.19518372416496277,-0.8216843008995056,0.6471390128135681
0.18584990782077093,0.7093667788973723,0,0.5595830081394126,0,-0.6125549422660703,0,-1.156772338753528,0,-2.356194490192345,1.5707963267948966,0.2906070351600647,-0.47418221831321716,0.6369972229003906
-0.29613458316250074,0.23154778885975724,0,0.8036776561686141,0,-0.6057886791424542,0,-0.5263582217539895,0,-2.356194490192345,1.5707963267948966,0.17204955220222473,-0.7110123038291931,0.6455610990524292
-0.29935885288148834,0.7116013916806438,0,-1.0984594816349387,0,-0.6646469704432978,0,-0.5045442230056051,0,-2.356194490192345,1.5707963267948966,0.11836022883653641,-0.7679437398910522,0.6515415906906128
-0.14705104084364812,-0.6384824983152705,0,-1.0929318772205576,0,-0.3396076369925455,0,-0.23460251533214427,0,-2.356194490192345,1.5707963267948966,0.07767225801944733,-0.847048819065094,0.6543440818786621
0.2874779275350913,-0.05713469783240388,0,-0.3925867171099977,0,0.003699116168298877,0,-1.010269400689643,0,-2.356194490192345,1.5707963267948966,0.046330299228429794,-0.8959435224533081,0.6587603092193604
-0.2164079206484853,-0.10586324857283436,0,0.2639971128688203,0,-0.5487147240150211,0,-1.1188913408015757,0,-2.356194490192345,1.5707963267948966,0.00811382383108139,-0.9306802153587341,0.6559152007102966
-0.0646342100146276,-0.2769241686752786,0,-1.5104760025560198,0,-0.5753781022031634,0,-0.4768867508050386,0,-2.356194490192345,1.5707963267948966,-0.06964544206857681,-1.0617702007293701,0.6573925614356995
0.17013121428180528,-0.09681936365325539,0,-1.3573858728169867,0,-0.7994224109771955,0,-0.9337815951419322,0,-2.356194490192345,1.5707963267948966,-0.09160726517438889,-1.108076810836792,0.6964353322982788
-0.21530205900804533,-0.730294425524852,0,-0.3607751101564871,0,-0.4611257187359712,0,-0.3468436923335372,0,-2.356194490192345,1.5707963267948966,-0.12037935107946396,-1.1512335538864136,0.68596351146698
-0.26030098222823866,0.13364032227424638,0,0.7912895415165204,0,-0.8672592177302587,0,-0.28001119157138765,0,-2.356194490192345,1.5707963267948966,-0.1426379680633545,-1.1694612503051758,0.6808872222900391
-0.0589987467786213,0.5320806472496855,0,-0.7715406474550159,0,0.13939617277798821,0,-0.007735886378135826,0,-2.356194490192345,1.5707963267948966,0.1675492525100708,-1.1075913906097412,0.697636604309082
0.15298949889542762,-0.2835671193744125,0,-0.21101219543405314,0,-0.36246235380902336,0,-0.26025252361770024,0,-2.356194490192345,1.5707963267948966,0.3283560872077942,-0.9231405854225159,0.6652198433876038
0.21715031939925672,-0.7882275456619694,0,-1.5227745598067781,0,-0.4545730675907843,0,-0.7187877907159952,0,-2.356194490192345,1.5707963267948966,0.3358406126499176,-0.8945974111557007,0.6482377052307129
-0.23293528565831084,-0.6811387149064378,0,-1.54159092898324,0,-0.6537346192454769,0,-0.9022256869720761,0,-2.356194490192345,1.5707963267948966,0.3284221589565277,-0.848015308380127,0.6421228051185608
0.045748039565556176,0.7360071587480805,0,-0.6514510921133506,0,-0.5347688877015645,0,-1.1090342570447718,0,-2.356194490192345,1.5707963267948966,0.2948049306869507,-0.766631543636322,0.6837926506996155
-0.1352098162522737,0.4770450161412316,0,1.3256127180595012,0,-0.5761797571825559,0,-0.7016315905640094,0,-2.356194490192345,1.5707963267948966,0.2554580271244049,-0.8274527788162231,0.7208424210548401
-0.011780858234758051,-0.7820117655749366,0,-0.48681604154730507,0,-1.1348218012840507,0,0.0026880883632860453,0,-2.356194490192345,1.5707963267948966,0.2266112118959427,-0.896581768989563,0.7162179946899414
-0.021773193153738046,-0.10119430479208891,0,-1.2983125249981862,0,-0.3411046844993716,0,-0.7474016397723742,0,-2.356194490192345,1.5707963267948966,0.1454097479581833,-1.0307679176330566,0.6873826384544373
0.1595208138432897,-0.517933904932528,0,0.7172868199250688,0,-0.5151786616176971,0,-0.9897144420536369,0,-2.356194490192345,1.5707963267948966,0.12866316735744476,-1.0187678337097168,0.6579873561859131
0.09031960264847372,-0.004550596004095908,0,-1.4168496212056034,0,-0.9982305305038444,0,-0.11682552396186807,0,-2.356194490192345,1.5707963267948966,0.09939703345298767,-0.987464427947998,0.6436299085617065
-0.08756425914263047,0.14242139690089617,0,-1.0034409818319832,0,-0.976967249232349,0,-0.44762169556338305,0,-2.356194490192345,1.5707963267948966,0.0616997666656971,-0.9499507546424866,0.6382433176040649
-0.09232461101947953,0.10317541864589508,0,0.7735794530050093,0,-1.0402453726516305,0,-0.8565576757169253,0,-2.356194490192345,1.5707963267948966,-0.06534118950366974,-0.5577858686447144,0.6288412809371948
0.17131716963118676,-0.26949883867004376,0,-0.5699082830129609,0,-0.901558713339247,0,-0.798289861310399,0,-2.356194490192345,1.5707963267948966,-0.048518963158130646,-0.6019029021263123,0.6420503854751587
-0.12266754101367297,0.45015748171524383,0,1.4749964759250904,0,-0.3306538265548843,0,-0.08599301086751576,0,-2.356194490192345,1.5707963267948966,-0.023675832897424698,-0.6622498631477356,0.6315192580223083
0.0192567618112211,0.6500539194226229,0,0.002575979972628817,0,-0.591642603319811,0,-0.6198595858665842,0,-2.356194490192345,1.5707963267948966,-0.006563691422343254,-0.6907267570495605,0.6336051821708679
0.021549712799859067,0.6273318177540994,0,-0.7696990857606312,0,0.13696162567807502,0,-0.13743186715912414,0,-2.356194490192345,1.5707963267948966,0.022972729057073593,-0.7232681512832642,0.656635582447052
0.22413935273912095,0.7095004799713274,0,-0.04436166965862354,0,-0.18204486723811852,0,-0.0948728480900789,0,-2.356194490192345,1.5707963267948966,0.06663262099027634,-0.7324349880218506,0.6733176708221436
-0.2720065340949343,0.7278172949171353,0,-0.7939249008091424,0,-0.7051304913395854,0,-0.9691682665018839,0,-2.356194490192345,1.5707963267948966,0.12434431165456772,-0.7181040644645691,0.6960222125053406
-0.0012283735143238106,0.7912406078492724,0,-1.3759106096641363,0,-0.41325601875964035,0,-0.026358939789508762,0,-2.356194490192345,1.5707963267948966,0.1963857263326645,-0.7183877825737,0.6947490572929382
0.28638247865858774,-0.7315932056642481,0,-0.9502906761023943,0,-0.771847165898515,0,-1.178704595762803,0,-2.356194490192345,1.5707963267948966,0.28191664814949036,-0.7093964219093323,0.652458667755127
-0.261706087964921,-0.4790585457091805,0,1.4483393539390734,0,-0.37399768892211105,0,-0.8321118780074296,0,-2.356194490192345,1.5707963267948966,0.4650801718235016,-0.596626877784729,0.6713736057281494
0.11630931224047347,-0.09246409545427103,0,-1.1108557013914173,0,0.07886210150049977,0,0.12606993161935742,0,-2.356194490192345,1.5707963267948966,0.4066978991031647,-0.6375569701194763,0.6583250164985657
0.11089724114792693,-0.4569404129019967,0,-0.4455160469487842,0,-0.3510096801553041,0,-0.28803177373072864,0,-2.356194490192345,1.5707963267948966,0.34047287702560425,-0.6653575897216797,0.6760344505310059
0.27228807433079644,0.6057114739279896,0,0.9962911149012847,0,-0.917073298167361,0,-0.8501878856425675,0,-2.356194490192345,1.5707963267948966,0.26077133417129517,-0.6653915047645569,0.6836785674095154
0.16757286873700894,0.5140949522803595,0,-1.0179749389626904,0,-0.681457014173697,0,-0.3016274914847118,0,-2.356194490192345,1.5707963267948966,0.16945232450962067,-0.6806501150131226,0.6606016755104065
-0.08291186067386372,-0.3914556945980195,0,0.6905156126176539,0,-0.7069516749185205,0,-1.1373912835443594,0,-2.356194490192345,1.5707963267948966,0.08913027495145798,-0.6951526403427124,0.6583712100982666
0.22815249734390614,0.2779127376901731,0,1.3246594576417268,0,-0.11236762672910827,0,-0.47592628560289174,0,-2.356194490192345,1.5707963267948966,0.020348690450191498,-0.7019864320755005,0.6484659314155579
0.2858122416952687,-0.7564192398480316,0,-1.3495960337237014,0,-0.9780256166598633,0,-0.21622695356946153,0,-2.356194490192345,1.5707963267948966,-0.0531342439353466,-0.726661205291748,0.6545596122741699
0.2933430779450387,0.34987883904070416,0,1.3307113665745183,0,-0.052236529704232204,0,-0.9112244336589969,0,-2.356194490192345,1.5707963267948966,-0.11953120678663254,-0.7427785396575928,0.6775363683700562
-0.19986885518356517,-0.2267530201889868,0,-0.012926084819541384,0,-0.8652734801445278,0,-1.0507776850772415,0,-2.356194490192345,1.5707963267948966,-0.19245105981826782,-0.7576913237571716,0.6871834993362427
0.07275165186293436,0.08663623969570666,0,0.2671130925510927,0,-0.45840455777466793,0,-1.1562337673473144,0,-2.356194490192345,1.5707963267948966,-0.25290802121162415,-0.7971286177635193,0.6860974431037903
-0.2526930967491405,0.3830409223560092,0,1.0995283607241335,0,-0.5410180357454231,0,0.09599833955905512,0,-2.356194490192345,1.5707963267948966,-0.29785189032554626,-0.82879638671875,0.6595717072486877
-0.19282876123495202,0.4658801953248457,0,1.3970117289105168,0,0.13402017112833353,0,-0.6468315059113839,0,-2.356194490192345,1.5707963267948966,-0.3274855315685272,-0.8314538598060608,0.6646046042442322
-0.04505919240817524,-0.37303070695956503,0,-0.7543888503320821,0,-0.20088772856431325,0,-0.48381844615512315,0,-2.356194490192345,1.5707963267948966,-0.3424239754676819,-0.8480502367019653,0.6943049430847168
-0.01524222569561573,-0.41247913838514666,0,-0.6268214420334814,0,0.09140552835695237,0,-1.0221029700302506,0,-2.356194490192345,1.5707963267948966,-0.3471490442752838,-0.8886678218841553,0.7148959040641785
-0.25284708389644545,0.6342415788968472,0,1.1106495857070473,0,-0.8035867647151336,0,0.14073732527030636,0,-2.356194490192345,1.5707963267948966,-0.3545192778110504,-0.9143214225769043,0.7187659740447998
0.08236472364246722,-0.7924602615411861,0,-0.2933369879315335,0,-0.45579548746884235,0,-1.0120228659795418,0,-2.356194490192345,1.5707963267948966,-0.3634589612483978,-0.9208151698112488,0.7219988107681274
0.1149238479289329,-0.3630408096151735,0,0.5988586050530929,0,-0.8223951514802086,0,-0.8775675188730886,0,-2.356194490192345,1.5707963267948966,-0.36481809616088867,-0.9444605112075806,0.7154245376586914
0.12395602388319338,0.6347672319457034,0,0.9108473832199477,0,-1.1254476681193295,0,-0.37185570157046066,0,-2.356194490192345,1.5707963267948966,-0.37202534079551697,-0.9688753485679626,0.6887433528900146
-0.24866764384746842,0.7221942843899511,0,1.2129726355601833,0,-0.06753341043330585,0,-0.7636092077924771,0,-2.356194490192345,1.5707963267948966,-0.3692469596862793,-0.9803526997566223,0.6702051162719727
0.258853448526086,0.6745218088327427,0,0.28183399144050836,0,-0.02871672918757673,0,-0.008991255429843692,0,-2.356194490192345,1.5707963267948966,-0.35138702392578125,-0.9932620525360107,0.6708903312683105
0.05650449625827003,0.7060493515729931,0,0.2770892317013336,0,-0.3457290884046247,0,-0.6917033302532734,0,-2.356194490192345,1.5707963267948966,0.03921378403902054,-1.0307813882827759,0.7013598084449768
0.15674399442954878,0.5536196565797527,0,0.011590276268686805,0,-0.29981098750554724,0,-1.0471669323620612,0,-2.356194490192345,1.5707963267948966,0.04928489774465561,-0.9896522164344788,0.7026069164276123
-0.2394532622652572,-0.4335068485018443,0,0.8373865385983672,0,-0.9846939207518268,0,-0.049881726346096,0,-2.356194490192345,1.5707963267948966,0.07445546984672546,-0.9669451117515564,0.6932410597801208
0.24778695195417771,0.30027515451033526,0,0.11814634372024924,0,-0.8453365041310004,0,-0.35532660190120946,0,-2.356194490192345,1.5707963267948966,0.109138123691082,-0.9231306314468384,0.6826426982879639
-0.22705842582585772,0.3369574062100782,0,0.32772453824104253,0,-0.3073880796493982,0,-0.917102900755393,0,-2.356194490192345,1.5707963267948966,0.1372179239988327,-0.8831675052642822,0.6778305172920227
-0.1099898987819318,-0.7670529451644956,0,0.7504712493689989,0,0.027651134218882545,0,-0.9275695057141721,0,-2.356194490192345,1.5707963267948966,0.17073501646518707,-0.8434059619903564,0.6674657464027405
0.16919262725311962,-0.01408432945067406,0,-0.7716300323561263,0,-0.3020289134019334,0,-0.4337471749018629,0,-2.356194490192345,1.5707963267948966,0.20148497819900513,-0.8282508850097656,0.6735435128211975
0.2709687063822797,0.06386071097240065,0,1.3698836713703026,0,-0.19702845697059224,0,-0.20004352066142084,0,-2.356194490192345,1.5707963267948966,0.21815074980258942,-0.8151110410690308,0.6883178353309631
0.001938215090127815,-0.541324542556012,0,-0.3517621553565018,0,-0.9159079631618144,0,-0.7677867415519412,0,-2.356194490192345,1.5707963267948966,0.22036194801330566,-0.7801997065544128,0.7065085172653198
0.22312936280147494,0.21172964505578573,0,0.884119892389271,0,-1.0808313996749486,0,-0.5478811874840656,0,-2.356194490192345,1.5707963267948966,0.20810101926326752,-0.7677725553512573,0.7139198780059814
0.0717569755389173,0.6891588921912069,0,-1.1786664965019982,0,0.022653653591510503,0,-0.555604113187733,0,-2.356194490192345,1.5707963267948966,0.1863534152507782,-0.7624752521514893,0.6828911304473877
0.14408991164342344,0.00887216104127142,0,-0.6386306306793286,0,-0.4578672165410642,0,-0.7350486227490265,0,-2.356194490192345,1.5707963267948966,0.1766173392534256,-0.7553346753120422,0.6824371218681335
0.06971325851607346,0.6187585260126034,0,-0.1543848231285101,0,-1.0925691881645567,0,-0.3776921633226856,0,-2.356194490192345,1.5707963267948966,0.17625096440315247,-0.7269892692565918,0.6784164905548096
0.295286138741014,0.19985708294196214,0,-0.3670603852068044,0,-0.40382029356977345,0,-0.7982599500695386,0,-2.356194490192345,1.5707963267948966,0.16931788623332977,-0.6822080612182617,0.6449885368347168
-0.01363421487476435,-0.2636209715487926,0,1.5529128196004223,0,-0.6095937843618056,0,-0.9292070827855259,0,-2.356194490192345,1.5707963267948966,-0.020105523988604546,-0.6846879720687866,0.6388494968414307
-0.29895020327365945,-0.2139327382633479,0,-1.035194627760017,0,-0.7976681977169224,0,-1.0414190640240872,0,-2.356194490192345,1.5707963267948966,-0.0615958608686924,-0.6265022158622742,0.650641143321991
0.22636834468255956,-0.7161474027598662,0,-0.32262179204346064,0,-0.8473056162947046,0,0.04847029704111172,0,-2.356194490192345,1.5707963267948966,-0.08426380157470703,-0.6458262205123901,0.6642589569091797
-0.017018571285358386,-0.7906107736408517,0,1.2725531427213044,0,-0.16055626879675722,0,-0.2356719501528165,0,-2.356194490192345,1.5707963267948966,-0.17364482581615448,-0.6683827638626099,0.6535211205482483
-0.2876626756464317,-0.7006720374547193,0,0.9736990141653723,0,-0.6403227748373055,0,-1.1546106073648112,0,-2.356194490192345,1.5707963267948966,-0.16471536457538605,-0.6765016317367554,0.6708222031593323
-0.13317276798451805,-0.10735384686047844,0,1.211467383508992,0,-0.44270556741911804,0,-1.16164778625717,0,-2.356194490192345,1.5707963267948966,-0.17029616236686707,-0.7253787517547607,0.6774663925170898
0.16106949906191415,-0.030730061384253382,0,-0.3023665988463198,0,-1.1055352843929027,0,-1.0514912523900102,0,-2.356194490192345,1.5707963267948966,-0.1864621490240097,-0.8130687475204468,0.6734235882759094
-0.25464846428566074,0.4489013983327188,0,0.08076762745095589,0,-0.9827384702740778,0,-0.07407451817655875,0,-2.356194490192345,1.5707963267948966,-0.19016395509243011,-0.9080045223236084,0.6577108502388
-0.059820875636016374,-0.34011658561876423,0,-0.3984277277925883,0,-0.9411381147131357,0,-0.2815419870411918,0,-2.356194490192345,1.5707963267948966,-0.17830930650234222,-0.9639230966567993,0.6452302932739258
-0.26618172545035207,0.7589996044516594,0,-0.41485345723573896,0,-0.9645328818783055,0,-0.1362725849092603,0,-2.356194490192345,1.5707963267948966,-0.15768302977085114,-0.9933648705482483,0.648525595664978
0.22735578220904534,-0.396791718453939,0,-1.4827730586949939,0,-0.1446350412959354,0,-0.17383403420703392,0,-2.356194490192345,1.5707963267948966,-0.14391762018203735,-1.0031559467315674,0.6432902216911316
0.15389261401998655,0.3615620185777453,0,-0.9577331240394412,0,-0.638983195290272,0,-0.204151496549828,0,-2.356194490192345,1.5707963267948966,-0.12332078814506531,-0.9842534065246582,0.6399320960044861
0.24774205887828565,0.6378105886465453,0,-0.8355611392881725,0,-0.7082023258519548,0,-0.06299945701558185,0,-2.356194490192345,1.5707963267948966,0.018619131296873093,-0.6570522785186768,0.6781082153320312
-0.01761541106941289,0.5697024475937957,0,-0.7593865430030675,0,-1.097994667431003,0,-0.2262357478511785,0,-2.356194490192345,1.5707963267948966,0.01883017085492611,-0.7043160200119019,0.7170677185058594
0.29280639592599206,-0.36725612390242635,0,0.9651041948374375,0,-0.15551686322585723,0,-0.5466934352480798,0,-2.356194490192345,1.5707963267948966,0.05090230330824852,-0.7801811695098877,0.6821174025535583
-0.25183213038866054,0.3771036209326295,0,0.4341296785564963,0,-0.9589697590827273,0,-0.08741102661286937,0,-2.356194490192345,1.5707963267948966,0.05987896770238876,-0.8095677495002747,0.6448462605476379
-0.0305468866233497,0.5272603174354578,0,0.5935732545149821,0,0.10887020278965687,0,-0.9483909227801122,0,-2.356194490192345,1.5707963267948966,0.05960314720869064,-0.8297920227050781,0.6502672433853149
-0.19734127306873628,-0.3703362305578404,0,1.027856160524843,0,-0.6645850694769543,0,-0.8317575096308707,0,-2.356194490192345,1.5707963267948966,0.07197602838277817,-0.8675119876861572,0.6617222428321838
0.009444339429790338,0.07873144942073351,0,0.2620748067154648,0,-0.0988151106086752,0,-0.8189245663360687,0,-2.356194490192345,1.5707963267948966,0.09335329383611679,-0.9349056482315063,0.6744057536125183
-0.14609446727870465,0.03125359626295998,0,0.2747556218835916,0,-0.9246646652282158,0,-0.6303931110822218,0,-2.356194490192345,1.5707963267948966,0.10212524235248566,-1.0084161758422852,0.6791558265686035
-0.21830374732372737,0.6713726917544911,0,0.6994944402017484,0,-1.1130341252529525,0,-0.5624260235978699,0,-2.356194490192345,1.5707963267948966,0.09703414887189865,-1.0563324689865112,0.6760845184326172
-0.20899665597382178,0.1315142773229141,0,0.431589133672714,0,-0.6623800618249056,0,-0.5949175880041224,0,-2.356194490192345,1.5707963267948966,0.0878382995724678,-1.088081955909729,0.6563495993614197
0.21378679020468377,0.3744231941268401,0,0.6487578266218832,0,-0.9046505769610309,0,-0.9894877125518239,0,-2.356194490192345,1.5707963267948966,0.09113100171089172,-1.1107704639434814,0.6459523439407349
-0.11212348407898595,-0.7462176290813851,0,-1.4363712939578168,0,-0.9490859191077726,0,-0.7972750888722124,0,-2.356194490192345,1.5707963267948966,0.10190685838460922,-1.1275171041488647,0.6345037221908569
0.128109967297733,-0.7457363155357432,0,-0.05149175599699318,0,-0.49328873063762413,0,-1.1121777341242896,0,-2.356194490192345,1.5707963267948966,0.12071909755468369,-1.1336956024169922,0.6145431399345398
0.2403846793574917,-0.6205780804856146,0,1.3110892091517297,0,-0.03974613134275784,0,-0.6177650956360241,0,-2.356194490192345,1.5707963267948966,0.09423267841339111,-0.952958345413208,0.6462820172309875
-0.15704544584455274,0.10999530054999762,0,-0.5821930049993106,0,-1.0266886362096914,0,-0.6974688522107712,0,-2.356194490192345,1.5707963267948966,0.055958688259124756,-0.9073554277420044,0.656089186668396
0.27417381893305753,-0.4115898051665301,0,-1.3297986098279682,0,0.14392403996668923,0,-0.8077068919417845,0,-2.356194490192345,1.5707963267948966,0.009194642305374146,-0.8787153959274292,0.6587686538696289
-0.1379147283878901,-0.7316823839953779,0,1.4329555125166493,0,-0.01752241155471057,0,0.12494988164965215,0,-2.356194490192345,1.5707963267948966,0.22134631872177124,-0.674798309803009,0.668119490146637
0.0559736414526375,0.7799855803950939,0,0.8855059669015324,0,-1.0567088502737536,0,-0.35443972064037654,0,-2.356194490192345,1.5707963267948966,0.2527386546134949,-0.7017195820808411,0.7297133803367615
0.27950916964748157,-0.5218893677427744,0,-1.4589093813231577,0,-0.3145531234726525,0,-0.9704487755591469,0,-2.356194490192345,1.5707963267948966,-0.15136530995368958,-0.9916986227035522,0.6461610794067383
-0.11523997768034483,0.18370778531612486,0,1.330285183198555,0,-0.14976312069576148,0,0.11324197785974177,0,-2.356194490192345,1.5707963267948966,-0.11903394758701324,-0.3549376130104065,0.5662779808044434
-0.17521650786010828,0.0313712515005099,0,-0.33228563619201457,0,-0.9096073720655986,0,-0.3278321679123185,0,-2.356194490192345,1.5707963267948966,-0.0925101712346077,-0.4081226885318756,0.5900765061378479
-0.22024329934029935,0.6808517581000983,0,-0.30055169233026113,0,-0.774329731852323,0,-0.9016779102088317,0,-2.356194490192345,1.5707963267948966,-0.05404091253876686,-0.4773983359336853,0.6172112226486206
-0.01607448479509538,0.5986059751705213,0,-1.4980135842646911,0,-0.4548418777251779,0,-0.8430939134674146,0,-2.356194490192345,1.5707963267948966,-0.01828322373330593,-0.5606845021247864,0.596224308013916
-0.2466712318627039,-0.12834821752380798,0,-0.42808253409529273,0,0.06986496788303032,0,-0.526072085315146,0,-2.356194490192345,1.5707963267948966,0.3203124403953552,-0.8576663136482239,0.6342922449111938
0.13492747686701312,0.3189205712581149,0,1.5160849702951142,0,-1.154598782177653,0,-0.6301454765211412,0,-2.356194490192345,1.5707963267948966,0.33022090792655945,-0.857413649559021,0.6517960429191589
-0.03858249892005461,0.5542190894151471,0,-0.7666638300908047,0,-0.7530726578296171,0,-0.16999165036486996,0,-2.356194490192345,1.5707963267948966,0.32864677906036377,-0.8616755604743958,0.6476575136184692
-0.25541292353543404,-0.22048530076095396,0,-0.20724947584810338,0,-0.6027238788127502,0,-0.8246709075739646,0,-2.356194490192345,1.5707963267948966,0.3298329710960388,-0.872347891330719,0.6453204154968262
-0.039427009342038855,-0.20589798923515745,0,-1.2089356286199548,0,-0.03903102178772855,0,-0.3307726163317426,0,-2.356194490192345,1.5707963267948966,0.33894962072372437,-0.8655422329902649,0.6344950795173645
-0.20297689338625452,0.3849592921303,0,-0.3510051987931766,0,-1.0762713195830749,0,-0.936035209351362,0,-2.356194490192345,1.5707963267948966,-0.19540047645568848,-0.600225567817688,0.6504539251327515
0.1777648780251993,0.6102260816009375,0,1.2363625393818318,0,-1.163868759543409,0,0.03046934650073263,0,-2.356194490192345,1.5707963267948966,-0.2469056099653244,-0.6593443751335144,0.6780308485031128
0.17592934887380024,0.32111528361093233,0,0.12593069442657612,0,-0.86433492796423,0,-0.2824892172216006,0,-2.356194490192345,1.5707963267948966,-0.2871435880661011,-0.7188788056373596,0.66788649559021
-0.22055494643737533,-0.07063190408055264,0,0.45241549308035056,0,0.11813357572907668,0,0.11986970765014426,0,-2.356194490192345,1.5707963267948966,-0.3127172589302063,-0.7744520306587219,0.6775736212730408
0.28173177887866957,0.6552471780569993,0,-0.047528278791387324,0,-0.18498435730494345,0,-0.9297838430945924,0,-2.356194490192345,1.5707963267948966,-0.24612680077552795,-0.9175812602043152,0.6872816681861877
0.12314373559525305,0.45217302229014966,0,-1.4627784411002809,0,0.12575386094982366,0,0.10479995144085286,0,-2.356194490192345,1.5707963267948966,-0.06472800672054291,-0.694317638874054,0.6580490469932556
-0.08058886964216472,-0.20928338780349254,0,-0.47425845010923684,0,-0.4362861521310194,0,-0.14174547938233717,0,-2.356194490192345,1.5707963267948966,-0.026269448921084404,-0.6826320886611938,0.6802818775177002
-0.17423475943334024,0.2554837251519215,0,-1.3043098800002484,0,-0.49067103662491574,0,0.08132541848357233,0,-2.356194490192345,1.5707963267948966,0.022711502388119698,-0.6592956185340881,0.6767522692680359
0.19523462267551556,0.5761599221788152,0,1.1650307408685436,0,0.0003816909664924317,0,-0.9383730475750202,0,-2.356194490192345,1.5707963267948966,0.06710228323936462,-0.623691737651825,0.6436180472373962
0.27451231136400694,0.4714013032762434,0,1.4297766385826747,0,-0.09870072596834634,0,-0.05267850065894386,0,-2.356194490192345,1.5707963267948966,0.10922915488481522,-0.5900696516036987,0.5975065231323242
-0.27826439451230356,-0.30488155073414075,0,-1.1943846446730944,0,-0.3045367624094534,0,-1.1661069933662698,0,-2.356194490192345,1.5707963267948966,0.16054679453372955,-0.5524480938911438,0.5957556962966919
0.28873863695088814,-0.21185260887497892,0,1.0537937216691633,0,-0.5738782747181106,0,0.05234007330572332,0,-2.356194490192345,1.5707963267948966,0.21857602894306183,-0.523017406463623,0.6060997843742371
-0.14200641436663078,-0.36112588588117395,0,-1.0372592201158026,0,-0.20822016211334438,0,-0.6418872535207353,0,-2.356194490192345,1.5707963267948966,0.3025444447994232,-0.43994951248168945,0.6032280325889587
-0.0038496099773260295,-0.6345050575691928,0,-1.104559480100434,0,-0.9998929158690117,0,-0.4936622522875531,0,-2.356194490192345,1.5707963267948966,0.340024471282959,-0.38778114318847656,0.5836287140846252
0.25409841754609025,0.050163456871572976,0,0.8723624482152963,0,-0.926679485142753,0,-0.23921715168242408,0,-2.356194490192345,1.5707963267948966,0.15796127915382385,-0.49774327874183655,0.6102221608161926
0.2887672359225523,0.3694831854251288,0,1.117835287984207,0,0.09097517391551468,0,-1.0380696025492038,0,-2.356194490192345,1.5707963267948966,0.15006029605865479,-0.5576841831207275,0.6290329694747925
0.17771629092373237,-0.13578553110710312,0,1.3613796724395923,0,-0.5274463810763935,0,-0.32420537420836304,0,-2.356194490192345,1.5707963267948966,0.13935768604278564,-0.6350763440132141,0.6773344278335571
-0.11538840126178193,-0.02264493946220436,0,-0.9101033629978315,0,-0.7805069819174835,0,-0.39413695753015643,0,-2.356194490192345,1.5707963267948966,-0.2937990128993988,-0.950480043888092,0.7119096517562866
-0.1567597295080451,0.2301829644416875,0,0.04936407323274006,0,-0.7559015236730129,0,-0.11324608686187743,0,-2.356194490192345,1.5707963267948966,-0.2937009632587433,-0.9156239032745361,0.6830814480781555
-0.28423261649444204,-0.7416326972219986,0,0.9343383970261057,0,-1.163333484343459,0,-0.8104519415561239,0,-2.356194490192345,1.5707963267948966,-0.27838629484176636,-0.8609756231307983,0.6612125635147095
-0.22529062901079994,0.18438233121618153,0,-1.5087179509696245,0,-0.3537272633373729,0,-0.2792170242525389,0,-2.356194490192345,1.5707963267948966,-0.25352323055267334,-0.8435412645339966,0.6303470730781555
0.12782035161000538,0.3825359693206829,0,1.2646514698303686,0,-0.4352412441128388,0,-0.5332680310695684,0,-2.356194490192345,1.5707963267948966,-0.0393596887588501,-0.805289089679718,0.6804816722869873
0.20015450881848568,-0.4295227128022283,0,1.3120195129868986,0,-0.22905123277997363,0,0.10936656521871857,0,-2.356194490192345,1.5707963267948966,0.4268175959587097,-1.0872613191604614,0.6563992500305176
-0.28088983836211995,-0.38087870706743027,0,-0.6581090143258763,0,-0.02349898786870086,0,-1.0085071897072038,0,-2.356194490192345,1.5707963267948966,-0.0006968340603634715,-0.8809342384338379,0.6655799150466919
-0.2094522989424331,-0.22336971129259564,0,0.39562008591200915,0,-0.9644283377939284,0,-1.1320296140913275,0,-2.356194490192345,1.5707963267948966,-0.002832559635862708,-0.7948634028434753,0.6330581307411194
0.05740814949204781,-0.19946798931454945,0,0.6756494091841136,0,-0.46634245109391237,0,-1.0534401844479804,0,-2.356194490192345,1.5707963267948966,0.06831356137990952,-0.6460404396057129,0.6357203722000122
0.22228555232890818,0.16324609679537372,0,1.562571616932276,0,-0.9421288142065518,0,0.10789815397164193,0,-2.356194490192345,1.5707963267948966,0.06638910621404648,-0.8068488836288452,0.6544143557548523
0.2741133390838481,0.22132588733174474,0,-1.0920332183972454,0,-0.3704400074339408,0,-1.1604650937494554,0,-2.356194490192345,1.5707963267948966,0.04538201913237572,-0.8399956226348877,0.6582923531532288
-0.2623817612296196,-0.14628294443750234,0,0.3250270309585488,0,-0.7751084531816632,0,0.0501040937488515,0,-2.356194490192345,1.5707963267948966,0.03728717565536499,-0.8801712989807129,0.6686717867851257
0.20512520494912784,-0.22853774693333262,0,1.0735444887093974,0,-0.7471556809065961,0,-0.4980116276127038,0,-2.356194490192345,1.5707963267948966,0.037880778312683105,-0.8995556235313416,0.673480749130249
0.04989918001862431,-0.6227279255279676,0,-0.7811559180477747,0,-0.9062364581947487,0,0.03022335862437253,0,-2.356194490192345,1.5707963267948966,0.026168935000896454,-0.9151883721351624,0.6796888709068298
0.24978486753772372,0.7754489422957707,0,1.4447438814332152,0,-0.7891019122626994,0,-1.1845536276109165,0,-2.356194490192345,1.5707963267948966,-0.06707016378641129,-0.8118250370025635,0.6935130953788757
0.1743562081303287,-0.7279487613682832,0,0.8284616530964852,0,-0.11574608521398466,0,0.04386171576562825,0,-2.356194490192345,1.5707963267948966,-0.06712543219327927,-0.802074670791626,0.6582359671592712
-0.2531095347714057,0.2755122332817521,0,-1.4382947344480246,0,-0.47419261769106136,0,-1.1805471270389856,0,-2.356194490192345,1.5707963267948966,-0.062349624931812286,-0.792130172252655,0.6546005606651306
0.2225146635848329,0.23902985521560316,0,0.5794814741922578,0,0.08868199405254273,0,-0.3901275844366575,0,-2.356194490192345,1.5707963267948966,-0.0627671480178833,-0.7781451940536499,0.6817962527275085
-0.12817569121688158,-0.43499130923591933,0,0.17424130384188796,0,-0.5854531626224877,0,-0.7728907009732361,0,-2.356194490192345,1.5707963267948966,-0.05234970152378082,-0.773956835269928,0.6697831749916077
-0.2832952881555093,0.12329105598638146,0,-0.9563855211205271,0,-0.7408463268232439,0,-0.15460134744766796,0,-2.356194490192345,1.5707963267948966,-0.0321146622300148,-0.7607554197311401,0.6872831583023071
-0.19736919367268507,-0.019705865576373993,0,-0.17971923939413337,0,-0.6720306056264437,0,0.09730444448906406,0,-2.356194490192345,1.5707963267948966,-0.018172353506088257,-0.7467617392539978,0.6705331802368164
0.17644148435285129,-0.05811419507707494,0,1.1006458323358665,0,-1.0949964183271228,0,-0.43231223797542895,0,-2.356194490192345,1.5707963267948966,0.001986781368032098,-0.716066837310791,0.6413590312004089
0.17508550558104424,0.18611235637305457,0,-1.257575259852573,0,-0.5050795116673301,0,-1.0880709339782424,0,-2.356194490192345,1.5707963267948966,0.013042754493653774,-0.7118834853172302,0.6229254007339478
-0.1254698938374536,-0.7299976641398548,0,1.079808675294954,0,-0.2672419740959936,0,-0.07339325908074379,0,-2.356194490192345,1.5707963267948966,0.23777560889720917,-0.5496143698692322,0.6682265400886536
0.227233808431683,-0.00710106062224547,0,-0.8067084104995444,0,-1.0623505525605617,0,-0.09151875403438425,0,-2.356194490192345,1.5707963267948966,0.23020005226135254,-0.6003626585006714,0.70436030626297
0.06429928757379744,-0.3621898137309952,0,0.7877061219302508,0,-0.3285014955612383,0,-0.6629730877224207,0,-2.356194490192345,1.5707963267948966,0.14666715264320374,-0.8540120720863342,0.6924349069595337
0.09766454450502765,-0.47106978469854666,0,1.288498854047822,0,-0.24560427835803744,0,-0.15007368762655404,0,-2.356194490192345,1.5707963267948966,0.14619986712932587,-0.9044004678726196,0.6686323881149292
-0.10911968627078236,0.5065384068456744,0,-0.6043829897707262,0,-0.41898368148388243,0,-0.7803569192849367,0,-2.356194490192345,1.5707963267948966,0.13333798944950104,-0.952007532119751,0.6941767334938049
-0.18040599074734737,-0.03751201393103243,0,0.6401583974544574,0,-0.28344885754457894,0,0.03767032043539076,0,-2.356194490192345,1.5707963267948966,0.025061288848519325,-1.1032636165618896,0.6822760105133057
-0.11710725739069483,-0.2757768468332028,0,0.2289264763594303,0,-1.0367327171451954,0,-0.3117225245400458,0,-2.356194490192345,1.5707963267948966,0.0008055808721110225,-1.0678924322128296,0.6991601586341858
0.15441519811187365,0.6923520999672979,0,0.3126934601212563,0,-0.6074630188905651,0,-0.6298445626648956,0,-2.356194490192345,1.5707963267948966,-0.035670649260282516,-1.0180366039276123,0.6779710054397583
0.137011497744914,0.45427147548025726,0,-0.7858320259613837,0,-0.44109059386050775,0,-0.5920365474701738,0,-2.356194490192345,1.5707963267948966,-0.044531021267175674,-0.9836550951004028,0.6443026065826416
0.07138371914785208,0.002950142496896291,0,0.2276475940875926,0,-0.3623952450047755,0,-0.1540883208983237,0,-2.356194490192345,1.5707963267948966,-0.038150716572999954,-0.9411837458610535,0.6424508690834045
-0.20684136998023744,0.2637217411303481,0,1.5454195030680933,0,-0.11955789234378877,0,-0.0017045752752595789,0,-2.356194490192345,1.5707963267948966,-0.02317938394844532,-0.874299168586731,0.6474002599716187
-0.07842175159015366,-0.7468120755191804,0,1.4277814871425365,0,-0.3677747321497046,0,-1.125729626576506,0,-2.356194490192345,1.5707963267948966,-0.013363082893192768,-0.8171876072883606,0.6753763556480408
0.07830298528548074,0.47570626793689685,0,0.9642738891889739,0,-0.41180041889371655,0,-0.5153202663031956,0,-2.356194490192345,1.5707963267948966,0.003321190597489476,-0.8054932951927185,0.6928129196166992
-0.09851548317568762,0.3067914064757151,0,1.1602520117687942,0,-0.8634386573367667,0,-0.8299888176610302,0,-2.356194490192345,1.5707963267948966,0.013216863386332989,-0.8266348838806152,0.7021194100379944
0.24883473927454186,0.7576314908400712,0,-1.2874688653916735,0,-0.02973049027124941,0,-0.08611324864526382,0,-2.356194490192345,1.5707963267948966,0.16815924644470215,-0.9077220559120178,0.6821219325065613
0.06891906940180231,-0.0855124830513837,0,-0.7129543456340197,0,-0.31853751300407895,0,-1.1126408621995771,0,-2.356194490192345,1.5707963267948966,0.21993355453014374,-0.8926129341125488,0.6979138255119324
-0.02815628617699395,-0.3789322433438031,0,-1.011077047241645,0,-0.9521601156292029,0,-0.8386511744970125,0,-2.356194490192345,1.5707963267948966,0.278754323720932,-0.8587353825569153,0.6875349879264832
0.2989092826362439,-0.7882260597420327,0,1.334574835591082,0,-0.548159322564622,0,-0.3148701795125459,0,-2.356194490192345,1.5707963267948966,-0.2760848104953766,-0.9543443322181702,0.648019015789032
-0.09232826303194316,-0.30293856615640813,0,0.47030204917611673,0,-0.5602580221040082,0,-0.6264220847104319,0,-2.356194490192345,1.5707963267948966,-0.26653435826301575,-1.0006762742996216,0.6627119183540344
-0.23584042405085315,0.3857205274093729,0,-0.7499622244906878,0,-0.5196669966101293,0,0.03920747314881212,0,-2.356194490192345,1.5707963267948966,-0.26858773827552795,-1.057344675064087,0.677376389503479
-0.17624692760226773,0.3298333700066691,0,-1.4977840458889655,0,-0.11428980668272559,0,-0.12489438673795661,0,-2.356194490192345,1.5707963267948966,-0.2398305982351303,-1.121830940246582,0.6987532377243042
0.23069028663923336,0.64214687885054,0,-0.5156966798491422,0,-0.017725109922377635,0,0.030233878684988724,0,-2.356194490192345,1.5707963267948966,-0.20135891437530518,-1.094784140586853,0.6926564574241638
-0.09402987431598064,0.1849215728546525,0,-1.0484580919916158,0,-0.47044857677670726,0,-0.9719458401089343,0,-2.356194490192345,1.5707963267948966,-0.1480497270822525,-1.0411012172698975,0.6985529065132141
-0.1978092672347438,0.3768170425499835,0,-0.1378856109393194,0,-0.8186795183182505,0,-0.4615560289702143,0,-2.356194490192345,1.5707963267948966,-0.08419303596019745,-1.0021312236785889,0.6835742592811584
0.21164040896057018,-0.7417888166310889,0,0.8183935537209175,0,-0.46410150851115617,0,-0.15024657667954,0,-2.356194490192345,1.5707963267948966,-0.024956662207841873,-0.9645968079566956,0.6387990117073059
0.07796912706779707,0.28344214405905155,0,-0.8427298996252597,0,-1.0801132258850943,0,-0.38955387061998437,0,-2.356194490192345,1.5707963267948966,0.09471435099840164,-0.8621964454650879,0.6281075477600098
0.13999548865226197,-0.03749766806932142,0,-0.6622401126241566,0,0.10432795847312315,0,-1.141688182908976,0,-2.356194490192345,1.5707963267948966,-0.20187756419181824,-0.5445416569709778,0.6295251846313477
-0.006601885036606858,-0.2916427815129329,0,0.8308694244172297,0,-0.8961619682139716,0,-1.0265333611981933,0,-2.356194490192345,1.5707963267948966,-0.16542482376098633,-0.6473634839057922,0.6702885031700134
-0.09749026189868479,0.04880917637352078,0,-0.46715087391056387,0,-0.8857979707294135,0,0.13674783360468035,0,-2.356194490192345,1.5707963267948966,-0.1395765095949173,-0.7408464550971985,0.6768553853034973
-0.10674105675965162,0.017591084632004206,0,0.8266634732475371,0,-1.1269687036292997,0,-1.0264204692646415,0,-2.356194490192345,1.5707963267948966,-0.12393369525671005,-0.8123206496238708,0.6749289035797119
0.26209415392393437,0.022555512263127908,0,0.5388121816172391,0,-0.3734709155129389,0,-0.37748698278365,0,-2.356194490192345,1.5707963267948966,-0.09912841767072678,-0.8737577795982361,0.6626267433166504
-0.07238838545628809,-0.322849735619481,0,0.8305785242619401,0,-0.35534297334014076,0,-0.985068477929691,0,-2.356194490192345,1.5707963267948966,-0.07601673901081085,-0.935793399810791,0.6537405848503113
0.2767806449730445,0.7816355247758435,0,1.0944770612638037,0,-1.1232283244201537,0,-1.0300305840200368,0,-2.356194490192345,1.5707963267948966,-0.058671388775110245,-0.9918442368507385,0.6662467122077942
0.03358043531314897,0.6638507016251483,0,0.2702672953754246,0,-1.0838664934387334,0,-0.3984841440337521,0,-2.356194490192345,1.5707963267948966,-0.04953497275710106,-1.0672519207000732,0.6460298895835876
0.03309035416183548,-0.44935939527168145,0,0.7267481328320429,0,0.011088641996495285,0,0.07345634599649342,0,-2.356194490192345,1.5707963267948966,-0.02759338542819023,-1.113632321357727,0.6222444772720337
-0.18869601640966788,-0.5130740289942987,0,-1.407229636327029,0,-0.7408181280560229,0,-1.1381002453652673,0,-2.356194490192345,1.5707963267948966,0.0027444371953606606,-1.1256033182144165,0.638862133026123
-0.05106408589574657,-0.09215269870608933,0,-0.1908736200128951,0,-1.064476906438085,0,-1.0410212230173876,0,-2.356194490192345,1.5707963267948966,0.017756229266524315,-1.1365424394607544,0.6989721059799194
-0.10194174929316288,-0.5852258351579043,0,0.9704041731758726,0,-0.24684109821754474,0,-0.18521016535774537,0,-2.356194490192345,1.5707963267948966,0.006125978194177151,-1.10872483253479,0.6438329815864563
0.059828224874558356,0.27340254364386274,0,-1.4125921228791243,0,-0.24260998212792306,0,-0.7232268544586199,0,-2.356194490192345,1.5707963267948966,0.0030882253777235746,-0.8884052038192749,0.6385750770568848
0.14579123901840452,0.7994586201988676,0,-0.8250650250370168,0,-0.1484591353001512,0,-0.7176074215982039,0,-2.356194490192345,1.5707963267948966,0.08420510590076447,-0.8193770051002502,0.6497485041618347
-0.26246736269413756,-0.20022094069210394,0,1.0102394539423298,0,-0.34167368021780453,0,-0.32401424122577105,0,-2.356194490192345,1.5707963267948966,0.0938180461525917,-0.7879981994628906,0.6498312950134277
-0.21194781436219595,0.49719226043612386,0,0.41807789648816907,0,-0.03371444702799664,0,-0.5049266357582608,0,-2.356194490192345,1.5707963267948966,0.11015606671571732,-0.7423747181892395,0.6420600414276123
0.25795786932131065,-0.5082710976905644,0,0.6171632235548712,0,-0.721591601031127,0,-0.11471227840102238,0,-2.356194490192345,1.5707963267948966,0.12018994987010956,-0.7138247489929199,0.6478312015533447
-0.22658521412316066,0.7147427572538052,0,-1.0570663765156225,0,0.019732359879206518,0,0.009549170056673217,0,-2.356194490192345,1.5707963267948966,0.13564488291740417,-0.7033918499946594,0.6670650243759155
0.025024822286859427,-0.6392330813698504,0,0.8287714664752541,0,-1.1053723483917308,0,-0.44295149484493723,0,-2.356194490192345,1.5707963267948966,0.14596912264823914,-0.6965290307998657,0.6984724998474121
0.23961355816179958,-0.5374730544651976,0,-0.5699434573217379,0,-0.4663609041859694,0,0.11851892423864951,0,-2.356194490192345,1.5707963267948966,0.16189606487751007,-0.6999386548995972,0.6934626698493958
-0.2115909332033365,-0.5223884413845785,0,1.1013103202944752,0,-0.4497530912813469,0,-1.078235054464572,0,-2.356194490192345,1.5707963267948966,0.16743017733097076,-0.7151015400886536,0.6901094913482666
0.1690221661709163,-0.038555360536934535,0,1.3400428918938228,0,-0.2357709181015244,0,-1.002989200252404,0,-2.356194490192345,1.5707963267948966,0.15804143249988556,-0.7268658876419067,0.6802107691764832
-0.04860585751334445,0.6730366957170382,0,0.47188057416929396,0,-0.13927202980090625,0,-0.5273393091764964,0,-2.356194490192345,1.5707963267948966,0.1327395886182785,-0.7726456522941589,0.6767260432243347
0.1275758127662009,-0.7546456874234423,0,0.7211551125619997,0,-0.36608194128743277,0,-1.1299949135798621,0,-2.356194490192345,1.5707963267948966,0.10263939201831818,-0.8172172904014587,0.6978796124458313
0.07445393875738732,-0.05132713507889641,0,1.4623762265519908,0,-0.5485426782583225,0,-1.0674820950918666,0,-2.356194490192345,1.5707963267948966,0.07995028793811798,-0.8722795844078064,0.707217812538147
0.26594204376921277,-0.7963608355742816,0,-1.2716852994303172,0,-0.733725063394372,0,-0.5872798396363673,0,-2.356194490192345,1.5707963267948966,0.0509374774992466,-0.9363020658493042,0.6935489773750305
-0.04773121115774398,0.02183838706618657,0,-1.071213000731535,0,-0.5233180490557539,0,-0.9489459971774336,0,-2.356194490192345,1.5707963267948966,0.025980092585086823,-1.002014398574829,0.6787399053573608
-0.23793724109581013,0.6134657395696099,0,0.8789607229700591,0,-0.27368200659606934,0,-0.4666770012881495,0,-2.356194490192345,1.5707963267948966,-0.024043459445238113,-1.07452392578125,0.6589736342430115
-0.14046985087256544,-0.5260350419473523,0,1.4796991035520586,0,0.09895721729784124,0,-0.6509620266323821,0,-2.356194490192345,1.5707963267948966,-0.027958489954471588,-1.084174394607544,0.6707605719566345
0.2583411721102324,0.3296489377838432,0,0.9801069189545855,0,-0.03683972855204387,0,-0.01456244531300488,0,-2.356194490192345,1.5707963267948966,0.15105237066745758,-1.0566730499267578,0.6575480699539185
0.192452405027991,0.34212479358831027,0,0.6355035600336008,0,-0.04685865354596053,0,0.1456945353699699,0,-2.356194490192345,1.5707963267948966,0.14245691895484924,-0.9702054262161255,0.6791830062866211
-0.1810782692804297,0.14548889229432582,0,0.8784004973206971,0,0.14084105428177152,0,-0.7388361002805229,0,-2.356194490192345,1.5707963267948966,0.14579026401042938,-0.8839263916015625,0.7122088074684143
-0.12383031683983078,0.5349548150967025,0,0.7415921179005251,0,-1.145272599014254,0,0.08301879189649286,0,-2.356194490192345,1.5707963267948966,0.16048721969127655,-0.8208062052726746,0.7339633107185364
0.10180959718268245,0.13229404370105846,0,0.5414786236822664,0,-0.7962868258307507,0,-0.5687579746475934,0,-2.356194490192345,1.5707963267948966,0.15271055698394775,-0.7886490821838379,0.7214542031288147
-0.18941226155433744,0.5613029751768628,0,1.5508886148461851,0,0.036005991612253485,0,0.14675343564228704,0,-2.356194490192345,1.5707963267948966,0.15073326230049133,-0.7761699557304382,0.7115585803985596
0.1678738620162354,-0.24639491585484596,0,-0.37980489928940653,0,0.04618420241504628,0,-0.49410900308544514,0,-2.356194490192345,1.5707963267948966,0.1338406503200531,-0.777693510055542,0.6876033544540405
-0.28331629256141305,-0.19092671657641613,0,0.048465236394438005,0,-0.6325729385140139,0,-0.08583795670667826,0,-2.356194490192345,1.5707963267948966,0.10575281083583832,-0.7724115252494812,0.6900953054428101
-0.20133220675654057,0.3236089299488287,0,0.27856425133644236,0,-0.47835113776537086,0,-0.7169544194816708,0,-2.356194490192345,1.5707963267948966,0.06453639268875122,-0.740770161151886,0.697256863117218
-0.14873183933795334,-0.42962948273645235,0,0.9645544239170869,0,-0.6587529072704406,0,-0.3313072376339923,0,-2.356194490192345,1.5707963267948966,0.01742112822830677,-0.7366783618927002,0.6893209218978882
0.25979133836398277,-0.24002452918987183,0,1.4602269934965442,0,-0.6954109377549735,0,-1.1385273381568395,0,-2.356194490192345,1.5707963267948966,-0.02240181528031826,-0.7585929036140442,0.6868345737457275
0.14698976541790199,-0.6275519619327055,0,0.8467533871140089,0,-1.0310666385240943,0,-0.4108619726066075,0,-2.356194490192345,1.5707963267948966,-0.06870494782924652,-0.8088414072990417,0.684024453163147
0.17158034214701262,0.640010426167646,0,1.2129474961949915,0,-0.06238435930516628,0,-0.9389214616254675,0,-2.356194490192345,1.5707963267948966,-0.10803495347499847,-0.8704609870910645,0.6723164916038513
-0.22061239191696452,-0.18846859290177986,0,-1.0030491866037408,0,-0.7303593936865197,0,-0.7277777074192798,0,-2.356194490192345,1.5707963267948966,-0.15350012481212616,-0.9152653813362122,0.672831118106842
0.019359792067506598,0.2887066021117328,0,0.1444817250449575,0,-0.44405670013311915,0,-0.8934238653312861,0,-2.356194490192345,1.5707963267948966,-0.20392362773418427,-1.024613857269287,0.6500661969184875
0.15230502204093993,0.44798052872544325,0,-1.452862694237554,0,-0.3322891903095938,0,-0.3772680538883231,0,-2.356194490192345,1.5707963267948966,-0.20625898241996765,-1.050997257232666,0.6399865746498108
-0.13509554796832832,0.5659365818808264,0,0.3945444381940222,0,-1.1470822036507564,0,0.07553328633971113,0,-2.356194490192345,1.5707963267948966,-0.1939171701669693,-1.0472586154937744,0.6524845957756042
-0.15143662173730904,0.7214787488457783,0,-1.261693860770389,0,-0.9292640328182246,0,-0.13155987874096398,0,-2.356194490192345,1.5707963267948966,-0.16745443642139435,-1.0187326669692993,0.6584472060203552
-0.2600384109196071,-0.6129723459607057,0,-0.7253085906227996,0,-1.1671688676722922,0,-0.5165424310491817,0,-2.356194490192345,1.5707963267948966,-0.12636111676692963,-0.9876055121421814,0.6528759002685547
0.0022045073204736143,0.3331895519544379,0,-0.05454855740451503,0,-0.6593339201038744,0,-0.9175180981343076,0,-2.356194490192345,1.5707963267948966,-0.07638417184352875,-0.9502941370010376,0.6219103336334229
-0.26522971862860417,0.3210726888538682,0,1.3466704146915993,0,-0.6632801309019898,0,-0.979457316061314,0,-2.356194490192345,1.5707963267948966,-0.23643511533737183,-0.7680380940437317,0.6343784928321838
-0.22269732407398402,0.025575569142809007,0,1.3458420759505492,0,-0.8776069355932716,0,-1.0800229050282033,0,-2.356194490192345,1.5707963267948966,-0.22592978179454803,-0.8061707019805908,0.6651619076728821
0.15385556110123405,0.0498527286903554,0,0.019673405470189254,0,-0.2774553960047851,0,0.09408063902772534,0,-2.356194490192345,1.5707963267948966,-0.20556142926216125,-0.8872504830360413,0.675488293170929
0.148444211999048,-0.5957200088327946,0,0.816727030941534,0,-0.9380653832936767,0,0.03351879058711482,0,-2.356194490192345,1.5707963267948966,-0.1697167605161667,-0.9524965882301331,0.6992040872573853
0.23303030833873867,0.5699120866768668,0,-1.142305272878754,0,-0.14382674619739078,0,-0.972375233277113,0,-2.356194490192345,1.5707963267948966,0.02659110724925995,-0.8927055597305298,0.6721654534339905
0.030030355974426215,0.47095441491558443,0,0.41738221074721915,0,-0.47026109743568967,0,-1.0749883623630976,0,-2.356194490192345,1.5707963267948966,0.49662110209465027,-0.6035875082015991,0.6792685389518738
0.07772670582013147,0.09410115237084893,0,0.5752300648147934,0,-0.3016045780258816,0,-0.5538972300703349,0,-2.356194490192345,1.5707963267948966,0.4948451519012451,-0.6829937696456909,0.6981300115585327
0.08653435173436891,0.7096609005326777,0,0.16067217979950543,0,-0.04971196647707288,0,0.045382609651434924,0,-2.356194490192345,1.5707963267948966,0.48755645751953125,-0.7529721856117249,0.6967424154281616
0.2522202323443364,-0.7301063784978242,0,0.005891939312144379,0,-1.0465509357304597,0,-1.147021358429869,0,-2.356194490192345,1.5707963267948966,0.46517306566238403,-0.831704318523407,0.7219539284706116
-0.257055313227696,-0.24329848571321888,0,-0.24228258116434964,0,-0.09197292780496258,0,-1.1045905347751475,0,-2.356194490192345,1.5707963267948966,0.4421750009059906,-0.8278713226318359,0.668499767780304
0.12521433499100776,-0.11578761022704409,0,-1.3345519072483045,0,-0.28504279500843266,0,-0.9037628772389004,0,-2.356194490192345,1.5707963267948966,-0.004764536861330271,-0.7559027075767517,0.6859262585639954
-0.29545977646321786,0.16736583728721277,0,-1.50516793712894,0,-0.43819869658535804,0,0.10453679568367602,0,-2.356194490192345,1.5707963267948966,0.015151864849030972,-0.8500468730926514,0.6938520073890686
0.2705130497419666,-0.773779329031437,0,1.4013528985002472,0,-0.8968398630060411,0,-0.21484926402389037,0,-2.356194490192345,1.5707963267948966,0.05343219265341759,-0.9570661783218384,0.7141848206520081
-0.19746041982106627,-0.05555956876095891,0,-0.1987042841497204,0,-0.8336907960293511,0,-0.8014703981052422,0,-2.356194490192345,1.5707963267948966,0.0876607894897461,-0.9977014064788818,0.7017226815223694
0.269273300939128,-0.5455499990005721,0,1.286203376222713,0,-0.4657452380057767,0,-1.0640335399094327,0,-2.356194490192345,1.5707963267948966,0.11064724624156952,-1.0434173345565796,0.6900594830513
-0.03683977868862032,0.264960053951115,0,0.6597428900792841,0,-1.0041771649164235,0,-0.7881134018409462,0,-2.356194490192345,1.5707963267948966,0.11822113394737244,-1.0875791311264038,0.6712798476219177
0.19397273964565226,-0.25504483303594816,0,-1.3177611991793925,0,-0.19152547433836786,0,0.03853966829764688,0,-2.356194490192345,1.5707963267948966,0.11640039831399918,-1.1346672773361206,0.6518383026123047
-0.27290343376925585,-0.5850880638636398,0,0.7394812575033338,0,-0.29875241166565203,0,0.1197459843632509,0,-2.356194490192345,1.5707963267948966,0.12158475816249847,-1.1429239511489868,0.6653534770011902
-0.21308140174830675,0.36055558097500984,0,0.20829137440723366,0,-1.1110054568112997,0,-0.42318707196825855,0,-2.356194490192345,1.5707963267948966,0.18100984394550323,-1.2865115404129028,0.6313363313674927
-0.04020826838471314,0.42673308453268954,0,-0.071286715067991,0,0.11623727030909725,0,-0.34646308546453963,0,-2.356194490192345,1.5707963267948966,0.17473918199539185,-1.2104076147079468,0.6244221329689026
-0.2956379329971956,0.6998387696711921,0,0.16899044882224246,0,-0.5690808555953386,0,-0.048989180561268775,0,-2.356194490192345,1.5707963267948966,0.18176919221878052,-1.1376384496688843,0.6289889812469482
-0.248302023034685,-0.1819285441418017,0,1.1123136495137453,0,-0.30724701737507565,0,-0.16799177537291676,0,-2.356194490192345,1.5707963267948966,0.2032237946987152,-1.0674560070037842,0.6622321605682373
-0.29025429497484756,-0.5238928351602725,0,0.40506233777186273,0,-0.05215969581417945,0,-0.5716830465411021,0,-2.356194490192345,1.5707963267948966,0.23320981860160828,-1.0177721977233887,0.684004545211792
-0.06364968676777583,-0.4996964616941922,0,0.6125869758692448,0,-0.8267152588510571,0,-1.1028410184650042,0,-2.356194490192345,1.5707963267948966,0.250938355922699,-1.0009002685546875,0.7093391418457031
0.02479650130891453,0.5393092541651647,0,1.3998743486265677,0,-0.3917980459123628,0,-0.6410118832571685,0,-2.356194490192345,1.5707963267948966,0.2541627883911133,-1.0149939060211182,0.7038587927818298
-0.21161214659467448,-0.05585564055282399,0,-1.2984173132066719,0,-0.03233684465981912,0,-0.2853983313172179,0,-2.356194490192345,1.5707963267948966,0.24753619730472565,-1.0366098880767822,0.6853558421134949
0.29557227014581083,0.42185407024858357,0,0.3703053251981572,0,-0.41683485652334984,0,-1.1560596672572612,0,-2.356194490192345,1.5707963267948966,0.23556526005268097,-1.0579195022583008,0.7085660099983215
-0.15452671080875138,-0.1461020908706674,0,1.488707582287761,0,-1.0017847497251329,0,-1.1129298436582733,0,-2.356194490192345,1.5707963267948966,0.214046448469162,-1.067386269569397,0.6779244542121887
0.18304437251744227,-0.2987502120892732,0,0.1954347723712131,0,-0.7597169035471505,0,-1.047144907591271,0,-2.356194490192345,1.5707963267948966,0.1990092247724533,-1.0775554180145264,0.6522315144538879
-0.009810412358020049,0.49298645209956393,0,-0.9246184885199679,0,-0.22501495959629314,0,-0.7944633979517881,0,-2.356194490192345,1.5707963267948966,0.17133960127830505,-1.0959060192108154,0.6282849311828613
-0.027381884879420282,-0.6774083127787981,0,-1.1602463477062257,0,0.09282799687709065,0,0.02480370501721807,0,-2.356194490192345,1.5707963267948966,0.13541874289512634,-1.07864511013031,0.6287472248077393
0.1660030339670165,-0.16792459760519007,0,0.6110688551599228,0,-0.7704271844228469,0,-0.8849955601160765,0,-2.356194490192345,1.5707963267948966,0.10695187747478485,-1.0133720636367798,0.6597301363945007
-0.2882447809661736,-0.6195331625560236,0,-1.2935670700847244,0,-0.437010295380832,0,-0.3113857472602206,0,-2.356194490192345,1.5707963267948966,0.06572938710451126,-0.9466400742530823,0.6659122705459595
0.028281526531769408,0.799722099493734,0,0.573163848013833,0,-0.8495673395697999,0,-0.5683308925200623,0,-2.356194490192345,1.5707963267948966,0.01649978570640087,-0.9021853804588318,0.6585534811019897
-0.117096634974625,0.49564539403023633,0,-0.3137625140248561,0,-0.8137754379003637,0,-0.16870383603570382,0,-2.356194490192345,1.5707963267948966,-0.14644625782966614,-0.7824395895004272,0.6644715666770935
-0.22021477606102757,0.6048067636496575,0,-1.4307970407679924,0,-0.849513186831182,0,-0.06837563382049416,0,-2.356194490192345,1.5707963267948966,-0.19058659672737122,-0.7676936388015747,0.6885004043579102
0.018971390089932483,0.0284975967189679,0,1.0555347275567768,0,-0.9688666243619002,0,-0.23608203582380882,0,-2.356194490192345,1.5707963267948966,-0.2199622541666031,-0.7525758743286133,0.6662696599960327
-0.24152675247937283,0.6231359820165951,0,-1.1667143746008455,0,-0.8020435507747168,0,-0.003280877192926912,0,-2.356194490192345,1.5707963267948966,-0.23566706478595734,-0.7314512729644775,0.6305382251739502
0.24635517731546902,-0.6292508689563207,0,1.4867905416701999,0,0.11545935618747483,0,-0.18815457558797677,0,-2.356194490192345,1.5707963267948966,-0.23799002170562744,-0.7135111093521118,0.6106400489807129
0.09725769405618473,0.13978777515733465,0,-0.31668541824011953,0,-0.8230628379178027,0,0.10484936965472458,0,-2.356194490192345,1.5707963267948966,0.11090762168169022,-0.434355765581131,0.639352560043335
-0.2364530740342502,-0.5767240140767739,0,-0.8579653254577174,0,-0.9657014756334817,0,-0.8711264758704709,0,-2.356194490192345,1.5707963267948966,0.1013670489192009,-0.5040581822395325,0.6735892295837402
0.14663694081397327,0.03496208318033123,0,-1.1106957716464423,0,-0.8970168855437259,0,-0.2786278871289225,0,-2.356194490192345,1.5707963267948966,0.09548439830541611,-0.5706194639205933,0.6711393594741821
-0.22744030565640178,-0.2611447684780409,0,0.807568272981424,0,-0.7060031880837743,0,-0.8621275735491447,0,-2.356194490192345,1.5707963267948966,0.08258356153964996,-0.6325973272323608,0.6315760612487793
-0.06087348546658192,0.14941089749281977,0,-1.4124973652522759,0,-1.0634074397439286,0,-1.0092587023101707,0,-2.356194490192345,1.5707963267948966,0.016179222613573074,-0.8731556534767151,0.6205261945724487
0.047054400389054174,-0.2867800503432062,0,-0.7619857853140863,0,-0.9614079066494018,0,-0.5124603782581051,0,-2.356194490192345,1.5707963267948966,0.031697653234004974,-1.0505582094192505,0.6296530365943909
0.1279841123858183,0.37879967822039884,0,-0.8449924200183407,0,-0.41319042689688623,0,0.10180621957685143,0,-2.356194490192345,1.5707963267948966,0.034912314265966415,-1.0556657314300537,0.6376633048057556
-0.22695473134110108,-0.5618270553857814,0,0.7698635795272684,0,-1.0142119088046715,0,0.08432995075093896,0,-2.356194490192345,1.5707963267948966,0.029847191646695137,-1.0209407806396484,0.6477117538452148
0.029592216899047896,0.6427970218881516,0,0.42381682791505537,0,-0.5792502487063397,0,-0.41382319899242226,0,-2.356194490192345,1.5707963267948966,0.03170130029320717,-0.9694718718528748,0.6560008525848389
-0.2958765208794247,0.44802380931349983,0,0.07867727074890385,0,-0.0314985993108885,0,-0.9874779530056641,0,-2.356194490192345,1.5707963267948966,0.026472801342606544,-0.9537853598594666,0.659048318862915
0.09869307335788058,-0.03473541831172633,0,-0.07700440484746651,0,-0.17644510423539583,0,-0.8146066471752282,0,-2.356194490192345,1.5707963267948966,0.034023869782686234,-0.9530244469642639,0.669058084487915
0.2449883417080056,-0.014236436108602035,0,0.7820790800691331,0,-0.42592431438346123,0,-0.20723564150385254,0,-2.356194490192345,1.5707963267948966,0.050610415637493134,-0.9562979340553284,0.6729313135147095
0.26819088273972486,0.6732968396487407,0,1.2211701022945833,0,-0.8095290843021363,0,-0.8695606799187123,0,-2.356194490192345,1.5707963267948966,0.05444931611418724,-0.9346218705177307,0.6823619604110718
-0.007994205466819282,0.02024394682766384,0,-0.5320659122041049,0,-0.935008032309151,0,-0.7643090933066137,0,-2.356194490192345,1.5707963267948966,0.04931152984499931,-0.9354183673858643,0.6921475529670715
-0.16978545541485293,0.17760843361322576,0,0.45998304321362316,0,-0.8719151387955228,0,0.11019171034667519,0,-2.356194490192345,1.5707963267948966,0.05082960054278374,-0.9602883458137512,0.6742737889289856
0.08260227707628365,-0.18385558613030728,0,0.01223637652156806,0,-0.8662876025203228,0,-1.0736584946149843,0,-2.356194490192345,1.5707963267948966,0.048959869891405106,-0.9586538672447205,0.6700713634490967
-0.12100059104618865,0.40419265555962247,0,0.583215406188716,0,0.12303394736583773,0,-0.8209580294457384,0,-2.356194490192345,1.5707963267948966,0.053992245346307755,-0.965129554271698,0.6608072519302368
-0.1993945290932286,0.210478027379557,0,0.40922781851856427,0,-0.5605569219564618,0,-0.9482524785046318,0,-2.356194490192345,1.5707963267948966,0.0523054338991642,-0.9723095893859863,0.6425624489784241
-0.055650970828350244,-0.38948612989377146,0,1.3839676629758584,0,-0.9980803231107716,0,-0.16649070678832878,0,-2.356194490192345,1.5707963267948966,0.06347715109586716,-0.9906013011932373,0.6519270539283752
-0.10436570005492676,-0.03409841293073035,0,0.37246894816766685,0,-0.4642996938687647,0,-1.0289183412451894,0,-2.356194490192345,1.5707963267948966,0.08324531465768814,-1.018117904663086,0.6492780447006226
0.17366979565411822,-0.7810018223932979,0,0.9032021083359538,0,-0.5552822961674911,0,0.10782903399313448,0,-2.356194490192345,1.5707963267948966,0.09017786383628845,-1.0583406686782837,0.6490514874458313
-0.047203954728641806,0.23146798840470373,0,-0.38016847771693785,0,-0.05051315399881373,0,-0.13175028115753307,0,-2.356194490192345,1.5707963267948966,0.08230618387460709,-1.0786802768707275,0.6612899899482727
0.13387781613189564,-0.7224294290656221,0,-1.5055506959531801,0,-0.8132284462148877,0,-0.1999340961116156,0,-2.356194490192345,1.5707963267948966,-0.0707986056804657,-1.021834135055542,0.683546245098114
0.1372778765053212,0.3602471091743795,0,0.019271801229980845,0,-0.28779099008689835,0,-0.1246499203261422,0,-2.356194490192345,1.5707963267948966,-0.07778655737638474,-0.9923831820487976,0.6829020977020264
-0.29533920470660485,0.6621480837855893,0,-1.1097549866337781,0,-0.4082765009339806,0,-1.1023653576713808,0,-2.356194490192345,1.5707963267948966,-0.12002096325159073,-0.8594715595245361,0.7032223343849182
-0.13998373865625915,-0.6731179752433383,0,0.8686159004263518,0,-0.8679305185251837,0,-0.6129444305372057,0,-2.356194490192345,1.5707963267948966,-0.12407691031694412,-0.8317320942878723,0.6599503755569458
0.16046088735965042,-0.6697072909275269,0,-0.5233550497596333,0,-0.7925474007265575,0,-0.5000002063449098,0,-2.356194490192345,1.5707963267948966,-0.40819332003593445,-0.7905037999153137,0.6610283851623535
-0.05809194301720813,-0.07378548099118554,0,0.6959678417785415,0,-1.0892340575815511,0,-0.6601698550569715,0,-2.356194490192345,1.5707963267948966,-0.37270790338516235,-0.8355455994606018,0.6686896085739136
-0.2097364272174993,0.706035777974878,0,-0.8719605335224289,0,-0.9762990852285491,0,-0.07220541448704232,0,-2.356194490192345,1.5707963267948966,-0.34350958466529846,-0.8775011301040649,0.6551486849784851
-0.1693262828111167,-0.62599056813516,0,-0.53125827444171,0,-0.28152732588173535,0,0.048517978052332156,0,-2.356194490192345,1.5707963267948966,-0.3022040128707886,-0.9068261981010437,0.644010603427887
-0.18906421533968049,0.5502345451757658,0,0.02784052370767509,0,-0.2187492945408096,0,-0.0893864848333481,0,-2.356194490192345,1.5707963267948966,-0.25286296010017395,-0.8961734771728516,0.6495621204376221
-0.09353038248961479,-0.7638672752592321,0,-0.17812580971231173,0,-0.5213357313565083,0,-0.9886136184875254,0,-2.356194490192345,1.5707963267948966,-0.210646852850914,-0.8695675134658813,0.6615211367607117
0.052582305183627054,0.4002100091033336,0,-0.04657059233319938,0,-1.1795597069694275,0,-0.08822178231832534,0,-2.356194490192345,1.5707963267948966,-0.16125904023647308,-0.8752667307853699,0.661777913570404
0.08016382202493111,0.017947034115249005,0,-1.0547797226956659,0,0.023370850007733424,0,-0.8163276080915964,0,-2.356194490192345,1.5707963267948966,-0.1184714213013649,-0.8657921552658081,0.6330494284629822
-0.2812971293873476,0.3928756466613943,0,1.1562777931225865,0,0.06394217344981112,0,-0.5802289846287512,0,-2.356194490192345,1.5707963267948966,-0.00888795219361782,-0.6697639226913452,0.6524339318275452
-0.10544004875253557,0.10189052849480995,0,0.17403026040644098,0,-1.1749208722342088,0,-0.12063152276031786,0,-2.356194490192345,1.5707963267948966,0.002874260302633047,-0.6899935007095337,0.6877052187919617
0.03611955920293558,0.08299513059176833,0,1.2603037946585935,0,-0.9738968789691883,0,-0.11296836780385866,0,-2.356194490192345,1.5707963267948966,0.02500026486814022,-0.7303099036216736,0.7088642120361328
-0.03142890882379357,0.2804772211267468,0,0.99113785955868,0,-1.1004787791638122,0,-0.734024139057492,0,-2.356194490192345,1.5707963267948966,0.040005892515182495,-0.7659558653831482,0.6975554823875427
0.1644123396176041,-0.488900097487792,0,-1.243209471384011,0,-0.3971571911443801,0,-1.1626390985904829,0,-2.356194490192345,1.5707963267948966,0.05228447541594505,-0.8294733762741089,0.6875554323196411
0.09635241021821278,0.5638449727164496,0,-0.302591206674107,0,-1.0241258040357073,0,-0.030347509014387652,0,-2.356194490192345,1.5707963267948966,0.07175261527299881,-0.9072381258010864,0.6692811846733093
0.026798623679269773,0.2516844728804959,0,-0.3028379652327149,0,-0.566231612146932,0,-0.5581377353870728,0,-2.356194490192345,1.5707963267948966,0.08451349288225174,-0.9455108046531677,0.6641846895217896
0.1174373075146139,-0.7464126499656785,0,0.6997393874093265,0,0.02230141964976018,0,0.055698464583000984,0,-2.356194490192345,1.5707963267948966,0.10916914790868759,-0.9520301222801208,0.6618400812149048
0.20886452170140352,0.6389049333754218,0,-0.5196447704316622,0,-0.8053602694722533,0,0.03161441575231261,0,-2.356194490192345,1.5707963267948966,0.13461489975452423,-0.9392508268356323,0.6709257960319519
0.12639141755618832,0.37781111290144986,0,1.531829786737608,0,-0.38895581180508754,0,-0.7539893493040255,0,-2.356194490192345,1.5707963267948966,0.17972499132156372,-0.9173537492752075,0.6969937086105347
-0.29414136500481763,-0.15112310204083845,0,0.6271035684359623,0,-0.6203108144750422,0,-0.2058597285656275,0,-2.356194490192345,1.5707963267948966,0.2114885002374649,-0.9438888430595398,0.6886165738105774
0.0841441100603566,-0.0960565271131596,0,0.9581035199452077,0,-0.9835763908808919,0,-0.06761003004154276,0,-2.356194490192345,1.5707963267948966,0.09072716534137726,-1.148848533630371,0.6514905095100403
0.2966454620039362,-0.18890158148516267,0,1.225154372169888,0,-0.5067721424347136,0,-0.9422545714398041,0,-2.356194490192345,1.5707963267948966,0.08489573746919632,-1.1375811100006104,0.6333518028259277
0.01644493235685396,-0.7769594926202799,0,0.07754757609651919,0,-0.39542332978377437,0,-0.7154616036030781,0,-2.356194490192345,1.5707963267948966,0.06626346707344055,-1.1357383728027344,0.6363533139228821
0.016187299954016632,0.3388538183649652,0,0.5261798158815889,0,-0.05642736440887197,0,-1.0889006902393294,0,-2.356194490192345,1.5707963267948966,-0.39028388261795044,-1.119981288909912,0.6412790417671204
-0.027084570288071763,0.4994712751884911,0,0.6003473395203227,0,-0.20755757087704485,0,-0.127786490516119,0,-2.356194490192345,1.5707963267948966,-0.3574148416519165,-1.0764880180358887,0.6740792989730835
0.11780338447853306,0.10013782793825532,0,-1.0548846644443337,0,-0.4725544559969559,0,0.09202634296672918,0,-2.356194490192345,1.5707963267948966,-0.20536988973617554,-1.0354673862457275,0.698642909526825
0.19950589468039326,0.5562826439847159,0,-0.11133654775568069,0,-1.044683214052725,0,-0.6127670945993073,0,-2.356194490192345,1.5707963267948966,0.30619150400161743,-1.0750432014465332,0.6461220383644104
0.25048960604314435,-0.5534903161174798,0,-1.1395000194059077,0,-0.05525614936318224,0,-1.0628874248610667,0,-2.356194490192345,1.5707963267948966,0.3145429790019989,-1.059492826461792,0.6371319890022278
-0.20728154648447827,0.15440068778568183,0,0.20306661853861296,0,-0.17984019860592748,0,0.0990693590081928,0,-2.356194490192345,1.5707963267948966,0.3296501338481903,-1.0301036834716797,0.6298858523368835
-0.20150451605993466,-0.4713500611889552,0,0.6418007404297956,0,-0.021295796348831386,0,-0.5989807459875051,0,-2.356194490192345,1.5707963267948966,0.3317001760005951,-0.9656742811203003,0.6381773948669434
-0.044001819966237754,-0.7129096146707848,0,0.5497599878770885,0,-1.034380108581542,0,-0.5229890290242775,0,-2.356194490192345,1.5707963267948966,0.31949877738952637,-0.9147101640701294,0.6526523232460022
-0.04080701345987675,0.24224618113399532,0,-0.18655083443465448,0,-0.3988890864021145,0,-0.8514775703484015,0,-2.356194490192345,1.5707963267948966,0.29342108964920044,-0.9082441329956055,0.6500391364097595
0.23139799057996907,0.7109740387152101,0,0.9947863301896058,0,-0.6652730302561645,0,-0.5291792481291729,0,-2.356194490192345,1.5707963267948966,0.25789564847946167,-0.9180756211280823,0.6411517262458801
-0.10726496895106219,-0.10309493991809193,0,-0.8092192837625137,0,-0.6162989817348907,0,-0.2465944501225109,0,-2.356194490192345,1.5707963267948966,0.2268650084733963,-0.8809113502502441,0.6698076725006104
-0.14805642109928163,0.22144895197160563,0,0.9616201308087899,0,-0.7837765089096516,0,-0.7547990271069118,0,-2.356194490192345,1.5707963267948966,0.22808843851089478,-0.8336940407752991,0.6882534623146057
-0.11155485486509423,0.6909519880190114,0,-1.38282628221784,0,-1.1529609993413072,0,-0.9092613061538068,0,-2.356194490192345,1.5707963267948966,0.22234639525413513,-0.8039817810058594,0.6626545190811157
0.2784366643294263,-0.3261264685050662,0,0.46024958764711865,0,-0.2721904446923441,0,-0.1164195310239351,0,-2.356194490192345,1.5707963267948966,0.06705428659915924,-0.782341480255127,0.6428579688072205
0.05273114893998654,0.45923239436735197,0,-0.05031988806980481,0,-0.90710415494863,0,-0.6208930763066408,0,-2.356194490192345,1.5707963267948966,0.008427695371210575,-0.7995895147323608,0.6679860353469849
0.15676821813183717,-0.07011952957781431,0,1.3436500236452131,0,-0.9572802980416413,0,-0.2137903464065536,0,-2.356194490192345,1.5707963267948966,-0.054538559168577194,-0.8302374482154846,0.686545729637146
0.29598665668237417,-0.3861149176475605,0,-1.148235820510474,0,-0.7084104208078967,0,-0.4848162263271707,0,-2.356194490192345,1.5707963267948966,-0.1043250635266304,-0.856477677822113,0.6801763772964478
0.29134266752670795,-0.11036391361287023,0,-0.7218586889013385,0,-0.6629788364229873,0,-0.352611387968344,0,-2.356194490192345,1.5707963267948966,-0.14485928416252136,-0.8893160820007324,0.6839408874511719
0.23953494076018395,-0.3514772680411845,0,1.354549279541752,0,-1.0310810239952184,0,-0.1624595887371021,0,-2.356194490192345,1.5707963267948966,-0.26448240876197815,-0.899237871170044,0.6969445943832397
0.19172570471571165,-0.10780763650751202,0,-1.315884444038912,0,-0.9215577303464637,0,-1.1658163058013886,0,-2.356194490192345,1.5707963267948966,-0.293237566947937,-0.8988866806030273,0.6974644064903259
0.11305803228978817,-0.705611474755313,0,-0.6776181685841783,0,-1.1611856217883316,0,0.06714849648650145,0,-2.356194490192345,1.5707963267948966,-0.3102464973926544,-0.9219990968704224,0.6768581867218018
0.20861217186184172,0.589164589571312,0,-0.11113363546871802,0,-0.03759262053690815,0,-0.27933312589138737,0,-2.356194490192345,1.5707963267948966,-0.31801581382751465,-0.9157091379165649,0.6577367782592773
0.2040094181553142,-0.5141947462909078,0,1.2075190896947254,0,-0.39585396447071186,0,-1.0882499678952855,0,-2.356194490192345,1.5707963267948966,-0.33232757449150085,-0.8699511289596558,0.6728022694587708
-0.19956796431078846,0.4773524662555788,0,0.76231358901433,0,-0.5836799864413902,0,-0.9777626843678571,0,-2.356194490192345,1.5707963267948966,-0.33966922760009766,-0.8382909893989563,0.6808872222900391
-0.14775258328162932,0.0421923229232547,0,0.9849094940761036,0,-0.18392660701139718,0,-0.8042840393120447,0,-2.356194490192345,1.5707963267948966,-0.3537909984588623,-0.8438881635665894,0.6691445112228394
0.014003421985098963,-0.4015930381950307,0,0.9392870306068657,0,-0.4883395401078897,0,-1.1442398430703358,0,-2.356194490192345,1.5707963267948966,-0.35539257526397705,-0.8620396256446838,0.6705406904220581
0.20498663941443823,0.13032055494824735,0,0.05338971522010727,0,-0.10066391181063317,0,-1.190933701207019,0,-2.356194490192345,1.5707963267948966,-0.34810593724250793,-0.8988301753997803,0.6670656800270081
0.09307803219181554,-0.4071277458505373,0,-0.438956301400494,0,-1.1046271804471575,0,-0.1201021759259906,0,-2.356194490192345,1.5707963267948966,-0.34761136770248413,-0.939841628074646,0.6531850695610046
0.28896007728933065,-0.24140427626520844,0,-0.6850579385800556,0,-0.5732148032976991,0,0.05514270077735883,0,-2.356194490192345,1.5707963267948966,-0.3407251536846161,-0.9456923007965088,0.6536903381347656
-0.25675070662484345,0.2647145091118879,0,0.08992587889764803,0,-1.1301223432223897,0,0.00908063494156175,0,-2.356194490192345,1.5707963267948966,-0.3406003713607788,-0.9162291884422302,0.6736446619033813
-0.2404040023702158,-0.23536891353214706,0,0.7404558392473497,0,-0.6202001275458757,0,-0.8692404600382557,0,-2.356194490192345,1.5707963267948966,-0.32832714915275574,-0.8696969151496887,0.6871209740638733
-0.039819532723078144,0.5828197129323596,0,-1.4190012580076297,0,-0.1317559969016049,0,-0.891386989653264,0,-2.356194490192345,1.5707963267948966,-0.30669310688972473,-0.855890691280365,0.6669154167175293
-0.11766936260127603,0.5726085759264856,0,0.6722401964252391,0,-0.7998082332263494,0,-0.588393357315602,0,-2.356194490192345,1.5707963267948966,-0.28828710317611694,-0.8624449968338013,0.6526553630828857
0.19694640408473923,-0.2204857199409339,0,-0.48623223673579963,0,-0.6769431248136402,0,-0.2860165723692417,0,-2.356194490192345,1.5707963267948966,-0.1572539508342743,-0.8597021698951721,0.6528558731079102
-0.26800498640843323,-0.6337138769918541,0,-1.1086344092128955,0,-0.0014187794261768527,0,-0.4690420268674841,0,-2.356194490192345,1.5707963267948966,-0.1159994825720787,-0.8765650987625122,0.6822184920310974
0.023152561555261242,-0.4983170746690926,0,0.495937744574793,0,-0.9016288401103958,0,-0.9478632919930343,0,-2.356194490192345,1.5707963267948966,-0.08939745277166367,-0.8804453611373901,0.6946538090705872
0.23490065423783085,-0.09586562876039584,0,1.125504645378307,0,-0.9727552184004288,0,0.0004987959875994985,0,-2.356194490192345,1.5707963267948966,-0.07766750454902649,-0.8897145986557007,0.6809002757072449
-0.11215543238449793,-0.2968894432329,0,-0.8515678958245105,0,-0.5524357355035444,0,-0.6318544336816561,0,-2.356194490192345,1.5707963267948966,-0.07868842035531998,-0.89508056640625,0.669838011264801
-0.24378122181959316,-0.3493342925627719,0,0.5557372497971924,0,-1.033696275698618,0,-0.18446566708420997,0,-2.356194490192345,1.5707963267948966,-0.08480670303106308,-0.9012057185173035,0.679330050945282
-0.0053167113093244844,0.44405118080820216,0,-0.22809285915931854,0,-0.5016104712184601,0,-1.1535858139985877,0,-2.356194490192345,1.5707963267948966,-0.10446785390377045,-0.9075263738632202,0.6715255975723267
-0.24024683423190504,-0.1287771753840724,0,0.11276683653528896,0,-0.18757187601636272,0,-0.9382514182086459,0,-2.356194490192345,1.5707963267948966,-0.13346047699451447,-0.9311702847480774,0.656938374042511
0.0027337646686476647,-0.2567329361778292,0,0.35578496621934286,0,-1.1062733268846072,0,-0.9773800533000143,0,-2.356194490192345,1.5707963267948966,-0.14952103793621063,-0.9480018615722656,0.6477436423301697
0.007877255854835619,-0.6405771043397325,0,-1.0925244040192175,0,-0.13487149777256424,0,-0.9217809156952936,0,-2.356194490192345,1.5707963267948966,-0.09534961730241776,-0.8324379920959473,0.6379656195640564
0.28814071628852517,0.5160277948725522,0,0.9613781737687441,0,-1.1742706867134667,0,-0.22671206100965036,0,-2.356194490192345,1.5707963267948966,-0.10442725569009781,-0.7889306545257568,0.6377843618392944
-0.24921352561642712,0.4316948795423785,0,1.01547158296518,0,-0.15290610991373166,0,-0.03838854100083511,0,-2.356194490192345,1.5707963267948966,0.23991407454013824,-0.6794679760932922,0.6449248194694519
0.23787745861261717,-0.2591704978954298,0,0.42628315031627584,0,-0.09588513173070812,0,-1.1679311855656938,0,-2.356194490192345,1.5707963267948966,0.2656821608543396,-0.7569399476051331,0.7186950445175171
-0.11945924221517659,-0.5503941028825861,0,0.2294743317803447,0,-1.1952826312984706,0,-0.5003644023346795,0,-2.356194490192345,1.5707963267948966,0.06932499259710312,-1.0468815565109253,0.6778559684753418
0.01849716665984885,-0.04498037887384265,0,-0.3908973262601041,0,-0.9576869265289429,0,-0.4551836794555526,0,-2.356194490192345,1.5707963267948966,0.038657333701848984,-0.8253624439239502,0.6844936609268188
-0.023571332563057157,-0.6413009458181824,0,0.6807679430592679,0,0.05537713674454858,0,0.10237839100873236,0,-2.356194490192345,1.5707963267948966,-0.1903664767742157,-0.9371560215950012,0.6874357461929321
0.2573948045189091,0.46101089902281767,0,-1.06428648082712,0,0.1389746699820742,0,-0.6381170833098635,0,-2.356194490192345,1.5707963267948966,-0.2146383821964264,-0.9129229784011841,0.7068037986755371
-0.1795715818277378,-0.2031551350778973,0,1.5414600875560622,0,0.0006861069443380163,0,-0.8014448222537188,0,-2.356194490192345,1.5707963267948966,-0.27457520365715027,-0.8631993532180786,0.7246220111846924
0.26538567570880217,0.1645609198026433,0,-0.915553078126286,0,-0.0016457872345767566,0,-0.13206663558627452,0,-2.356194490192345,1.5707963267948966,-0.29794633388519287,-0.8275322318077087,0.6988798379898071
0.1863431235680279,-0.5578479909497075,0,-1.558187231632812,0,-0.31790778305152123,0,-1.0466909406145644,0,-2.356194490192345,1.5707963267948966,-0.30781134963035583,-0.7938031554222107,0.6919536590576172
-0.10571057621990787,-0.2628754650817301,0,1.0583787908067066,0,-0.3093377060637649,0,-0.37145062945754037,0,-2.356194490192345,1.5707963267948966,-0.30788519978523254,-0.7500880360603333,0.6563357710838318
-0.2871932597527354,-0.21143265537508538,0,-0.6784583954663398,0,-0.11905480411899161,0,-0.30651185097624956,0,-2.356194490192345,1.5707963267948966,0.4685249626636505,-0.7366783618927002,0.6530295610427856
-0.17243108032362947,-0.3418730912761008,0,1.192859875333622,0,-0.4833224824482656,0,-0.3294906565642115,0,-2.356194490192345,1.5707963267948966,0.4815253019332886,-0.7841262817382812,0.669708788394928
0.2173459591570684,0.2611386070438293,0,0.45370188732104566,0,-0.4710809526285856,0,-0.046593675443414195,0,-2.356194490192345,1.5707963267948966,0.4814603626728058,-0.8154230117797852,0.6789410710334778
0.1213689493545364,-0.33028483138482034,0,1.3016184697891027,0,0.023740965963008787,0,-0.42643826692006437,0,-2.356194490192345,1.5707963267948966,0.4671170711517334,-0.8613781929016113,0.6992504000663757
-0.28531623030625763,-0.5156599653339435,0,0.06367535533429214,0,-0.11123157567517938,0,-0.5984138894649921,0,-2.356194490192345,1.5707963267948966,-0.030804557725787163,-1.0041824579238892,0.6822572350502014
0.19150533977011203,0.02283168366130983,0,1.3876383164184047,0,-0.917535064732792,0,-0.24079877211825695,0,-2.356194490192345,1.5707963267948966,-0.03988111764192581,-0.9516223073005676,0.6709299683570862
-0.1958385656057739,-0.6325739870118646,0,0.2633867859697703,0,-0.7197972550634198,0,-0.8736952008818459,0,-2.356194490192345,1.5707963267948966,-0.05826089158654213,-0.9113118052482605,0.6769248843193054
-0.0804303669884168,0.5694169628699188,0,1.0677415900456095,0,-0.5203166851009317,0,-0.5415830867017707,0,-2.356194490192345,1.5707963267948966,-0.06988221406936646,-0.8938617706298828,0.6675277352333069
0.27494963565780556,-0.7274036390298605,0,0.34806071623837354,0,-0.693615455921431,0,-0.9972822738125582,0,-2.356194490192345,1.5707963267948966,-0.08822537213563919,-0.8822259902954102,0.6570647358894348
0.1382407328821627,0.424018833386518,0,-1.0203359979682682,0,-0.8001922412107185,0,-0.1157250744369882,0,-2.356194490192345,1.5707963267948966,-0.09972550719976425,-0.8824917674064636,0.6512697339057922
0.07007672582969648,-0.15927140492209246,0,0.4049755193309761,0,-0.06784114993544033,0,-0.6597373446018249,0,-2.356194490192345,1.5707963267948966,-0.11808378249406815,-0.8573728799819946,0.6431173086166382
0.11103397558919542,0.46139051672412257,0,-0.902209147640376,0,0.04756523091360454,0,-0.3231648856260968,0,-2.356194490192345,1.5707963267948966,-0.12642565369606018,-0.8098255395889282,0.6477866172790527
0.21764926462330797,-0.2335598919669052,0,-1.0333236636623013,0,-1.1041121917593961,0,0.1405240479728882,0,-2.356194490192345,1.5707963267948966,-0.13031084835529327,-0.7699002027511597,0.6667472124099731
-0.20205375382816257,0.18035237069056342,0,-0.9952671888183282,0,-0.8728648177223595,0,-0.08262859978494141,0,-2.356194490192345,1.5707963267948966,-0.126099094748497,-0.7048786878585815,0.6617864966392517
0.11663205121285253,-0.7144969169448067,0,0.16538214255876227,0,-1.0764206022181182,0,-0.14075201572210583,0,-2.356194490192345,1.5707963267948966,-0.12862302362918854,-0.6307128667831421,0.6193291544914246
0.2081355631335869,-0.02460706472950347,0,-0.4645270486267443,0,-0.4596786796197905,0,-0.07383093173988708,0,-2.356194490192345,1.5707963267948966,0.1394306719303131,-0.6923858523368835,0.6426221132278442
-0.16746891004472517,-0.28880890013616445,0,0.04147930034852787,0,-0.6131785953200357,0,-1.0480994178977832,0,-2.356194490192345,1.5707963267948966,0.14571531116962433,-0.7515860795974731,0.6918562054634094
-0.1611496725901039,0.5804430151354003,0,-0.0203081391540354,0,-0.855718867534426,0,-0.1332646438416949,0,-2.356194490192345,1.5707963267948966,0.1360592544078827,-0.8141419887542725,0.7030077576637268
0.29194018149465034,-0.30143381007481324,0,-0.1710455037681471,0,0.03794283784261743,0,-0.1999058627481307,0,-2.356194490192345,1.5707963267948966,0.11696317046880722,-0.8610202074050903,0.68614262342453
0.08085999455213594,0.3689901684223762,0,-1.1528046142692259,0,-0.796375166312272,0,-0.18019126190460133,0,-2.356194490192345,1.5707963267948966,0.10467872768640518,-0.8731733560562134,0.6913301944732666
0.2578275411533531,-0.278249204478322,0,1.1023538605748908,0,-1.1348193610919417,0,-0.5482306440017874,0,-2.356194490192345,1.5707963267948966,0.0856713205575943,-0.8770006895065308,0.6992219686508179
-0.21460011615518093,-0.39569912761511206,0,-0.06781614486686882,0,-0.03338561129467266,0,0.10350586223804314,0,-2.356194490192345,1.5707963267948966,0.07346172630786896,-0.8832449316978455,0.6780343055725098
0.2827444597685355,-0.2966203001542651,0,-0.6757875572985595,0,-1.1958108175122115,0,-0.5697206916523304,0,-2.356194490192345,1.5707963267948966,0.04946829006075859,-0.8826249241828918,0.6948111653327942
-0.29553971106604143,0.30258755874381804,0,0.25577242839633185,0,-0.16804329449063538,0,-0.47507872906761295,0,-2.356194490192345,1.5707963267948966,0.010884490795433521,-0.878929853439331,0.7128090262413025
0.049618308411031986,0.2539221432977059,0,1.3097107837517896,0,-0.14659823267154382,0,-0.9491845825092786,0,-2.356194490192345,1.5707963267948966,-0.037076156586408615,-0.8824294805526733,0.6903475522994995
0.22580502000567299,-0.39577104615707237,0,-1.310704498804868,0,-0.174132885507853,0,-0.13879931614475005,0,-2.356194490192345,1.5707963267948966,-0.07308733463287354,-0.9019573926925659,0.702183723449707
-0.11159930331193912,-0.7225131777173754,0,0.2157821735680432,0,-0.6943180410666839,0,-0.790095012994765,0,-2.356194490192345,1.5707963267948966,-0.17465710639953613,-0.8992493152618408,0.7168518304824829
-0.08063335485336476,0.33247533146973507,0,0.3582110883782519,0,0.10974157235274706,0,-0.5205285039219959,0,-2.356194490192345,1.5707963267948966,-0.19995659589767456,-0.8924242258071899,0.6706241965293884
-0.1798762329628632,0.2039719301447518,0,1.521529197979385,0,-0.655557665449092,0,-0.34587967894756455,0,-2.356194490192345,1.5707963267948966,-0.23487617075443268,-0.8882806301116943,0.6633253693580627
0.25217148806051787,0.2121748879518679,0,-0.4887460039821627,0,-0.44711443092781955,0,-0.7303382770981206,0,-2.356194490192345,1.5707963267948966,-0.25712770223617554,-0.8926898837089539,0.6810370683670044
-0.23597258394711793,-0.4861039535030163,0,0.6698575547915682,0,-0.1960871150123218,0,-0.25070773169646354,0,-2.356194490192345,1.5707963267948966,-0.2647019922733307,-0.917962372303009,0.6873497366905212
-0.14673358316640486,0.142186963604076,0,-1.158654932595514,0,-0.5719128640063288,0,-0.34209084605440565,0,-2.356194490192345,1.5707963267948966,-0.26316937804222107,-0.9266889095306396,0.7000105977058411
0.21391946197467354,-0.08588294287692533,0,-0.31357109946157813,0,0.12785823588241363,0,0.0617037009162309,0,-2.356194490192345,1.5707963267948966,-0.2682842016220093,-0.9452397227287292,0.7152194380760193
0.0858824152414559,-0.2941260569632226,0,1.0087919461490258,0,-0.08554665319931765,0,-0.2441123351394373,0,-2.356194490192345,1.5707963267948966,-0.11554951965808868,-0.9988397359848022,0.7049543261528015
-0.2625979980865443,0.13816393549202244,0,0.39537494224752634,0,0.07644224975321445,0,-0.7580719556377452,0,-2.356194490192345,1.5707963267948966,-0.11849867552518845,-0.9284651279449463,0.7095566391944885
-0.2589135071653997,-0.3391361338700078,0,0.10613254888602253,0,-1.1903089445886608,0,-0.8643220014985671,0,-2.356194490192345,1.5707963267948966,-0.13129457831382751,-0.8821208477020264,0.7235957980155945
0.18165044314071038,-0.020161929607057316,0,1.3037106138301127,0,0.003640796490681275,0,-1.0663969460489189,0,-2.356194490192345,1.5707963267948966,-0.13774073123931885,-0.8641133308410645,0.7134801745414734
0.2463397526537468,0.44384960849557475,0,0.9357819422934073,0,0.14367181242583693,0,0.12681684831327256,0,-2.356194490192345,1.5707963267948966,-0.1501913219690323,-0.8499282598495483,0.6759563684463501
-0.1484391984795024,0.2747241541554999,0,-1.4357605539221734,0,0.020854420197741197,0,-0.4597824968129576,0,-2.356194490192345,1.5707963267948966,-0.15039724111557007,-0.8192628622055054,0.700660765171051
-0.15666541076876608,-0.06482518539273807,0,-1.0541977832315743,0,-0.9190014609301009,0,-0.6322425413725645,0,-2.356194490192345,1.5707963267948966,-0.10877104848623276,-0.7821078896522522,0.7154537439346313
-0.038746366973968716,0.6611313657086608,0,-0.36950067013079413,0,-1.1744896439630397,0,-0.21039616988641996,0,-2.356194490192345,1.5707963267948966,-0.0710304006934166,-0.7600771188735962,0.6635250449180603
-0.029366275880264636,0.17248537728299862,0,-0.4727880992240552,0,-0.00905117758230789,0,-0.29868386205746567,0,-2.356194490192345,1.5707963267948966,0.18271392583847046,-0.6013730764389038,0.6424189805984497
0.007525780173782304,0.14962337892851507,0,0.9371003045769832,0,-1.1123222461426112,0,0.06152865568024435,0,-2.356194490192345,1.5707963267948966,0.1973334401845932,-0.597122311592102,0.6488943696022034
-0.14633524211918533,0.1812159371481208,0,0.8239824259139885,0,-1.0425713120473503,0,-0.9449583097244496,0,-2.356194490192345,1.5707963267948966,0.20006787776947021,-0.5967931747436523,0.6444571018218994
0.2447244876710794,0.6569610196732147,0,0.6833732979570648,0,0.014499482973884925,0,-0.5837724800682025,0,-2.356194490192345,1.5707963267948966,0.19489257037639618,-0.6402365565299988,0.6334656476974487
-0.17142227346581798,0.28562450024046715,0,1.2958289746111151,0,-0.40775376697096477,0,-0.013679721455943428,0,-2.356194490192345,1.5707963267948966,0.19324001669883728,-0.7041027545928955,0.6399432420730591
-0.1605155995704798,0.616730310652442,0,0.1770512988945545,0,-1.0304502318866373,0,-0.9719204758948503,0,-2.356194490192345,1.5707963267948966,0.20477786660194397,-0.7520179152488708,0.6965280175209045
-0.25342777994211324,-0.040380830551683844,0,-1.4705289696563872,0,-0.8997504751248553,0,-1.0708440805180504,0,-2.356194490192345,1.5707963267948966,-0.2882436513900757,-1.0167996883392334,0.6912963390350342
0.12255709412971005,0.4686378640746176,0,0.5503813122362669,0,-0.19190020230588378,0,0.08184958260670272,0,-2.356194490192345,1.5707963267948966,-0.29609939455986023,-0.953982412815094,0.6575475335121155
0.19085856648345,-0.011807261293387938,0,-1.3926957965859001,0,-0.9184909575075166,0,-0.03731468550084771,0,-2.356194490192345,1.5707963267948966,0.35449644923210144,-0.5411200523376465,0.6381806135177612
0.20694668499332985,0.6354485724047962,0,-0.5986122220480689,0,-0.576301540335647,0,-0.1456285886914641,0,-2.356194490192345,1.5707963267948966,0.36280691623687744,-0.5815538167953491,0.6285442113876343
0.1027088051873783,-0.526970561384968,0,-1.425600213733916,0,-0.021874569345646355,0,-0.7934827619126665,0,-2.356194490192345,1.5707963267948966,0.361842542886734,-0.5831459760665894,0.6179429888725281
0.07708975689272557,0.560762453946676,0,0.7469180589540483,0,-0.4350279182232907,0,-0.7224363830886453,0,-2.356194490192345,1.5707963267948966,0.02924959547817707,-0.8085311055183411,0.6722531914710999
0.09034831810279614,0.1623613706872138,0,-1.0310439210718623,0,-0.40811686040131767,0,-0.7502451644554166,0,-2.356194490192345,1.5707963267948966,-0.006532871630042791,-0.8721569776535034,0.7016174793243408
-0.18463906835592164,-0.3521762707617471,0,-0.17686025671555172,0,-0.46907467227398547,0,-0.9848353211715554,0,-2.356194490192345,1.5707963267948966,-0.029996508732438087,-0.9277087450027466,0.7048892974853516
0.03919820764460791,0.6740395156359495,0,1.3697980214534349,0,-0.1482149885150137,0,-0.3717938340630934,0,-2.356194490192345,1.5707963267948966,-0.04376038536429405,-0.9667553901672363,0.6945817470550537
0.03996223758686185,-0.34442344079333354,0,-0.09282397973206868,0,-0.12408726367676359,0,-0.8884640507038553,0,-2.356194490192345,1.5707963267948966,-0.06340436637401581,-0.9867664575576782,0.6962931752204895
0.2605930303119372,0.6981218090625185,0,0.9981257707547977,0,-0.8221533085755739,0,-0.028914338400077177,0,-2.356194490192345,1.5707963267948966,-0.0766313299536705,-1.0109760761260986,0.7088252902030945
0.08482706385370531,0.7717557912189061,0,0.7602778423446579,0,-0.12267176786534906,0,-0.8009176758163363,0,-2.356194490192345,1.5707963267948966,-0.04388110339641571,-1.0577775239944458,0.7079417705535889
-0.007527098272285537,0.5098046149616742,0,-0.5058281316073501,0,-0.8200188608452699,0,0.1120701677959346,0,-2.356194490192345,1.5707963267948966,-0.04143969714641571,-1.0178723335266113,0.7030766606330872
0.12068006682151194,-0.7515603981090854,0,0.4351311309730268,0,-0.8447833855962862,0,-0.8540550817135002,0,-2.356194490192345,1.5707963267948966,-0.02758558839559555,-0.9821699857711792,0.7095459699630737
0.09271260302594031,0.08098636516929114,0,0.7418706602390239,0,-0.6600986826358998,0,0.11638066091114108,0,-2.356194490192345,1.5707963267948966,-0.0043606627732515335,-0.938784658908844,0.6953995823860168
-0.2703454957850188,0.15542674440111826,0,-1.4492152990332834,0,-0.08516524538137737,0,-0.3671668415205982,0,-2.356194490192345,1.5707963267948966,0.01090623252093792,-0.9035364985466003,0.6857828497886658
0.2755612939428382,0.4995941417459495,0,0.8195333641995988,0,-0.9285657376694277,0,-0.6033636335182468,0,-2.356194490192345,1.5707963267948966,0.027955975383520126,-0.8698135018348694,0.7047157883644104
0.2675766883871222,0.09439678453680078,0,1.2041652497783568,0,-0.3238885571340263,0,-0.5402122694995899,0,-2.356194490192345,1.5707963267948966,0.05473565682768822,-0.845883846282959,0.6886481046676636
0.05988985987187612,-0.2366961486674095,0,0.8880237735878893,0,-1.1123559585235883,0,-0.8759185820421235,0,-2.356194490192345,1.5707963267948966,0.09054669737815857,-0.8396615386009216,0.6875990629196167
0.08474890685913555,-0.6189675272719394,0,-1.2345068553173135,0,-0.46207597998262606,0,0.143496048327451,0,-2.356194490192345,1.5707963267948966,0.11403189599514008,-0.8496798276901245,0.684575617313385
0.21877241106697048,0.2902749992730651,0,-1.3492217487978895,0,-1.0972191999071816,0,-0.7764920777427193,0,-2.356194490192345,1.5707963267948966,0.12240774929523468,-0.8463785648345947,0.6845198273658752
-0.2409481788219783,-0.15089321306342662,0,-1.341005195088162,0,-0.3117971345220777,0,-0.05886685398672897,0,-2.356194490192345,1.5707963267948966,0.12148172408342361,-0.8182065486907959,0.6900014877319336
-0.08621795303325039,-0.1749827886001898,0,0.898445591653438,0,-0.01716967432045613,0,-0.5396379253165816,0,-2.356194490192345,1.5707963267948966,0.12694981694221497,-0.774543821811676,0.669844388961792
-0.2332216951891829,-0.22722362238168337,0,-1.303332505303522,0,0.1296677768218546,0,-0.10870000922047796,0,-2.356194490192345,1.5707963267948966,0.12042628228664398,-0.7120891809463501,0.6551803946495056
-0.2930182769589323,-0.17660143237534576,0,-1.3381923164603533,0,0.01886403315812224,0,-1.0751018687276868,0,-2.356194490192345,1.5707963267948966,0.1010296493768692,-0.6599581241607666,0.6393212676048279
-0.26869611854734915,-0.08822760006027452,0,1.1072382616337677,0,-0.8032349024048463,0,-0.06119163313369613,0,-2.356194490192345,1.5707963267948966,-0.07489653676748276,-0.5363261699676514,0.6606419086456299
-0.21447943228409647,0.07953319071235099,0,0.6575573833277293,0,-0.6764744578560014,0,-0.7459975154477027,0,-2.356194490192345,1.5707963267948966,-0.09248155355453491,-0.5932171940803528,0.6959021091461182
-0.22787890024603058,-0.5527467345616275,0,-0.11143441392757203,0,-0.27748828595382213,0,-1.00284903721253,0,-2.356194490192345,1.5707963267948966,-0.09732312709093094,-0.66336989402771,0.7123503088951111
-0.20983846581563625,-0.31269838089775404,0,-0.43679487090936764,0,-0.16100623605917996,0,-0.4702119744586246,0,-2.356194490192345,1.5707963267948966,-0.09237637370824814,-0.7315107583999634,0.7011477947235107
0.05918588579024142,-0.21720050856116246,0,0.740896287715517,0,-0.23960828844636828,0,-1.0181967571063553,0,-2.356194490192345,1.5707963267948966,-0.09888672083616257,-0.7730570435523987,0.693110466003418
-0.2238097811962909,-0.7135793035817484,0,1.1614028010446602,0,-0.04961091900280801,0,0.1008107595311134,0,-2.356194490192345,1.5707963267948966,-0.11807534098625183,-0.8032515645027161,0.6822622418403625
