gmarotta2107/reinforcementLearning/datasets/Low_position_dataset_test.csv
joint_0,joint_1,joint_2,joint_3,joint_4,joint_5,joint_6,joint_7,joint_8,joint_9,joint_10,paddle_x,paddle_y,paddle_z
-0.11811135986447999,0.5767648319035901,0,-0.499447716297297,0,0.6709737758172694,0,-1.1116973752889525,0,-1.0471975511965976,1.5707963267948966,0.13988959789276123,-0.5525465607643127,0.22012856602668762
0.05988625663982827,-0.6708845031738829,0,-0.9635534305134994,0,0.8894326784844069,0,-1.4940669381877478,0,-1.0471975511965976,1.5707963267948966,0.12284907698631287,-0.5268700122833252,0.2555640935897827
0.05546420665665186,0.46484924505229586,0,-0.11445459420269954,0,-1.286691529608985,0,-1.4735488118092444,0,-1.0471975511965976,1.5707963267948966,0.11733554303646088,-0.4763875901699066,0.32477787137031555
-0.17188796395283445,-0.4567892494274777,0,-0.43626484857647974,0,-0.059235429676442575,0,-1.872253605135635,0,-1.0471975511965976,1.5707963267948966,0.11422933638095856,-0.47651952505111694,0.29292529821395874
-0.19391931894850942,0.048555414503405614,0,0.7010345181376112,0,-1.0482570449511552,0,-1.309818961260099,0,-1.0471975511965976,1.5707963267948966,0.1137348935008049,-0.4907979965209961,0.2319076508283615
-0.2629346637014384,0.6594327071026309,0,-0.359575819343096,0,-1.1662556397890698,0,-1.2418101528195442,0,-1.0471975511965976,1.5707963267948966,0.10572356730699539,-0.5232502222061157,0.19197353720664978
0.12941828703560243,-0.24911576874748842,0,-0.5867323368105637,0,-1.4011768585896553,0,-1.1456515283963398,0,-1.0471975511965976,1.5707963267948966,-0.015116731636226177,-0.6864025592803955,0.20087338984012604
0.19535274636657074,-0.0880219399298412,0,-0.5439108871295182,0,0.8456792675865492,0,-1.1783395910004906,0,-1.0471975511965976,1.5707963267948966,-0.26185178756713867,-0.5383811593055725,0.23060031235218048
0.23951014298477963,0.07039772709939474,0,-0.21820660839666883,0,-1.3247615348197623,0,-1.5457619664183175,0,-1.0471975511965976,1.5707963267948966,-0.2677028179168701,-0.4625713527202606,0.2815518379211426
-0.11820481461528723,0.5468127316027658,0,-0.5852852597967314,0,-1.3745933380366566,0,-1.351362263331835,0,-1.0471975511965976,1.5707963267948966,-0.26323699951171875,-0.3943401873111725,0.3437243103981018
0.2273286652005005,0.2114939301583758,0,-0.4893342169164654,0,0.23020441746247267,0,-1.1194841112916134,0,-1.0471975511965976,1.5707963267948966,-0.24536019563674927,-0.40380966663360596,0.3133001923561096
-0.06427030004536313,-0.7432340002220589,0,-0.8386944303358288,0,-0.6230796967184676,0,-1.1207179675362846,0,-1.0471975511965976,1.5707963267948966,-0.21070772409439087,-0.40342339873313904,0.2602180540561676
-0.0066949060767341195,0.22373999800605504,0,0.6229591570377324,0,-0.06364751592130324,0,-1.3471939531945227,0,-1.0471975511965976,1.5707963267948966,-0.15784871578216553,-0.36035600304603577,0.24369801580905914
0.015068722115541111,0.5591734881250365,0,-0.3125478827327717,0,-0.2714439369583428,0,-1.5442111820538518,0,-1.0471975511965976,1.5707963267948966,-0.09944001585245132,-0.338659405708313,0.19155378639698029
0.08492901678619119,-0.5944773229148805,0,0.7579181893662559,0,0.03317649978626136,0,-1.7479298308209401,0,-1.0471975511965976,1.5707963267948966,-0.035215824842453,-0.3343747556209564,0.16715101897716522
-0.1703420317758791,-0.6492132562264876,0,0.616248691659897,0,-0.8764306189681076,0,-1.4499223748861143,0,-1.0471975511965976,1.5707963267948966,0.03665291145443916,-0.34576180577278137,0.16838163137435913
-0.21156006818003323,-0.7412836883609355,0,0.7496836389338053,0,0.09114333127865692,0,-1.3130995702197295,0,-1.0471975511965976,1.5707963267948966,0.10652889311313629,-0.3633764386177063,0.192743718624115
-0.23515474509618906,0.12006415743541976,0,-0.5140339392408833,0,0.2426532111449773,0,-1.813544800788388,0,-1.0471975511965976,1.5707963267948966,0.16058199107646942,-0.3713667690753937,0.24654816091060638
-0.08997247523262508,-0.21002751712649403,0,0.4298310612963334,0,-0.24903808928989268,0,-1.5272707478638368,0,-1.0471975511965976,1.5707963267948966,0.19677448272705078,-0.3897162079811096,0.31182217597961426
-0.14160041578424482,0.13277368853687488,0,0.17024904896106396,0,-1.051216887908313,0,-1.166224059759625,0,-1.0471975511965976,1.5707963267948966,0.21778683364391327,-0.4390004575252533,0.3342473804950714
0.2791874057752664,-0.44174498191974226,0,-0.08785252013326006,0,-0.27407172992665574,0,-1.1938548827616189,0,-1.0471975511965976,1.5707963267948966,0.2183673083782196,-0.5463659167289734,0.34944629669189453
-0.24288387856231886,-0.05541892209995891,0,0.04761244474858506,0,-0.7339410736792451,0,-1.5797310396990207,0,-1.0471975511965976,1.5707963267948966,0.20254001021385193,-0.5730186700820923,0.3426983058452606
-0.15491315597844038,-0.6171728521250135,0,0.3015229156268293,0,-0.982381049744139,0,-1.181101500725128,0,-1.0471975511965976,1.5707963267948966,0.08643756061792374,-0.631983757019043,0.32460325956344604
0.20096308094259246,0.308073444490214,0,-0.09786646715790348,0,-0.9480340638665625,0,-1.6028323456196656,0,-1.0471975511965976,1.5707963267948966,0.03577433153986931,-0.6895584464073181,0.30552324652671814
-0.048037030898736344,0.45366591304664605,0,-0.568191943102063,0,-0.4834896731456285,0,-1.4077104087460672,0,-1.0471975511965976,1.5707963267948966,-0.012468972243368626,-0.7211898565292358,0.2998865246772766
-0.14417892618746775,0.4478646317154875,0,-0.544477445947177,0,0.5676577377527681,0,-1.6860693264674664,0,-1.0471975511965976,1.5707963267948966,-0.05351381376385689,-0.7364895939826965,0.2727917432785034
0.042263276026108854,-0.7572898229045517,0,-1.0421070973505344,0,-0.46510670978665214,0,-1.5603767607296173,0,-1.0471975511965976,1.5707963267948966,-0.08011794835329056,-0.7200555205345154,0.25444453954696655
-0.032504268032913286,0.5756361238447316,0,-0.42953803238168686,0,-1.4275143454275843,0,-1.377896043702596,0,-1.0471975511965976,1.5707963267948966,-0.09405580908060074,-0.6883683204650879,0.2662692964076996
0.2284570669822809,-0.4831052985311491,0,-0.9084911363172219,0,-0.770455579206523,0,-1.7551156338655904,0,-1.0471975511965976,1.5707963267948966,-0.10639765113592148,-0.6784359216690063,0.225906640291214
0.06696715797039715,-0.31745983751927265,0,-0.7289951728484578,0,-0.8826132256100331,0,-1.4036805340428686,0,-1.0471975511965976,1.5707963267948966,-0.27254241704940796,-0.3275902271270752,0.14355386793613434
-0.2636185000919393,-0.20918460686391072,0,0.07048807005993107,0,-0.2831770320005651,0,-1.561858573837079,0,-1.0471975511965976,1.5707963267948966,0.220645010471344,-0.2517503798007965,0.152256041765213
-0.0044076034090262395,-0.22709001833208053,0,-0.6598484154245408,0,0.5924630796853305,0,-1.8954744047256114,0,-1.0471975511965976,1.5707963267948966,0.2750834822654724,-0.2670901119709015,0.21460813283920288
0.06173251885647274,0.033593853061300694,0,0.007809451816430002,0,-0.8299439099443314,0,-1.5142517278740384,0,-1.0471975511965976,1.5707963267948966,0.3233512043952942,-0.28765150904655457,0.26619482040405273
-0.21620608846034325,0.3885185134053437,0,0.6118890747454153,0,-1.2387821126109824,0,-1.6577588492565176,0,-1.0471975511965976,1.5707963267948966,0.3613695204257965,-0.32649117708206177,0.27709269523620605
-0.18895180616520696,-0.17616096020477678,0,-0.8179180276991174,0,-0.6047910414423889,0,-1.5271133603911013,0,-1.0471975511965976,1.5707963267948966,0.3841311037540436,-0.3927820026874542,0.27138984203338623
0.17124731967372347,0.45017384277089234,0,-0.923919079325486,0,0.45383602682231605,0,-1.589207623117621,0,-1.0471975511965976,1.5707963267948966,0.3935515284538269,-0.46044793725013733,0.2729175090789795
0.05662301425122046,-0.5444091861965035,0,0.11818676333564437,0,-0.08659305179090904,0,-1.6140154786441199,0,-1.0471975511965976,1.5707963267948966,0.39438319206237793,-0.49622446298599243,0.2570602297782898
-0.1044235502464565,0.6085899587325816,0,0.6517793296243577,0,0.19563292234643792,0,-1.1969744393163382,0,-1.0471975511965976,1.5707963267948966,0.3951287567615509,-0.5114873647689819,0.2543812096118927
0.02671571403177475,0.29030473099447773,0,0.23944622372677316,0,-0.9191553625940647,0,-1.823045908823104,0,-1.0471975511965976,1.5707963267948966,0.3933532238006592,-0.5040559768676758,0.3001047372817993
-0.1534772018282463,-0.5571348251674035,0,-0.5527933950975801,0,-0.006892919859254665,0,-1.1767749410528303,0,-1.0471975511965976,1.5707963267948966,0.3919048309326172,-0.5179052352905273,0.352483868598938
-0.16111272192712806,-0.5050709068975341,0,0.5958012965100838,0,-1.29300518450086,0,-1.4120817790004099,0,-1.0471975511965976,1.5707963267948966,0.39126497507095337,-0.5469601154327393,0.3572719693183899
-0.2346754958124584,0.6968983141874652,0,0.5426545984625981,0,0.883217373350939,0,-1.7929012908362312,0,-1.0471975511965976,1.5707963267948966,0.38239017128944397,-0.5611237287521362,0.3495582342147827
-0.2007649331506348,0.40323430396888527,0,0.031381317820437626,0,0.8674510320305255,0,-1.5272891362359193,0,-1.0471975511965976,1.5707963267948966,0.35659903287887573,-0.6082267165184021,0.35477814078330994
-0.10807836401368978,0.13626967623016895,0,-0.8216213689443823,0,-0.42719211642019217,0,-1.702680730545556,0,-1.0471975511965976,1.5707963267948966,0.29037418961524963,-0.8397310972213745,0.3576827049255371
-0.000436059880154438,-0.0280422849589399,0,-0.9806771097098169,0,-0.35814900527421645,0,-1.479394411129559,0,-1.0471975511965976,1.5707963267948966,0.2727208137512207,-0.8355438709259033,0.2875155508518219
0.06326218263411987,-0.542839782202703,0,-0.7823647007334718,0,0.6563237939967206,0,-1.1321544474291245,0,-1.0471975511965976,1.5707963267948966,-0.20207728445529938,-0.2899513840675354,0.24807530641555786
-0.23733561869824382,0.5442720315159983,0,-0.6255887116618736,0,-0.6250473297826373,0,-1.2605446545854835,0,-1.0471975511965976,1.5707963267948966,-0.24382220208644867,-0.26882410049438477,0.3124919831752777
0.2832838454398157,0.5550270996909838,0,-0.03080934200877805,0,0.19913058559255936,0,-1.4964587394512086,0,-1.0471975511965976,1.5707963267948966,-0.3284947872161865,-0.2593351900577545,0.30543434619903564
0.13335262695375122,0.7250569099449904,0,-0.2699524405785457,0,0.2848666049379549,0,-1.4452300215244172,0,-1.0471975511965976,1.5707963267948966,-0.36129534244537354,-0.2676672041416168,0.2557157874107361
-0.04408246099631513,-0.7647048453273713,0,0.3465248410653454,0,0.47449556651742886,0,-1.4853463097580124,0,-1.0471975511965976,1.5707963267948966,-0.3794325292110443,-0.2536417841911316,0.25887149572372437
-0.0140982455798484,-0.6533092364828694,0,0.2365953974868895,0,-0.7256565759516242,0,-1.3852914020448202,0,-1.0471975511965976,1.5707963267948966,-0.36541298031806946,-0.3022393584251404,0.3049054443836212
0.059030741044945656,0.4829176926405052,0,0.6941615160176107,0,-0.12117675750667578,0,-1.6416377841896113,0,-1.0471975511965976,1.5707963267948966,-0.3469467759132385,-0.3433628976345062,0.31784865260124207
-0.26535133584008946,-0.01965365016884779,0,0.14845051571087775,0,-0.7590321952159573,0,-1.8260783830231748,0,-1.0471975511965976,1.5707963267948966,-0.26846930384635925,-0.5835475325584412,0.36848026514053345
0.06221071361464864,0.33144357258733415,0,-0.06402843375459844,0,-0.9990390508605289,0,-1.436596430679283,0,-1.0471975511965976,1.5707963267948966,-0.27541112899780273,-0.6440920233726501,0.37325313687324524
-0.24755359214252787,-0.591009372175747,0,0.6483061739670826,0,0.4049167451411757,0,-1.6631467361275776,0,-1.0471975511965976,1.5707963267948966,-0.27996429800987244,-0.714154839515686,0.33751624822616577
-0.21437081881751283,0.4680058856278584,0,0.6406635988338125,0,0.48804211841783696,0,-1.5808215737993447,0,-1.0471975511965976,1.5707963267948966,-0.27319538593292236,-0.758295476436615,0.31173422932624817
0.1427104752535664,0.3901970229924989,0,0.05987066567081234,0,-0.13186795992570155,0,-1.5971899522106692,0,-1.0471975511965976,1.5707963267948966,-0.26870667934417725,-0.7622568607330322,0.36159664392471313
-0.137835926271998,-0.7198966108256537,0,-0.6483581223491319,0,0.7197869493805802,0,-1.3025135163392663,0,-1.0471975511965976,1.5707963267948966,0.11104117333889008,-0.7092276811599731,0.3716462552547455
0.2355301617978804,0.36015429110768715,0,-0.19095238717062823,0,-1.2272732134420787,0,-1.8958005007737342,0,-1.0471975511965976,1.5707963267948966,0.16264428198337555,-0.6721869707107544,0.32161399722099304
0.033218604903024807,-0.004262568314029602,0,0.6724729821920701,0,-0.33122068996321596,0,-1.270823598562747,0,-1.0471975511965976,1.5707963267948966,0.20333486795425415,-0.6211457252502441,0.30754587054252625
-0.2805785977860949,0.285508274081143,0,-0.974260548558212,0,-0.30808618060577975,0,-1.183665156728355,0,-1.0471975511965976,1.5707963267948966,0.2373383492231369,-0.6089001297950745,0.25350669026374817
0.05869497381430616,-0.19624522204470218,0,-0.795495329202353,0,-0.6175036590410153,0,-1.7629321888428795,0,-1.0471975511965976,1.5707963267948966,0.2621285021305084,-0.548262894153595,0.23776938021183014
-0.09645217066510356,-0.496470066362717,0,-1.1559013463722536,0,0.31900831648700234,0,-1.5823463606828119,0,-1.0471975511965976,1.5707963267948966,0.24863919615745544,-0.34693941473960876,0.11379678547382355
-0.1773421850517286,-0.7360671968542425,0,0.7517363660600949,0,-0.7585109882245281,0,-1.4876716041791893,0,-1.0471975511965976,1.5707963267948966,0.23282043635845184,-0.31565770506858826,0.116173654794693
-0.014922462737372855,0.4201061354799249,0,-0.3576717704580409,0,-0.9703937221157242,0,-1.31729262084054,0,-1.0471975511965976,1.5707963267948966,-0.02268890291452408,-0.34013113379478455,0.22473949193954468
0.2298383191789693,-0.14366952027276825,0,0.48840239999054513,0,-0.6505862606770931,0,-1.8362366313254932,0,-1.0471975511965976,1.5707963267948966,-0.053337857127189636,-0.3463025689125061,0.25578776001930237
0.04197151235272989,-0.36490639662484325,0,0.7906446577119581,0,0.1025953574980012,0,-1.2452864952182403,0,-1.0471975511965976,1.5707963267948966,-0.07774094492197037,-0.37672537565231323,0.252271831035614
-0.03837662166694311,-0.05064197743698995,0,-0.3244164053165757,0,0.4920063446086782,0,-1.8842450271978621,0,-1.0471975511965976,1.5707963267948966,-0.09696295112371445,-0.39087340235710144,0.28632888197898865
0.24669903728812353,0.18720390289090827,0,-0.6563415816375427,0,0.4239841504377939,0,-1.576144134658626,0,-1.0471975511965976,1.5707963267948966,-0.1204271912574768,-0.39212051033973694,0.3485775887966156
-0.051704758844870274,0.17860201318651325,0,-0.34870503056729574,0,-1.0460726310027355,0,-1.8709222193051118,0,-1.0471975511965976,1.5707963267948966,-0.1280176043510437,-0.5943218469619751,0.3755768835544586
-0.09377032214462824,-0.17575306544918978,0,-0.8274858343741192,0,0.7879131919072886,0,-1.8820874202733808,0,-1.0471975511965976,1.5707963267948966,-0.13590626418590546,-0.6074119806289673,0.29648175835609436
0.2203481813972507,-0.7894499550759335,0,0.8231834470331634,0,0.3986228310848148,0,-1.3136823997144895,0,-1.0471975511965976,1.5707963267948966,-0.15027904510498047,-0.5732158422470093,0.2220461517572403
0.25172913182053397,-0.7392261258094367,0,-0.33918646772222616,0,-0.629980655711496,0,-1.2290642813386699,0,-1.0471975511965976,1.5707963267948966,-0.16413787007331848,-0.5079249143600464,0.2462386190891266
0.019937312379634586,0.2654822753990964,0,-0.05874296793115574,0,-0.08211816396238425,0,-1.489633308254139,0,-1.0471975511965976,1.5707963267948966,-0.1873972862958908,-0.44978198409080505,0.2903762757778168
0.2006270772517253,0.5717676952628918,0,-0.8666023373096654,0,-0.8615404174278884,0,-1.3940242960276548,0,-1.0471975511965976,1.5707963267948966,-0.22356735169887543,-0.40577566623687744,0.31082844734191895
0.13399845966863239,-0.027155997801539322,0,-0.700478307094951,0,0.5088914706112178,0,-1.584278958900815,0,-1.0471975511965976,1.5707963267948966,-0.26861774921417236,-0.38507261872291565,0.3270585834980011
-0.0004576193088712266,-0.19167946334347996,0,0.2916959955692495,0,-0.7087186087479005,0,-1.6207473367934304,0,-1.0471975511965976,1.5707963267948966,-0.3049481511116028,-0.36149460077285767,0.3148959279060364
-0.286768559331103,-0.09632147504598654,0,-0.35600292716433424,0,0.6941501847301164,0,-1.1913350769358937,0,-1.0471975511965976,1.5707963267948966,-0.32884594798088074,-0.34587207436561584,0.3154436945915222
0.1081609562503727,0.044012102493023564,0,0.8719788837812039,0,-1.2813401308052583,0,-1.3017161460111346,0,-1.0471975511965976,1.5707963267948966,-0.3371254503726959,-0.3305013179779053,0.3427824378013611
-0.2877255645929822,0.2893794544205681,0,-0.2652936268873053,0,0.8032423419228116,0,-1.7801163986679536,0,-1.0471975511965976,1.5707963267948966,0.15703576803207397,-0.7494717240333557,0.36153867840766907
0.1470968913092564,-0.4423740050386359,0,-0.9573317580873677,0,-0.0049083708531660886,0,-1.4212257105219521,0,-1.0471975511965976,1.5707963267948966,0.1555987447500229,-0.6721068620681763,0.3713397681713104
-0.09298617166769532,0.6234523023383349,0,-0.8736852476610211,0,-0.15534614505917066,0,-1.6867346601336821,0,-1.0471975511965976,1.5707963267948966,0.15901975333690643,-0.6154228448867798,0.37440282106399536
-0.2175049707141944,-0.17042336388651314,0,0.5119483181246953,0,0.1934389403302521,0,-1.179863468090633,0,-1.0471975511965976,1.5707963267948966,0.16156837344169617,-0.5673322081565857,0.3274473249912262
-0.16553111618299457,0.7202124814863662,0,-1.1261382751998346,0,-0.6182967743036054,0,-1.2233155982048711,0,-1.0471975511965976,1.5707963267948966,0.16602347791194916,-0.5487563014030457,0.2586575150489807
0.2866430797836556,-0.3519469286748681,0,0.22074684214540063,0,-1.3357899065720191,0,-1.2116983076156307,0,-1.0471975511965976,1.5707963267948966,0.5928317308425903,-0.39399221539497375,0.17118915915489197
0.0723224136326745,0.5292474624930879,0,-1.0368334122591385,0,0.4241471452693606,0,-1.3759909091436129,0,-1.0471975511965976,1.5707963267948966,0.5851564407348633,-0.38497138023376465,0.24634303152561188
-0.16166720615335287,0.03564462247013522,0,0.8186243313742232,0,-0.023633586596890188,0,-1.8462642408080103,0,-1.0471975511965976,1.5707963267948966,0.5667808651924133,-0.3886973261833191,0.2855023145675659
0.27471542286325606,0.740927476772163,0,-0.22767326085822892,0,0.7552179006190747,0,-1.4250539363955146,0,-1.0471975511965976,1.5707963267948966,0.5407422184944153,-0.3872888684272766,0.31162911653518677
-0.05834087525219375,0.02103528111836428,0,-0.9514489300564356,0,-0.6924834087569063,0,-1.7736746918326856,0,-1.0471975511965976,1.5707963267948966,0.4217260181903839,-0.4403274357318878,0.3575478494167328
0.21046472535981703,-0.7887992469507437,0,0.2812847851307885,0,0.6154888778946519,0,-1.3078159882359908,0,-1.0471975511965976,1.5707963267948966,0.3938545286655426,-0.44177380204200745,0.29079774022102356
0.2695105241597148,-0.09364593397739962,0,0.30899270605901097,0,0.7759498248259462,0,-1.7182020696205549,0,-1.0471975511965976,1.5707963267948966,0.32627561688423157,-0.5474712252616882,0.2752401828765869
-0.16976422048675469,-0.005682569671139559,0,0.794532575505128,0,0.4330426244882226,0,-1.7480695282189203,0,-1.0471975511965976,1.5707963267948966,0.3374713361263275,-0.5791810154914856,0.3277261257171631
-0.29354171815305247,0.3430683095864755,0,-0.5128072412402124,0,-0.11918916641308375,0,-1.424752944687985,0,-1.0471975511965976,1.5707963267948966,-0.26939156651496887,-0.3915867805480957,0.22805921733379364
-0.11689099303816988,0.3624232890809451,0,-0.08532194172377827,0,-1.2313214176147291,0,-1.2664081996050351,0,-1.0471975511965976,1.5707963267948966,0.5643441677093506,-0.6565461158752441,0.23343802988529205
-0.13524995960932543,-0.31375070899132995,0,-0.5230847448962854,0,0.7250082779455906,0,-1.6248273609441428,0,-1.0471975511965976,1.5707963267948966,0.6056764721870422,-0.6907076239585876,0.24793270230293274
0.16956641858453192,0.29684093700357717,0,-1.0636519303559124,0,0.8450089716855393,0,-1.1645857441068361,0,-1.0471975511965976,1.5707963267948966,0.6328949332237244,-0.7016622424125671,0.2537740170955658
-0.22883748133967885,-0.007710404573264107,0,0.7328649483990872,0,0.4212120652049207,0,-1.2095754437545447,0,-1.0471975511965976,1.5707963267948966,0.6497284173965454,-0.6499212980270386,0.3147589862346649
0.11203892617321676,-0.3215227653425055,0,0.8965559252283681,0,-0.7937410637294604,0,-1.2710318650442458,0,-1.0471975511965976,1.5707963267948966,0.06152212992310524,-0.6321119666099548,0.32837408781051636
0.09764212602115807,-0.06530095646715783,0,-1.1178984564829746,0,0.5470411644458817,0,-1.1028303372780985,0,-1.0471975511965976,1.5707963267948966,0.078913614153862,-0.6328215003013611,0.2701066732406616
-0.20244809392681046,-0.7210832423383065,0,0.5389780329314735,0,-1.13158302183432,0,-1.5366697466152524,0,-1.0471975511965976,1.5707963267948966,0.09211079031229019,-0.5801404118537903,0.27970558404922485
-0.08830594284434143,-0.7349510601572171,0,0.6102522805807558,0,-0.8944936024365728,0,-1.791457432382518,0,-1.0471975511965976,1.5707963267948966,0.09434319287538528,-0.5130048394203186,0.28113868832588196
0.2660497276964881,-0.3538387261273476,0,-0.021498623159806662,0,0.13384848915024872,0,-1.7780750472384823,0,-1.0471975511965976,1.5707963267948966,0.07796801626682281,-0.5339160561561584,0.2670687735080719
0.21105423761076275,-0.254141094780711,0,0.7179659842082518,0,-0.021227794096058794,0,-1.6406342461523604,0,-1.0471975511965976,1.5707963267948966,0.04720120131969452,-0.5399333834648132,0.2941507399082184
-0.19656523530685138,-0.35145084228196133,0,0.03962326787738624,0,0.3084899495315039,0,-1.6069678395034368,0,-1.0471975511965976,1.5707963267948966,0.0036381862591952085,-0.5110783576965332,0.3495757281780243
-0.191561113854634,0.23594765083880453,0,0.3218697388385863,0,-0.7333607442712874,0,-1.7629783617338888,0,-1.0471975511965976,1.5707963267948966,-0.22924233973026276,-0.5875886082649231,0.26377347111701965
-0.029649878110813765,0.3891014259116097,0,0.8721218783997504,0,0.7022356200210906,0,-1.2208596360601276,0,-1.0471975511965976,1.5707963267948966,-0.1864105761051178,-0.5857862830162048,0.24295899271965027
-0.2834619239356241,-0.7134753560954197,0,0.2086025810993053,0,-1.2842842583873986,0,-1.8122978301469383,0,-1.0471975511965976,1.5707963267948966,-0.12300348281860352,-0.5915164947509766,0.2464582622051239
0.15045459210866302,-0.5535869929017263,0,0.659162715914642,0,-0.8656357554988248,0,-1.3860695673446959,0,-1.0471975511965976,1.5707963267948966,-0.045466821640729904,-0.5723807215690613,0.28074970841407776
-0.029741276327028165,-0.3367099170403922,0,-1.1159628448335595,0,0.008207717520744895,0,-1.8059117232201427,0,-1.0471975511965976,1.5707963267948966,0.03223315626382828,-0.6020004153251648,0.2699849605560303
0.08281700398870784,-0.7308294140165833,0,0.6063137936610408,0,0.311155270264625,0,-1.6708875549715045,0,-1.0471975511965976,1.5707963267948966,0.09177649766206741,-0.5999500751495361,0.29773789644241333
-0.2713481171295314,-0.3870392716900082,0,-0.6581064479060051,0,0.8214866709863899,0,-1.8760687730231973,0,-1.0471975511965976,1.5707963267948966,0.13517574965953827,-0.5813665986061096,0.32240933179855347
-0.11767545131239737,-0.43773734769826583,0,0.2165179966160331,0,0.6270118611604591,0,-1.4362323605120273,0,-1.0471975511965976,1.5707963267948966,0.16338154673576355,-0.5573828816413879,0.3673507273197174
-0.20716329599471825,0.4032118140253107,0,-1.1866572477039543,0,0.6785708419661545,0,-1.3581629535122044,0,-1.0471975511965976,1.5707963267948966,-0.01002512313425541,-0.4546450674533844,0.3424908518791199
0.15214035236213014,0.5525256073235416,0,-0.21999759699439647,0,0.40037643540200585,0,-1.3841512762849417,0,-1.0471975511965976,1.5707963267948966,-0.18128445744514465,-0.4588332176208496,0.28660908341407776
-0.02424561601726055,-0.7695830584639552,0,-0.39269850983974297,0,-0.9522515757530804,0,-1.5884139130460102,0,-1.0471975511965976,1.5707963267948966,-0.19209672510623932,-0.47845426201820374,0.26211613416671753
-0.04659962221684888,0.34068387059821537,0,-1.1970447311264603,0,0.5021233952473223,0,-1.2325695260923255,0,-1.0471975511965976,1.5707963267948966,-0.1926240622997284,-0.46395638585090637,0.2733258306980133
0.054885265995600285,-0.7885740958997026,0,-0.08157752847917177,0,-1.1411110651014207,0,-1.5569795727523907,0,-1.0471975511965976,1.5707963267948966,-0.19193466007709503,-0.4616346061229706,0.23570077121257782
0.10840092064238815,-0.1403736924325919,0,0.07283741229121143,0,0.8474873638854976,0,-1.4143609210095691,0,-1.0471975511965976,1.5707963267948966,-0.18819934129714966,-0.4554736316204071,0.20098988711833954
0.08819531074487119,-0.7483943118360625,0,-0.1504416741942325,0,0.2888431282159436,0,-1.142883873578887,0,-1.0471975511965976,1.5707963267948966,-0.18359315395355225,-0.47839564085006714,0.18147139251232147
0.1974261713646327,-0.473105709610034,0,0.7292264005966842,0,0.8566915687166585,0,-1.1822510654904081,0,-1.0471975511965976,1.5707963267948966,-0.18108750879764557,-0.42403629422187805,0.22800955176353455
-0.2114554573512496,-0.5496151541372156,0,-0.3349755693250037,0,-1.1284749741897593,0,-1.6632775176380987,0,-1.0471975511965976,1.5707963267948966,0.16587737202644348,-0.623354434967041,0.30247747898101807
0.2436256335115738,-0.6241689373402418,0,0.5663923940219391,0,-1.4433763110067397,0,-1.7768602666962152,0,-1.0471975511965976,1.5707963267948966,0.24106940627098083,-0.5839898586273193,0.2999208867549896
0.047608491842091205,-0.7523349932280656,0,-0.2751481581925894,0,-0.3771729473702543,0,-1.7964540878758335,0,-1.0471975511965976,1.5707963267948966,0.3078750967979431,-0.6141147613525391,0.24107618629932404
-0.06168375638902618,0.500203832498572,0,-1.047682079734197,0,-0.21488258385894898,0,-1.6017856237195007,0,-1.0471975511965976,1.5707963267948966,0.3842097520828247,-0.5543313026428223,0.2597599923610687
-0.1299846639486111,0.7099081992154086,0,0.3010474036489277,0,0.6443768064172077,0,-1.4220807808497697,0,-1.0471975511965976,1.5707963267948966,0.3774290382862091,-0.5868745446205139,0.27453455328941345
0.20401933523568067,-0.7854136652007879,0,0.8035452306711159,0,-0.08776224231880514,0,-1.4309662712959992,0,-1.0471975511965976,1.5707963267948966,0.3773331940174103,-0.5678997039794922,0.29729336500167847
0.2649238900150675,0.5677961549335717,0,0.5562298766083749,0,-1.024795880776929,0,-1.270527503654875,0,-1.0471975511965976,1.5707963267948966,0.38524487614631653,-0.5416845679283142,0.3633263409137726
0.22904425524803013,-0.3875425612580834,0,-0.15278775281682755,0,0.2067405390530923,0,-1.4495961298636848,0,-1.0471975511965976,1.5707963267948966,0.31154972314834595,-0.5583017468452454,0.36349692940711975
0.1245850525085681,-0.0575742361612408,0,-0.836956923810626,0,-0.7622116195953312,0,-1.7112397483146558,0,-1.0471975511965976,1.5707963267948966,0.27877277135849,-0.5562428832054138,0.27191293239593506
-0.1427625887336316,0.13617406192012638,0,-0.9273551222363074,0,-0.09338675548398245,0,-1.4440474592625216,0,-1.0471975511965976,1.5707963267948966,0.23881329596042633,-0.5353304743766785,0.2252928912639618
0.13131363234334315,0.31862033563021086,0,-0.9526614505212555,0,-1.1852597096301287,0,-1.8014384331877231,0,-1.0471975511965976,1.5707963267948966,-0.2708621621131897,-0.4039285480976105,0.15474145114421844
0.035773267541929166,0.7729280412956407,0,-0.5655005920152066,0,-1.040732532119402,0,-1.8109308249072558,0,-1.0471975511965976,1.5707963267948966,-0.323240727186203,-0.41550344228744507,0.18170447647571564
0.19902541411376928,-0.33106961192451173,0,-0.03247589313417998,0,0.8817007305918463,0,-1.837905378224121,0,-1.0471975511965976,1.5707963267948966,-0.4675314724445343,-0.5948603749275208,0.293098509311676
-0.2364272694329464,0.7993158606572874,0,0.1976806791339938,0,-1.0065323257174357,0,-1.711355796528273,0,-1.0471975511965976,1.5707963267948966,-0.44246411323547363,-0.5871431827545166,0.3763256072998047
0.1870842208550214,-0.4152436805124582,0,-0.5060725206416732,0,0.2042176068268411,0,-1.2996488898944984,0,-1.0471975511965976,1.5707963267948966,0.04941625893115997,-0.4755266010761261,0.3441776633262634
-0.24697755378534247,-0.3201843515913936,0,0.6941585268607544,0,-0.37843712033378774,0,-1.4387668358865104,0,-1.0471975511965976,1.5707963267948966,0.08155729621648788,-0.4815469980239868,0.25888004899024963
0.028319078199449066,0.13784136207574738,0,-1.0260775199725154,0,-1.1347188602802745,0,-1.8028640662217674,0,-1.0471975511965976,1.5707963267948966,0.09469790011644363,-0.4530962407588959,0.23370367288589478
-0.2203792662381201,0.02916431543508069,0,0.48406110822237625,0,0.4090239058978158,0,-1.2076352446330347,0,-1.0471975511965976,1.5707963267948966,0.08992736041545868,-0.463603138923645,0.20575635135173798
-0.07012506079250741,-0.3230215803371646,0,-0.959614589377719,0,-0.7510408710252693,0,-1.701201051679746,0,-1.0471975511965976,1.5707963267948966,0.03392767906188965,-0.4427718222141266,0.1887182593345642
-0.1470018351648197,0.5871794693528465,0,-1.1003979398176917,0,-1.1762602475348216,0,-1.69197943932197,0,-1.0471975511965976,1.5707963267948966,0.004671844188123941,-0.4240492582321167,0.22484053671360016
0.22060924866783632,-0.1872516429933183,0,-0.5505072978727821,0,-0.9568789142371152,0,-1.498574992237932,0,-1.0471975511965976,1.5707963267948966,-0.028109436854720116,-0.4962577819824219,0.18547968566417694
-0.1608033110670373,0.5704227123951899,0,-0.16804205693305363,0,0.5471600950358984,0,-1.179793085034667,0,-1.0471975511965976,1.5707963267948966,-0.33398154377937317,-0.3377379775047302,0.17994853854179382
-0.17886678891136928,0.2788677651908258,0,-1.0545043046233018,0,0.646439848639748,0,-1.268912077383258,0,-1.0471975511965976,1.5707963267948966,-0.3751625716686249,-0.27978047728538513,0.24943704903125763
0.10321411218966942,-0.7078927444139641,0,0.4989394121232644,0,-1.3973189438189657,0,-1.4978303311482757,0,-1.0471975511965976,1.5707963267948966,-0.28557637333869934,-0.5053422451019287,0.32964688539505005
0.2190210691117404,-0.37296307747083407,0,0.457579337592972,0,-1.44102993461814,0,-1.5289880217823473,0,-1.0471975511965976,1.5707963267948966,-0.24094261229038239,-0.5243354439735413,0.3176994025707245
0.2531224329568658,-0.0551301305585753,0,-0.600475395945303,0,-0.9355286683115726,0,-1.3679903406395675,0,-1.0471975511965976,1.5707963267948966,-0.21260473132133484,-0.5674099922180176,0.286984920501709
0.18622489162982742,-0.2988145690701851,0,0.4121739747615012,0,-0.647931465127251,0,-1.2312601218114456,0,-1.0471975511965976,1.5707963267948966,-0.20195333659648895,-0.5820006728172302,0.2575693726539612
-0.07520674039974273,0.24248069709860576,0,-0.7979018579291746,0,0.7978126844715112,0,-1.8886253174087608,0,-1.0471975511965976,1.5707963267948966,-0.19057437777519226,-0.5600712299346924,0.23510976135730743
0.06752230298171624,-0.2392945332287354,0,-0.8296874166916388,0,-1.0228221990267217,0,-1.5692343385059826,0,-1.0471975511965976,1.5707963267948966,-0.18289458751678467,-0.5144194960594177,0.2661465108394623
-0.21729621025602575,0.5550183187746387,0,0.8214552757795544,0,-0.6848791034595789,0,-1.145509064227021,0,-1.0471975511965976,1.5707963267948966,-0.17309819161891937,-0.4839339852333069,0.2817077338695526
0.16690702500132276,0.5000494952414771,0,-0.9413731112516779,0,-0.3906328518867075,0,-1.7568660841804917,0,-1.0471975511965976,1.5707963267948966,-0.16791962087154388,-0.47558683156967163,0.25162437558174133
-0.189820586473869,-0.35152863318299465,0,-1.0803482991591056,0,0.31457103891460547,0,-1.3570798862960918,0,-1.0471975511965976,1.5707963267948966,-0.15736791491508484,-0.4741886854171753,0.23485462367534637
0.2087257516925795,0.028072270413954215,0,-1.0293349633775546,0,-0.3277858434134375,0,-1.361383941772338,0,-1.0471975511965976,1.5707963267948966,-0.13635939359664917,-0.4611407518386841,0.20146173238754272
0.16070125589645196,0.5169205324613269,0,-0.23185017473864966,0,-0.0014737050463520251,0,-1.1737645484274943,0,-1.0471975511965976,1.5707963267948966,0.05571775138378143,-0.5434579849243164,0.20738884806632996
-0.2683863698322676,-0.010691443796251199,0,-1.1364194124846263,0,0.5471562056227848,0,-1.2645649946551119,0,-1.0471975511965976,1.5707963267948966,0.08950158208608627,-0.5336247086524963,0.20521679520606995
-0.11442613427311071,0.18057484890711462,0,0.12740151268927735,0,0.18478470564688076,0,-1.660383330782769,0,-1.0471975511965976,1.5707963267948966,0.1327112466096878,-0.48413145542144775,0.23883160948753357
-0.0184912401751382,-0.3656151081955896,0,-0.5829060701133018,0,0.21269017127757683,0,-1.4338119687818554,0,-1.0471975511965976,1.5707963267948966,0.17967145144939423,-0.46734192967414856,0.23716214299201965
0.04187985356397761,-0.7045306205957417,0,-0.41870689019246576,0,-0.43562414517744386,0,-1.7755902374842112,0,-1.0471975511965976,1.5707963267948966,0.2218741476535797,-0.4651288390159607,0.2518884837627411
-0.18507378038100508,0.5075337322074336,0,0.8858455884168921,0,0.12639677320678144,0,-1.1864111368219254,0,-1.0471975511965976,1.5707963267948966,0.251145601272583,-0.4673752784729004,0.25293242931365967
0.22048011661028116,-0.7196929243491117,0,-1.1094541686886388,0,-0.349291130384652,0,-1.543426765346624,0,-1.0471975511965976,1.5707963267948966,0.2664828896522522,-0.4529220461845398,0.24199503660202026
-0.09296866664013484,-0.2238620369815768,0,-0.40959903330633807,0,0.5781606628264921,0,-1.2587463336331894,0,-1.0471975511965976,1.5707963267948966,0.2711081802845001,-0.43601953983306885,0.24254463613033295
0.11432354716895904,0.061953142079475776,0,-0.10326864275023295,0,0.8092589015786336,0,-1.897040331063133,0,-1.0471975511965976,1.5707963267948966,0.27192223072052,-0.40828993916511536,0.23159795999526978
0.15486391445011005,0.21478419389561276,0,-0.426264052177033,0,0.7601085736429625,0,-1.2020626781953458,0,-1.0471975511965976,1.5707963267948966,0.2570537328720093,-0.37948399782180786,0.2536267340183258
-0.19468206408566666,-0.11010592546925757,0,0.2672897333639197,0,0.6635587637389013,0,-1.3764232688269091,0,-1.0471975511965976,1.5707963267948966,-0.06242867186665535,-0.9346261024475098,0.3478035628795624
0.11014190474742591,0.1574300048301518,0,-0.18571036229832494,0,0.16193112120495257,0,-1.7872699686097333,0,-1.0471975511965976,1.5707963267948966,-0.06664084643125534,-0.8940103054046631,0.3270401060581207
0.27043717925766836,0.6998758307782034,0,0.043917983978426944,0,-1.1200078051818805,0,-1.2733537287596723,0,-1.0471975511965976,1.5707963267948966,-0.07229731231927872,-0.8367528319358826,0.35968437790870667
-0.08085133639822423,0.1048112007139066,0,0.35175950090402575,0,-0.4154901249538743,0,-1.7613083857160103,0,-1.0471975511965976,1.5707963267948966,-0.06614328920841217,-0.7820465564727783,0.3643006384372711
0.16556128621189764,-0.32210060026082865,0,-0.9220789988902149,0,-0.9272451729744685,0,-1.2424058857932985,0,-1.0471975511965976,1.5707963267948966,-0.045535482466220856,-0.7343483567237854,0.34096571803092957
-0.0935265931700594,0.055217870708741956,0,0.4265046631408538,0,-1.251701114579412,0,-1.3932391812120561,0,-1.0471975511965976,1.5707963267948966,-0.019541282206773758,-0.68668133020401,0.3346066176891327
0.2296512740346,-0.6207186928416905,0,-0.6596805952886405,0,-0.2621865516116395,0,-1.1722647649876785,0,-1.0471975511965976,1.5707963267948966,-0.0023317867890000343,-0.6369292736053467,0.3045000731945038
-0.1923851464612341,-0.7778338655648476,0,-0.10516533569561437,0,0.8838872552668076,0,-1.5663307527604542,0,-1.0471975511965976,1.5707963267948966,0.009075346402823925,-0.5784928798675537,0.29895636439323425
-0.08151967659772139,0.11213603103051017,0,-0.9121846627129764,0,-0.4082893699295469,0,-1.1044337791409116,0,-1.0471975511965976,1.5707963267948966,0.009653812274336815,-0.4851055145263672,0.30747926235198975
0.2506835587062319,0.29310540008284036,0,-0.5036365466593107,0,-0.7847991368641452,0,-1.5857148209679708,0,-1.0471975511965976,1.5707963267948966,0.000764773110859096,-0.4034273028373718,0.31731536984443665
0.061618543033948536,0.22255646815970875,0,-0.10560752587421773,0,-1.436810859167465,0,-1.6682253347425817,0,-1.0471975511965976,1.5707963267948966,-0.008822564966976643,-0.37582746148109436,0.2543858289718628
-0.1328921269440535,0.3160655345702308,0,0.7644564768851878,0,-0.10222192612884706,0,-1.24513167347108,0,-1.0471975511965976,1.5707963267948966,-0.006200628355145454,-0.39089277386665344,0.18438003957271576
0.03166975775322761,0.2445050631588337,0,0.06399146222059238,0,0.4769732758148202,0,-1.5063765181634354,0,-1.0471975511965976,1.5707963267948966,0.13336502015590668,-0.2093624472618103,0.1755530834197998
-0.2209766020648537,-0.21456059852286413,0,-1.1282866188798621,0,0.4617166255943552,0,-1.8102964132962465,0,-1.0471975511965976,1.5707963267948966,0.13805130124092102,-0.2006855607032776,0.18946054577827454
-0.04880817621062322,-0.6998454954692355,0,-0.13566364174377976,0,-0.6190179775306698,0,-1.473303543961804,0,-1.0471975511965976,1.5707963267948966,0.1499965935945511,-0.1941569298505783,0.21452413499355316
0.014804957491649118,0.10605683348309858,0,0.16959135286731564,0,0.03058600849624482,0,-1.798651639134501,0,-1.0471975511965976,1.5707963267948966,0.1610584557056427,-0.22705204784870148,0.19799792766571045
0.10767155351886382,0.7686383399356445,0,0.31235211209039826,0,0.4617667641471874,0,-1.5948321273146662,0,-1.0471975511965976,1.5707963267948966,0.1633147895336151,-0.2755114436149597,0.2027049958705902
0.099209069130763,-0.6601761587174068,0,-0.810076888256698,0,-0.3238607403390026,0,-1.4725161208822866,0,-1.0471975511965976,1.5707963267948966,0.1589518040418625,-0.3037286698818207,0.24578139185905457
0.018624315861414775,-0.09354186342536619,0,0.6975789030384614,0,0.01974683364228791,0,-1.2667728083614778,0,-1.0471975511965976,1.5707963267948966,0.15627293288707733,-0.3204236626625061,0.31084203720092773
0.16726421209852854,-0.6651738604903459,0,-0.42740455048836357,0,-0.14298910222912653,0,-1.3376055091888865,0,-1.0471975511965976,1.5707963267948966,-0.113807812333107,-0.7114639282226562,0.3812730014324188
-0.2008049926096669,-0.5745273955624861,0,-1.1897040868235693,0,-0.7634451890589788,0,-1.6726461169958797,0,-1.0471975511965976,1.5707963267948966,-0.14411140978336334,-0.6552469730377197,0.3690025210380554
-0.017989034136299042,0.2914032430813511,0,-0.3768057783307054,0,-0.47675213360585034,0,-1.7904885932889811,0,-1.0471975511965976,1.5707963267948966,-0.1867464780807495,-0.6040368676185608,0.34154555201530457
-0.1815685058852837,0.7331240455463413,0,-0.48108633181074356,0,-1.208294818610955,0,-1.8686802771745536,0,-1.0471975511965976,1.5707963267948966,-0.24280884861946106,-0.5993281602859497,0.2622413635253906
-0.2336303922272901,-0.1076256781899334,0,0.2094308191833254,0,0.7478158586000825,0,-1.441770564198973,0,-1.0471975511965976,1.5707963267948966,0.4611393213272095,-0.37373125553131104,0.14880399405956268
0.17315012032951194,-0.09240912556957448,0,-0.7670242627562354,0,-0.9015821943765561,0,-1.3466067783628488,0,-1.0471975511965976,1.5707963267948966,0.46466389298439026,-0.3179928958415985,0.23883023858070374
0.10151564169407468,-0.657147559108854,0,-0.11302149014397433,0,-1.406400785003686,0,-1.3006318574529605,0,-1.0471975511965976,1.5707963267948966,0.04117540642619133,-0.4335269033908844,0.3006586730480194
-0.032513097510459554,0.07280293730621845,0,-0.4659790527637129,0,0.868441658912632,0,-1.7585938060760067,0,-1.0471975511965976,1.5707963267948966,-0.030362624675035477,-0.44914960861206055,0.23883405327796936
-0.08358355139235205,-0.42357656176812974,0,-0.6135967178732121,0,-0.46235298000512914,0,-1.5219431747953063,0,-1.0471975511965976,1.5707963267948966,-0.2812015116214752,-0.3477201759815216,0.18277259171009064
-0.29944655674199094,0.19035123501571005,0,0.4581892494852655,0,-0.09765446270392952,0,-1.8033711680001265,0,-1.0471975511965976,1.5707963267948966,-0.28418660163879395,-0.3219448924064636,0.23182566463947296
-0.1798427031335907,0.2885387500428511,0,0.7173447122406325,0,-0.7306883354325241,0,-1.223419017233657,0,-1.0471975511965976,1.5707963267948966,-0.2829418182373047,-0.35129815340042114,0.2320626974105835
0.13566134733562857,-0.37294412814312694,0,-0.8607223809278307,0,-0.6425174893641168,0,-1.1713806414568637,0,-1.0471975511965976,1.5707963267948966,-0.27893000841140747,-0.38182756304740906,0.2571418583393097
-0.11486525438722978,-0.16886052273334184,0,0.004928853325492755,0,0.3688104813220068,0,-1.6845066994617073,0,-1.0471975511965976,1.5707963267948966,-0.2662968933582306,-0.40397319197654724,0.2949445843696594
0.04161114449091685,-0.19037613093076433,0,-0.08325193004639897,0,-0.11751494592710143,0,-1.7742323256177857,0,-1.0471975511965976,1.5707963267948966,-0.2515454888343811,-0.419179230928421,0.32313215732574463
0.21289642914016677,-0.04673481637883048,0,-0.8292847700112824,0,0.29344597214589463,0,-1.3600138446635563,0,-1.0471975511965976,1.5707963267948966,-0.23541609942913055,-0.4516007602214813,0.358517587184906
0.13036403933293156,0.7572361916517747,0,-0.13575935868391165,0,0.5371041802137568,0,-1.4193582880060358,0,-1.0471975511965976,1.5707963267948966,-0.190658301115036,-0.5032491683959961,0.3575875759124756
0.2232942041344707,0.6388729590465749,0,-0.36046777454620715,0,0.7437201038870447,0,-1.3447558834063522,0,-1.0471975511965976,1.5707963267948966,-0.17196764051914215,-0.5218919515609741,0.33659520745277405
-0.20523583576876608,-0.7090238908571349,0,-1.1095660176972841,0,-0.6376785888042673,0,-1.1838825659630463,0,-1.0471975511965976,1.5707963267948966,0.03644692525267601,-0.6140616536140442,0.31408455967903137
0.12741791338493308,-0.4474173325489195,0,-0.05478773666713499,0,-0.3624560950436295,0,-1.8247981551901353,0,-1.0471975511965976,1.5707963267948966,0.0025616271886974573,-0.5822172164916992,0.28961658477783203
-0.11821324590323715,-0.5804534999306338,0,-0.5877215650890176,0,0.5427326648545931,0,-1.6431437941251374,0,-1.0471975511965976,1.5707963267948966,-0.037592966109514236,-0.5799481272697449,0.2347933053970337
0.10325327955396058,0.4243733688980116,0,0.43504827517171507,0,0.6857318990240435,0,-1.1034970298515874,0,-1.0471975511965976,1.5707963267948966,-0.08998934924602509,-0.5588724613189697,0.2301306426525116
0.28465553098693946,-0.16360461202564414,0,0.2496211036216831,0,-0.9025913138539019,0,-1.4725917673173277,0,-1.0471975511965976,1.5707963267948966,-0.15138936042785645,-0.49226170778274536,0.2738579213619232
0.1689275503821434,-0.21434653186865205,0,0.5212637355583396,0,-1.2762968646239867,0,-1.8778272496407729,0,-1.0471975511965976,1.5707963267948966,-0.2755066156387329,-0.42651844024658203,0.34132590889930725
0.21606692188534476,-0.7104649589592829,0,-0.9801732418439506,0,-0.8959240542209685,0,-1.2983853114943547,0,-1.0471975511965976,1.5707963267948966,-0.31658127903938293,-0.4547439217567444,0.3247215151786804
-0.18794600031580544,-0.3528824678347691,0,-0.12090935428413929,0,-1.1341976098021398,0,-1.5595935832073498,0,-1.0471975511965976,1.5707963267948966,-0.3363801836967468,-0.47502365708351135,0.3049744665622711
-0.062023115175407595,-0.5600969466030215,0,-0.9298579853717479,0,-0.256790304545659,0,-1.5261461969474261,0,-1.0471975511965976,1.5707963267948966,-0.3506407141685486,-0.47113972902297974,0.2665959298610687
-0.26056388002070024,-0.3658518266863821,0,0.6183820622934932,0,0.36229506903500486,0,-1.646885276119095,0,-1.0471975511965976,1.5707963267948966,-0.339099645614624,-0.30612146854400635,0.1511906385421753
-0.17027930452363427,0.09504675283831188,0,0.24809434738573266,0,-1.2000123357472103,0,-1.7199179410056773,0,-1.0471975511965976,1.5707963267948966,-0.3341728448867798,-0.3061094284057617,0.19208289682865143
-0.032352523266074296,-0.5999717988175313,0,-1.012695924326021,0,-1.0692210704899858,0,-1.5575787204516562,0,-1.0471975511965976,1.5707963267948966,-0.33283731341362,-0.33875906467437744,0.23462995886802673
-0.09581917657315492,-0.5048273695920436,0,-0.6841275609148944,0,-0.721034829421727,0,-1.8626361519282597,0,-1.0471975511965976,1.5707963267948966,-0.32940468192100525,-0.41305166482925415,0.221368208527565
-0.14170540824600514,0.11220170796740037,0,0.09789517501603107,0,0.19664724876257167,0,-1.697050007592335,0,-1.0471975511965976,1.5707963267948966,-0.0286919753998518,-0.6182617545127869,0.25943925976753235
-0.07638096717251838,-0.04589430003140349,0,0.6783782110845533,0,0.7574098585729805,0,-1.4751722253481439,0,-1.0471975511965976,1.5707963267948966,0.012029577046632767,-0.6113819479942322,0.3458460867404938
0.18099904359893187,0.6909449852541587,0,-0.9145556911768566,0,-1.0150124072425848,0,-1.8166179912061973,0,-1.0471975511965976,1.5707963267948966,0.005482878070324659,-0.6657078266143799,0.3018473982810974
-0.1660116125136136,0.6049647536848013,0,-0.5199680260153048,0,0.33907740480001847,0,-1.841826615060692,0,-1.0471975511965976,1.5707963267948966,-0.24067215621471405,-0.42662081122398376,0.2365555316209793
0.2566774930968681,0.019508474708957002,0,-0.42465767131574517,0,-1.2560647490937047,0,-1.341370409028832,0,-1.0471975511965976,1.5707963267948966,-0.2667038142681122,-0.4353405833244324,0.22579798102378845
0.06764324615173395,0.11313584337129312,0,-0.9287135650398015,0,0.24944909347199706,0,-1.4924772885606792,0,-1.0471975511965976,1.5707963267948966,-0.2502187192440033,-0.4162772297859192,0.22468873858451843
-0.15811771275312728,0.37276312724967164,0,0.048941866953797986,0,0.24892680698171898,0,-1.139896724210642,0,-1.0471975511965976,1.5707963267948966,-0.23424309492111206,-0.3748253583908081,0.281973272562027
0.014964033457475656,0.5132501198764277,0,0.789545641466598,0,-1.2921296694368667,0,-1.5620426789656459,0,-1.0471975511965976,1.5707963267948966,-0.21307675540447235,-0.33843597769737244,0.3195757269859314
0.17217775729751522,-0.3809871793369304,0,0.6031893718448771,0,-1.2438726065954921,0,-1.5212763177694706,0,-1.0471975511965976,1.5707963267948966,0.1288710981607437,-0.6121828556060791,0.3479319214820862
0.1794246164665092,-0.2650161699926956,0,0.26817457873150574,0,0.629497414772002,0,-1.1680087077565688,0,-1.0471975511965976,1.5707963267948966,0.19020140171051025,-0.6399241089820862,0.30214425921440125
0.21453094201638573,-0.26550466693139985,0,0.02099155219057569,0,0.23099195710518527,0,-1.1010757545722791,0,-1.0471975511965976,1.5707963267948966,0.24068321287631989,-0.6470871567726135,0.2981155812740326
-0.27979124152486745,-0.281528945601182,0,0.25424565445589686,0,-1.259330954222837,0,-1.1186210066920006,0,-1.0471975511965976,1.5707963267948966,0.3243749439716339,-0.5357440710067749,0.34923115372657776
-0.20778486965809026,-0.6401835402503697,0,-0.6394479181326127,0,0.4523399338301288,0,-1.8535961072230922,0,-1.0471975511965976,1.5707963267948966,0.3264061212539673,-0.5531345009803772,0.33202067017555237
-0.19824878581461924,0.371728741788514,0,0.05248185263408667,0,-1.074397715014436,0,-1.6175997568713703,0,-1.0471975511965976,1.5707963267948966,0.31726890802383423,-0.5800220370292664,0.3215337097644806
0.008870258355651583,-0.14170102427344733,0,-0.6627045685330606,0,-1.1560415204370371,0,-1.495102759492717,0,-1.0471975511965976,1.5707963267948966,0.29489749670028687,-0.6068296432495117,0.31087395548820496
0.22828724843226694,0.11897786042414826,0,-0.19407028663598314,0,-0.48118839949183756,0,-1.8793639517900917,0,-1.0471975511965976,1.5707963267948966,0.27305081486701965,-0.6602286100387573,0.25902417302131653
0.1112115059456007,-0.5957407311670023,0,-0.8287695096508746,0,0.8889148683644328,0,-1.2062654581135346,0,-1.0471975511965976,1.5707963267948966,0.20851017534732819,-0.6627121567726135,0.2548392117023468
-0.2423675262517283,-0.41678035502833705,0,-1.1064986908303416,0,-0.1952431598333999,0,-1.3849633772701717,0,-1.0471975511965976,1.5707963267948966,0.18866635859012604,-0.628474771976471,0.3051374852657318
-0.20002105596054542,0.7386120141430952,0,0.06000587629117238,0,-1.1513498838070548,0,-1.1483929194377636,0,-1.0471975511965976,1.5707963267948966,0.1173006221652031,-0.6014048457145691,0.3399699926376343
0.19316781305235714,-0.7327291260276877,0,-0.2550305020145701,0,-1.3759828985556117,0,-1.1982331328127596,0,-1.0471975511965976,1.5707963267948966,0.07064752280712128,-0.6101958751678467,0.3446163535118103
-0.0028770189986104255,0.4900967926689215,0,-0.36440122151552445,0,0.30081638792345466,0,-1.5458640584525094,0,-1.0471975511965976,1.5707963267948966,0.03457789868116379,-0.623356282711029,0.30349278450012207
-0.2802155088870321,-0.2695870543253237,0,0.4766766680307315,0,0.23936010579348466,0,-1.4658651535850182,0,-1.0471975511965976,1.5707963267948966,0.0007433488499373198,-0.6296101212501526,0.2554148733615875
0.1165604723894888,0.5965720172492561,0,-0.8688927133821097,0,0.6030589670770887,0,-1.1226869598036848,0,-1.0471975511965976,1.5707963267948966,-0.028916550800204277,-0.5942481756210327,0.2730214595794678
-0.20230206443881354,0.15695435703316485,0,0.5834288860454473,0,0.7467127735021848,0,-1.8579718002350307,0,-1.0471975511965976,1.5707963267948966,-0.06030072271823883,-0.5385057330131531,0.3159061670303345
-0.20251864695695898,0.1969575446650227,0,0.8365355613545422,0,-0.21083405424804824,0,-1.252012522543458,0,-1.0471975511965976,1.5707963267948966,0.033597275614738464,-0.5896849036216736,0.3386903703212738
0.05130832881369518,0.41900133589793476,0,0.4647387150827278,0,-1.0986019547474348,0,-1.253021102858771,0,-1.0471975511965976,1.5707963267948966,0.05729617178440094,-0.5574797987937927,0.3207087516784668
0.09603764034609003,0.11676210574627155,0,0.13543744918647338,0,-0.4946872593336329,0,-1.5676027781383048,0,-1.0471975511965976,1.5707963267948966,0.08697105199098587,-0.5524080991744995,0.3144419491291046
-0.03115634476901602,0.11240656865151943,0,-0.8415067599347532,0,-0.5066501426848836,0,-1.2227743756573535,0,-1.0471975511965976,1.5707963267948966,0.12202007323503494,-0.5627187490463257,0.32448652386665344
0.07164432585710828,0.7430610806682647,0,0.8492948135548308,0,-1.1531589630467196,0,-1.383777166760618,0,-1.0471975511965976,1.5707963267948966,0.15219394862651825,-0.5503390431404114,0.33363327383995056
-0.26157497630269566,-0.18069361258166272,0,0.866631532561094,0,0.2943946232081256,0,-1.348568912373739,0,-1.0471975511965976,1.5707963267948966,0.17103803157806396,-0.5443724393844604,0.3145817816257477
-0.150597664573189,0.5304475837469746,0,-0.49176803511075307,0,-1.2091528358419676,0,-1.1034366966900904,0,-1.0471975511965976,1.5707963267948966,0.19103482365608215,-0.5662810802459717,0.3082897961139679
0.09697917763734126,-0.7250982391064836,0,0.2515309742120895,0,0.10557664791348564,0,-1.7388560184755026,0,-1.0471975511965976,1.5707963267948966,0.2234477400779724,-0.5873997807502747,0.31194615364074707
0.024133567760203367,-0.7614120075904603,0,-0.8322809840545013,0,0.1219829224076836,0,-1.5451932407650844,0,-1.0471975511965976,1.5707963267948966,0.26922497153282166,-0.6143006086349487,0.2972598969936371
0.22038769429004873,-0.03971378086826083,0,0.17794022980914614,0,0.36852502422593036,0,-1.5058200227027074,0,-1.0471975511965976,1.5707963267948966,0.3093092143535614,-0.6113455295562744,0.3374444544315338
0.019492140035749284,-0.6730839057911343,0,-1.0413496233726607,0,-0.8464881221441071,0,-1.8051312862698576,0,-1.0471975511965976,1.5707963267948966,0.28909873962402344,-0.5901520848274231,0.3308386504650116
-0.26804100775036316,-0.27671202608443934,0,0.3620251394562133,0,0.3868851844103183,0,-1.1752604285373953,0,-1.0471975511965976,1.5707963267948966,0.23497100174427032,-0.6211801171302795,0.2866172194480896
0.1726893633827316,0.6286072480147726,0,0.3487561297842585,0,0.2985528167566531,0,-1.5212897597726602,0,-1.0471975511965976,1.5707963267948966,0.167267307639122,-0.6205834746360779,0.24706372618675232
0.10889244051123659,-0.23252004491293232,0,-1.010836253172118,0,-1.3771874879792187,0,-1.1925866070625448,0,-1.0471975511965976,1.5707963267948966,0.0940915048122406,-0.5752890110015869,0.2679857313632965
0.23365147091935484,0.25311373415033467,0,0.13180622371078132,0,-1.1833879961290532,0,-1.2025011439633368,0,-1.0471975511965976,1.5707963267948966,0.022229133173823357,-0.534544825553894,0.30610713362693787
-0.17795405654002738,0.3160387559353057,0,0.3385513925888963,0,-0.7112121987694042,0,-1.789366423205125,0,-1.0471975511965976,1.5707963267948966,-0.04003239423036575,-0.5254040956497192,0.2820362150669098
-0.15756172178155703,0.5398959105409831,0,0.12782201174596697,0,-0.727291362462602,0,-1.2025612532641614,0,-1.0471975511965976,1.5707963267948966,-0.08518452197313309,-0.5222998857498169,0.2626776099205017
0.25557248679538486,-0.22489972678963288,0,-0.3060329777767016,0,-1.1244018038353867,0,-1.772822421456338,0,-1.0471975511965976,1.5707963267948966,-0.11334839463233948,-0.5176919102668762,0.27087488770484924
-0.13415861454367414,0.6589298362117251,0,0.37840785523283915,0,-0.38180838220442537,0,-1.5939749829443604,0,-1.0471975511965976,1.5707963267948966,-0.12677054107189178,-0.5221717357635498,0.2704951763153076
-0.27000165852048136,-0.658802713788063,0,-0.37665514948826795,0,-0.9661607078962671,0,-1.6207512785619973,0,-1.0471975511965976,1.5707963267948966,-0.13932427763938904,-0.5378378629684448,0.24823574721813202
-0.14617813252573353,0.5138565079361255,0,-0.7915025172572708,0,-0.13865103235774434,0,-1.3066061504797783,0,-1.0471975511965976,1.5707963267948966,-0.1484309434890747,-0.5405347347259521,0.24896040558815002
-0.18622708593392862,-0.3458004292327962,0,-0.5622689503532942,0,0.8442672192057465,0,-1.8089509828896648,0,-1.0471975511965976,1.5707963267948966,-0.030142782256007195,-0.45705193281173706,0.24730300903320312
0.16667130278510522,-0.3342454501460118,0,0.3421567383269337,0,-1.2171117999786312,0,-1.8090237195191747,0,-1.0471975511965976,1.5707963267948966,-0.001968148397281766,-0.435160756111145,0.3226642310619354
-0.2055032414982257,-0.01679744998655841,0,-0.6120845291025941,0,-1.1442228510080081,0,-1.5657793492289942,0,-1.0471975511965976,1.5707963267948966,0.018569568172097206,-0.4590473473072052,0.354280561208725
-0.11580939557771741,0.10400755048542476,0,-0.18122151822899824,0,-1.3874639768732338,0,-1.704244671628927,0,-1.0471975511965976,1.5707963267948966,0.02425975538790226,-0.5173931121826172,0.3174194097518921
-0.1131847632476363,-0.3383089103921787,0,0.6742630779976371,0,-1.2146641832596512,0,-1.7159221550309491,0,-1.0471975511965976,1.5707963267948966,0.02213391289114952,-0.5835227370262146,0.2404455542564392
-0.1553308722063125,-0.14909503693843296,0,-0.756289614727889,0,0.4173427025287817,0,-1.6680268667458045,0,-1.0471975511965976,1.5707963267948966,0.012722997926175594,-0.6878088712692261,0.22299757599830627
-0.2641066993455502,-0.29861586729426015,0,-0.5612624191043041,0,-0.9649394204264918,0,-1.8060219522450218,0,-1.0471975511965976,1.5707963267948966,0.003814077703282237,-0.6683489680290222,0.25482377409935
-0.17068362046101085,0.5107542677692569,0,0.43052876815933083,0,0.3507089981659759,0,-1.226712516103761,0,-1.0471975511965976,1.5707963267948966,-0.017101455479860306,-0.6556696891784668,0.25463947653770447
-0.1526521617222815,-0.2782515206502447,0,0.6236549770198716,0,-1.4118954283585112,0,-1.8275841739610945,0,-1.0471975511965976,1.5707963267948966,-0.07931165397167206,-0.6171426177024841,0.22306886315345764
0.004196248833642113,-0.13590438214199385,0,-0.23508479698016138,0,-0.9542188852615909,0,-1.2744221187834066,0,-1.0471975511965976,1.5707963267948966,-0.11124788224697113,-0.5835534930229187,0.22281445562839508
-0.29125928111886346,-0.5346214663994184,0,0.07372415134691335,0,-1.2534673414866169,0,-1.201447009797707,0,-1.0471975511965976,1.5707963267948966,-0.1451917588710785,-0.6121251583099365,0.21272099018096924
-0.24002613108358536,0.3934214721209819,0,0.46310825959948265,0,0.44853493969064395,0,-1.7509833058293427,0,-1.0471975511965976,1.5707963267948966,-0.16920432448387146,-0.605411946773529,0.19304655492305756
-0.09760965086939394,0.6263617425172352,0,0.29669862061687624,0,-0.5903477215711412,0,-1.7079539123529066,0,-1.0471975511965976,1.5707963267948966,-0.21532133221626282,-0.5648015737533569,0.23196107149124146
-0.04325119082176887,-0.6969822833244534,0,0.6091532365737131,0,-0.8952471025187279,0,-1.8635134583627482,0,-1.0471975511965976,1.5707963267948966,-0.2249017059803009,-0.5290445685386658,0.267526775598526
0.12608832098240608,0.14446502202103007,0,-0.6952335424985908,0,-0.4534751323248374,0,-1.2421957380627489,0,-1.0471975511965976,1.5707963267948966,-0.21867462992668152,-0.5803073644638062,0.29013606905937195
0.21080645025787798,-0.0210841394045429,0,-0.5893072298601059,0,-0.391683630530155,0,-1.148676780705221,0,-1.0471975511965976,1.5707963267948966,-0.21223102509975433,-0.6098092794418335,0.32069841027259827
-0.2739968334090981,0.5693550209738194,0,-1.0715037992576202,0,-0.6540308615657492,0,-1.8279432411334025,0,-1.0471975511965976,1.5707963267948966,-0.20237910747528076,-0.5936369895935059,0.34300291538238525
0.14921913380640583,0.42483706653086806,0,-0.6250073868964533,0,-0.9483677465863305,0,-1.7515450731227964,0,-1.0471975511965976,1.5707963267948966,-0.18032988905906677,-0.592322587966919,0.32131585478782654
-0.24691257416969897,0.308581318025003,0,0.39904684627755826,0,-0.19220959567533047,0,-1.7511862765762414,0,-1.0471975511965976,1.5707963267948966,-0.14007176458835602,-0.6443675756454468,0.2307528853416443
0.07726057182755464,0.5999986070247643,0,0.6029617970671546,0,-1.0916255160933004,0,-1.8337493941676144,0,-1.0471975511965976,1.5707963267948966,0.11357074230909348,-0.5435124039649963,0.2021142542362213
-0.21226712785337126,-0.40747726938725504,0,0.3356860616844628,0,-0.6883704790532384,0,-1.6131415273684409,0,-1.0471975511965976,1.5707963267948966,0.08540073782205582,-0.5311959981918335,0.22135978937149048
-0.05902754858675763,0.7189306790222507,0,-0.5556613089164584,0,0.4959167644020721,0,-1.835019132667436,0,-1.0471975511965976,1.5707963267948966,0.05456306412816048,-0.564750075340271,0.24627862870693207
-0.23718845293063684,-0.5393175072453387,0,0.6896071012216936,0,-1.280667855555546,0,-1.5328388314685226,0,-1.0471975511965976,1.5707963267948966,0.022790895774960518,-0.5682300925254822,0.28309643268585205
-0.07166168510169355,0.045341755058493804,0,0.30535503285145915,0,-1.1178446463583,0,-1.637882097773311,0,-1.0471975511965976,1.5707963267948966,-0.005734691862016916,-0.575403094291687,0.29657289385795593
0.25717178425987935,0.7037347850796936,0,0.29217366670823597,0,0.19019725102786644,0,-1.1085137579505056,0,-1.0471975511965976,1.5707963267948966,-0.037110406905412674,-0.6169403791427612,0.28928524255752563
0.0639216913820439,-0.17492689867268074,0,0.3250268393853839,0,-0.33448500086606514,0,-1.3746675956163794,0,-1.0471975511965976,1.5707963267948966,-0.060324665158987045,-0.6378045082092285,0.28686559200286865
0.28186091721936785,0.4279556652197962,0,0.4183423419976309,0,0.3217242114449306,0,-1.2959378751160924,0,-1.0471975511965976,1.5707963267948966,-0.07261434197425842,-0.6135140061378479,0.34336087107658386
0.20965503991697593,-0.40950103935792975,0,0.6666484175073102,0,-0.567568417344257,0,-1.6829288278238843,0,-1.0471975511965976,1.5707963267948966,0.2262553572654724,-0.4795899987220764,0.300106018781662
0.1822814337377664,-0.188130941589856,0,0.8388020260384039,0,0.048734493999930795,0,-1.1328658361257489,0,-1.0471975511965976,1.5707963267948966,0.2439510077238083,-0.4786991477012634,0.24767568707466125
0.0696152069086256,0.4585908157168408,0,-0.8325552125254576,0,-1.0853527450168436,0,-1.163455707093961,0,-1.0471975511965976,1.5707963267948966,0.26264941692352295,-0.44506901502609253,0.24840296804904938
0.24257457157043555,0.13969219163137048,0,0.575125438980628,0,-0.6153544152561585,0,-1.8431732857114311,0,-1.0471975511965976,1.5707963267948966,0.27217933535575867,-0.3814444839954376,0.2783944308757782
0.2791588125873183,0.7694861294014324,0,0.4178272494022359,0,-0.4781961989897213,0,-1.6349756819813819,0,-1.0471975511965976,1.5707963267948966,0.28031739592552185,-0.3830607831478119,0.2502453029155731
-0.12904780858242662,-0.4951409439087428,0,-0.6074617989118839,0,0.15923996083625047,0,-1.8534409999159334,0,-1.0471975511965976,1.5707963267948966,0.28563252091407776,-0.3934628963470459,0.25379183888435364
-0.2392451215712077,0.14856707057815544,0,0.6286512527312411,0,0.60072910955113,0,-1.6247229991567436,0,-1.0471975511965976,1.5707963267948966,0.2939216196537018,-0.3909257650375366,0.27543994784355164
-0.11151289420216529,0.10193769987783463,0,0.7764842105853815,0,0.0030426923154052155,0,-1.7130688458680998,0,-1.0471975511965976,1.5707963267948966,0.2984376847743988,-0.3818058669567108,0.2832478880882263
0.03705504977201307,-0.3490599235151189,0,0.46507855774622797,0,0.03055785523998633,0,-1.823501413828954,0,-1.0471975511965976,1.5707963267948966,0.2926623523235321,-0.3878127932548523,0.31060364842414856
0.019105357926064936,-0.4555849400654188,0,0.1150647624298391,0,-1.145225191377612,0,-1.4428061260797764,0,-1.0471975511965976,1.5707963267948966,0.27340835332870483,-0.4254600703716278,0.35000693798065186
-0.2775176014394065,-0.5614494721176936,0,-0.7359593555939197,0,-0.4683399439426279,0,-1.3877750672876745,0,-1.0471975511965976,1.5707963267948966,-0.2735414505004883,-0.7032248377799988,0.3184775114059448
0.23323363930415214,0.5333966866926412,0,-0.9063249564558266,0,-0.13010582998140974,0,-1.3305563875047803,0,-1.0471975511965976,1.5707963267948966,-0.29924634099006653,-0.7032724022865295,0.233842670917511
0.2872582664036218,-0.7728891227668119,0,-0.08443872261059848,0,0.33257235929662166,0,-1.4080561964306793,0,-1.0471975511965976,1.5707963267948966,-0.3255458474159241,-0.6795451045036316,0.18755105137825012
-0.004575170138738538,-0.39978607779811226,0,-0.582699407290536,0,0.724764242505896,0,-1.2862086895944338,0,-1.0471975511965976,1.5707963267948966,-0.34839877486228943,-0.6242251992225647,0.1659800410270691
-0.10480735374165978,0.37597928693922755,0,0.04562868297678957,0,-0.36959544900605557,0,-1.564201839306676,0,-1.0471975511965976,1.5707963267948966,-0.37340298295021057,-0.5338584780693054,0.19440005719661713
-0.20948649801915253,0.2075058507356662,0,-1.1999319280520422,0,0.20810687963980823,0,-1.5977213286413137,0,-1.0471975511965976,1.5707963267948966,-0.3965187072753906,-0.4763709306716919,0.24180647730827332
-0.15009500515532992,0.6312498461372387,0,0.7858840525520794,0,-0.9316982394947103,0,-1.827677261095164,0,-1.0471975511965976,1.5707963267948966,-0.411113977432251,-0.4558256268501282,0.27728569507598877
0.1418643274450067,0.5822511393254393,0,-1.049973229996489,0,-0.5386753544107336,0,-1.7304212164877748,0,-1.0471975511965976,1.5707963267948966,-0.4116206467151642,-0.4716608226299286,0.26880183815956116
-0.1939748980413356,-0.7084582589862299,0,-0.23738681248414728,0,0.5081023681533323,0,-1.7482917147440136,0,-1.0471975511965976,1.5707963267948966,-0.39282146096229553,-0.5053876042366028,0.2646065056324005
0.04974352749095201,0.6808434859819588,0,-1.1647066210886783,0,0.46193744101776857,0,-1.3365778145010612,0,-1.0471975511965976,1.5707963267948966,-0.3579772412776947,-0.4964015781879425,0.26309168338775635
0.29384083209815565,0.5716336425272579,0,-0.7057427716096176,0,-0.20527036666328158,0,-1.4460450963552716,0,-1.0471975511965976,1.5707963267948966,-0.32012951374053955,-0.4575951397418976,0.2852981388568878
0.12061151962752054,0.1410921687110861,0,-0.8838319715590817,0,-0.4526336683503849,0,-1.2581950934191863,0,-1.0471975511965976,1.5707963267948966,-0.28225699067115784,-0.418997198343277,0.2731351852416992
0.24078507971560642,-0.09943459612921401,0,-1.0494595799680468,0,-1.4077906614107458,0,-1.7238373291707116,0,-1.0471975511965976,1.5707963267948966,-0.2374277263879776,-0.38824400305747986,0.2302306592464447
0.23437967129927856,-0.2878465861534173,0,-0.6259672979419459,0,-0.9409037146099897,0,-1.1998275058186416,0,-1.0471975511965976,1.5707963267948966,0.22395111620426178,-0.5356293320655823,0.24117127060890198
-0.09867064311115126,-0.626079686120963,0,-0.33516427322723596,0,-1.0031291885172102,0,-1.666610033368697,0,-1.0471975511965976,1.5707963267948966,0.22943301498889923,-0.5490869283676147,0.3162401020526886
-0.04551319054533476,-0.5277784651116488,0,0.3041910541897097,0,-1.3609658599113736,0,-1.3928000870699904,0,-1.0471975511965976,1.5707963267948966,0.21823622286319733,-0.5780777335166931,0.3408266305923462
0.13207829455988152,0.6428856719143881,0,-0.4442913562988269,0,-1.3115647805183075,0,-1.1795636119461421,0,-1.0471975511965976,1.5707963267948966,0.18792667984962463,-0.6303099989891052,0.3054482936859131
0.15052700476230424,-0.44660189943333306,0,-0.6282501833811781,0,0.7635376391895414,0,-1.7941949718737407,0,-1.0471975511965976,1.5707963267948966,0.14448057115077972,-0.6566968560218811,0.2632693350315094
-0.1561349575205069,-0.6344358863390354,0,-0.8178835934880094,0,0.6637248957442006,0,-1.6059968209367903,0,-1.0471975511965976,1.5707963267948966,0.10421539843082428,-0.6651415228843689,0.22367210686206818
0.2087783115852288,0.2848199381148915,0,0.35110403853776906,0,0.6840668816578577,0,-1.5007406536591787,0,-1.0471975511965976,1.5707963267948966,0.0596250481903553,-0.627268373966217,0.2450709491968155
-0.06157441822604842,-0.5675339981309002,0,-0.842630141554158,0,0.5824733267862274,0,-1.1649917883805845,0,-1.0471975511965976,1.5707963267948966,0.0054722442291677,-0.5667884945869446,0.2892870008945465
0.09640785372222205,0.11176554707639563,0,-0.02099988201851688,0,0.7421661590794424,0,-1.5339101095502672,0,-1.0471975511965976,1.5707963267948966,-0.344767302274704,-0.3940961956977844,0.2946909964084625
0.29982863450696967,0.6011077845925255,0,-0.21545341763229597,0,-0.7127634954629475,0,-1.161393413006063,0,-1.0471975511965976,1.5707963267948966,-0.4801715314388275,-0.40556761622428894,0.2800791263580322
0.10226641095481503,0.455135194316203,0,0.8711686975660176,0,-1.4243017434149112,0,-1.3204816265420078,0,-1.0471975511965976,1.5707963267948966,-0.5033642053604126,-0.4291841983795166,0.2576054334640503
-0.09633756928634715,-0.03271812461638035,0,-0.8928572949734805,0,-1.2740307978071452,0,-1.8394869225732027,0,-1.0471975511965976,1.5707963267948966,-0.5208113193511963,-0.4403878152370453,0.2467944473028183
-0.09559610784374264,-0.2829929079600735,0,-0.10205047229950392,0,-1.3344220878640471,0,-1.233748474179712,0,-1.0471975511965976,1.5707963267948966,-0.5185129046440125,-0.49612024426460266,0.22819094359874725
0.23642551056476752,0.4056437824864516,0,-0.116186437728385,0,-1.1119595041971624,0,-1.3258401980758174,0,-1.0471975511965976,1.5707963267948966,-0.4134594202041626,-0.5229124426841736,0.24922244250774384
0.2894524710322895,0.11281083560251548,0,0.0007962822265630276,0,0.4489104359321663,0,-1.449434067912377,0,-1.0471975511965976,1.5707963267948966,-0.3725135922431946,-0.5330342054367065,0.24707196652889252
-0.14699102802136962,-0.6075001744291573,0,0.19580052369661471,0,-0.9382567954523051,0,-1.6481084311547565,0,-1.0471975511965976,1.5707963267948966,-0.32155337929725647,-0.5369366407394409,0.23489169776439667
0.03070613878948164,-0.05898362868069662,0,-0.32114208879989503,0,-1.3273375115909252,0,-1.62751404475944,0,-1.0471975511965976,1.5707963267948966,-0.25888776779174805,-0.5252748727798462,0.2535960078239441
0.2979785714673118,0.27426162061210446,0,-0.8414608650490958,0,0.02222954290275103,0,-1.26213713054431,0,-1.0471975511965976,1.5707963267948966,-0.19781345129013062,-0.5561016201972961,0.22815488278865814
-0.12104622492790845,0.10594949679511578,0,-1.1905308836438617,0,0.8270067425187768,0,-1.1123552690209568,0,-1.0471975511965976,1.5707963267948966,-0.047221165150403976,-0.4213547706604004,0.25335824489593506
0.2556117826092646,0.7052536541755365,0,-0.7919507695712693,0,0.49754911521068257,0,-1.2403208065270506,0,-1.0471975511965976,1.5707963267948966,0.009931229054927826,-0.3554660677909851,0.3211960792541504
-0.27476074409666007,-0.5378923665397585,0,-1.1069459212444779,0,-0.9893833989597451,0,-1.6389398415271772,0,-1.0471975511965976,1.5707963267948966,0.18069134652614594,-0.3031972050666809,0.25770145654678345
-0.2675737817073823,-0.03928470859194866,0,-1.0162546985428096,0,0.8034150601924586,0,-1.3958207447011952,0,-1.0471975511965976,1.5707963267948966,0.20550252497196198,-0.35063478350639343,0.2191179394721985
0.29705149295267336,0.7316722884860454,0,0.258890981625018,0,-1.3936358175756047,0,-1.1274634461489876,0,-1.0471975511965976,1.5707963267948966,0.23651845753192902,-0.36388498544692993,0.14691637456417084
0.22430942467936404,-0.2926715982877861,0,0.6531118409042891,0,0.04720213733900058,0,-1.285695567443156,0,-1.0471975511965976,1.5707963267948966,0.2348756641149521,-0.364736944437027,0.13808594644069672
0.08847144299189547,0.04756712315064926,0,-0.6885066667911054,0,-1.1337075401713508,0,-1.4423554684948525,0,-1.0471975511965976,1.5707963267948966,0.22718341648578644,-0.362167090177536,0.16362978518009186
-0.2517259611979102,-0.33252375883935753,0,-0.6995356961185558,0,0.5832055002922336,0,-1.8315714154578848,0,-1.0471975511965976,1.5707963267948966,0.21576298773288727,-0.32894667983055115,0.2208574116230011
0.08900347667774955,0.5872343298122915,0,-0.3736007235034472,0,-0.04407291363747712,0,-1.7710287746238267,0,-1.0471975511965976,1.5707963267948966,0.1931748241186142,-0.33841854333877563,0.23122429847717285
-0.12265800019642453,-0.0906694982531816,0,0.5269145324344253,0,-0.4036100176452744,0,-1.6051537287055977,0,-1.0471975511965976,1.5707963267948966,0.15873216092586517,-0.34753555059432983,0.24834966659545898
-0.07904007174881492,0.27394431811097575,0,-1.0529496235736495,0,-0.14873173224872982,0,-1.797780519794868,0,-1.0471975511965976,1.5707963267948966,0.12297576665878296,-0.36786550283432007,0.25971314311027527
0.15579034331042196,-0.3397536091286737,0,0.3046609507199609,0,0.7653995643549265,0,-1.7513800905547166,0,-1.0471975511965976,1.5707963267948966,0.0862206295132637,-0.40234166383743286,0.27389034628868103
0.11533890649697237,0.7511005947162315,0,0.5878334529782163,0,0.005145641947496005,0,-1.105716671632696,0,-1.0471975511965976,1.5707963267948966,0.053815845400094986,-0.4254852533340454,0.2734453082084656
-0.03403764513988061,-0.7572361261572702,0,0.26256672244370316,0,-1.2919227282883057,0,-1.7048157919474185,0,-1.0471975511965976,1.5707963267948966,0.021547498181462288,-0.40068870782852173,0.335725337266922
0.2785506905794241,-0.13892164816014585,0,-0.011044455492113636,0,-0.9046277564055335,0,-1.5009992779494161,0,-1.0471975511965976,1.5707963267948966,-0.0998709574341774,-0.5074988603591919,0.3349412977695465
0.07049467965126704,0.6469018527027632,0,-0.9454468055384542,0,-0.5054218304264283,0,-1.5184330846022835,0,-1.0471975511965976,1.5707963267948966,-0.14034870266914368,-0.5534408688545227,0.27875781059265137
0.01965032944150813,0.6136354817782679,0,0.2895448349010412,0,-0.45748165182465905,0,-1.7560782872619793,0,-1.0471975511965976,1.5707963267948966,-0.1794835478067398,-0.5620838403701782,0.2517147958278656
-0.00436262975304319,0.5960231046785727,0,-1.1130432017935827,0,-1.1079424687010961,0,-1.7700966525946373,0,-1.0471975511965976,1.5707963267948966,-0.002162802964448929,-0.3996230959892273,0.2503056228160858
-0.04855337637212581,-0.4961716746360034,0,0.543305425610108,0,0.781093217577361,0,-1.3931627024327655,0,-1.0471975511965976,1.5707963267948966,0.04387114197015762,-0.33906319737434387,0.29224008321762085
0.0188110059735202,0.562171386805236,0,0.08064000329184196,0,-1.0653529221328872,0,-1.8524001112812734,0,-1.0471975511965976,1.5707963267948966,0.09148994833230972,-0.3206419050693512,0.2858533263206482
-0.0042325737984874046,0.5791639345734345,0,0.24110849523141753,0,-1.1521318239503573,0,-1.7943208112055173,0,-1.0471975511965976,1.5707963267948966,0.1394270360469818,-0.33091074228286743,0.28596433997154236
0.25350880832906947,0.542538676152861,0,0.6487601590561913,0,0.7215048245411475,0,-1.6570696526299145,0,-1.0471975511965976,1.5707963267948966,0.18797726929187775,-0.41360241174697876,0.2560817301273346
0.14693280987232804,0.6593264871755617,0,0.7698118665068432,0,0.7205206367214194,0,-1.170018100828111,0,-1.0471975511965976,1.5707963267948966,0.24590334296226501,-0.47891926765441895,0.254068523645401
-0.2604381397753703,-0.6070732882203169,0,0.342498483475667,0,-0.5162578341344466,0,-1.7557523731494342,0,-1.0471975511965976,1.5707963267948966,0.3059811592102051,-0.4667721688747406,0.3263152837753296
-0.14855340668785877,-0.2978437711162224,0,0.3425636412344173,0,-1.0976792004553564,0,-1.5813196127817686,0,-1.0471975511965976,1.5707963267948966,-0.16936472058296204,-0.48226767778396606,0.34940066933631897
-0.27295118621389775,0.3303587582489176,0,-0.5577057671430528,0,0.6610175441798536,0,-1.6129227519157094,0,-1.0471975511965976,1.5707963267948966,-0.22732648253440857,-0.486807644367218,0.3207080364227295
0.017601193269239868,0.060056973667076186,0,-0.6713504818051421,0,-0.32553962372158485,0,-1.1523303341685631,0,-1.0471975511965976,1.5707963267948966,-0.265042245388031,-0.49053454399108887,0.3204398453235626
0.03992039013127674,0.32227559525020033,0,-0.20630128733051534,0,-0.5007724838769135,0,-1.3484334289481161,0,-1.0471975511965976,1.5707963267948966,-0.2875990867614746,-0.46661946177482605,0.3467082679271698
0.24512362818469974,0.6639049980804648,0,0.7160975435003167,0,-0.6914835010567397,0,-1.121002692879099,0,-1.0471975511965976,1.5707963267948966,-0.25515279173851013,-0.5082193613052368,0.34448811411857605
0.10297942911207125,0.060013177616026425,0,-0.7166415413377789,0,0.05549471881433532,0,-1.5236129296429164,0,-1.0471975511965976,1.5707963267948966,-0.2665713429450989,-0.5414868593215942,0.3504329025745392
-0.2919609841156831,0.22544676809540354,0,0.2864615257346783,0,0.34190643168150237,0,-1.3954258292497483,0,-1.0471975511965976,1.5707963267948966,0.24218806624412537,-0.5882745385169983,0.3804193139076233
0.16962124370417486,0.4434666661230737,0,-0.7728334638268396,0,0.7172731988040997,0,-1.7709689029996372,0,-1.0471975511965976,1.5707963267948966,0.13792070746421814,-0.6351568698883057,0.3843128979206085
-0.09810273058459687,-0.6061871006537056,0,0.6098427218130418,0,-0.309091735501277,0,-1.1691312595758419,0,-1.0471975511965976,1.5707963267948966,0.10844109952449799,-0.5988721251487732,0.34611204266548157
-0.20745389707122938,0.7263640267909264,0,0.6813919370422499,0,-0.49425537572759837,0,-1.6723941129129536,0,-1.0471975511965976,1.5707963267948966,0.07920177280902863,-0.5506502389907837,0.3495608866214752
0.07699596750261406,0.2896662011413147,0,-0.9011496280656469,0,0.21604304936799612,0,-1.1848373123920557,0,-1.0471975511965976,1.5707963267948966,0.04880840703845024,-0.5347974896430969,0.3619418144226074
-0.22165179429166593,-0.7033159545494894,0,-1.0256773581497298,0,-0.5869832416213747,0,-1.2728312776191653,0,-1.0471975511965976,1.5707963267948966,0.0013575860066339374,-0.5335593819618225,0.3321802318096161
-0.25116129376164853,0.4536293839439849,0,-0.8380808647232265,0,-0.6414486757663191,0,-1.1197511632222032,0,-1.0471975511965976,1.5707963267948966,0.020472725853323936,-0.5573877096176147,0.2998865842819214
-0.029757652528706546,-0.604174204335188,0,-0.24635053203554869,0,-1.3792722202882473,0,-1.3562094597429741,0,-1.0471975511965976,1.5707963267948966,0.039817120879888535,-0.5547348260879517,0.2428668886423111
0.02129958238344354,0.33886709208268706,0,-0.11644477408120468,0,-0.3511471563067814,0,-1.8753851725337993,0,-1.0471975511965976,1.5707963267948966,0.05023470148444176,-0.5171739459037781,0.21399278938770294
-0.26320506311127595,-0.44892485541968785,0,-1.1942311288310672,0,0.08211923918706043,0,-1.814492591683747,0,-1.0471975511965976,1.5707963267948966,0.028189808130264282,-0.5229672193527222,0.22343561053276062
-0.2545933184202797,0.7048202526272342,0,0.24310573737495567,0,-0.21401251961730527,0,-1.5315148759986532,0,-1.0471975511965976,1.5707963267948966,0.017230430617928505,-0.5379737019538879,0.22647331655025482
-0.18593695363806667,-0.41858923617912364,0,0.6070582966728235,0,0.2869496359839214,0,-1.2986696652209337,0,-1.0471975511965976,1.5707963267948966,0.048571374267339706,-0.38642042875289917,0.249668687582016
-0.2403806453972147,0.08600570560552467,0,0.4568932106953121,0,-0.7687113749957807,0,-1.3541184640423078,0,-1.0471975511965976,1.5707963267948966,-0.0728798657655716,-0.6894878149032593,0.37765952944755554
0.2942989589506157,-0.3420499380139928,0,0.7331626781334086,0,0.28890757499285824,0,-1.3412071672148351,0,-1.0471975511965976,1.5707963267948966,-0.11394470930099487,-0.6491143703460693,0.3282773792743683
0.21776249682926468,0.08425326748280104,0,-0.28810751917501687,0,-0.08090032729391483,0,-1.8582257178602504,0,-1.0471975511965976,1.5707963267948966,-0.15217044949531555,-0.6277861595153809,0.298168420791626
0.07120286724347452,-0.5740443884826121,0,-1.1588184013975735,0,0.8413514758415384,0,-1.8543441383832546,0,-1.0471975511965976,1.5707963267948966,-0.188969224691391,-0.5871127843856812,0.3128613233566284
-0.03390588699212477,0.31057715847294576,0,0.2787580000222687,0,-0.10566439579048237,0,-1.2472105390172272,0,-1.0471975511965976,1.5707963267948966,-0.2196771502494812,-0.540047287940979,0.31312108039855957
0.05944272861392125,0.5421114452065279,0,-0.6163083950362931,0,-0.9730716569013272,0,-1.1201279543874505,0,-1.0471975511965976,1.5707963267948966,-0.25028175115585327,-0.4675431549549103,0.30263614654541016
0.22615556970862732,0.35632121089165825,0,-0.5964508534930401,0,0.20400512865464604,0,-1.883964705852355,0,-1.0471975511965976,1.5707963267948966,-0.2790363132953644,-0.41879311203956604,0.28468257188796997
0.1661210179374225,-0.6847196726582976,0,0.4501765802504971,0,0.40031965773289113,0,-1.3443193716856046,0,-1.0471975511965976,1.5707963267948966,-0.2967531681060791,-0.39769527316093445,0.23479300737380981
-0.12713878119242306,-0.7586048897277726,0,0.7670909614097741,0,-0.27906661139656497,0,-1.7505434226757177,0,-1.0471975511965976,1.5707963267948966,-0.2998863458633423,-0.34636542201042175,0.23707710206508636
-0.1724684926055208,-0.0014346209528908194,0,0.37819417233521646,0,0.7259412004234302,0,-1.8631114439653218,0,-1.0471975511965976,1.5707963267948966,-0.2966616451740265,-0.3086458444595337,0.2585974931716919
-0.07275062209298644,0.23865262486502203,0,-1.0893814723431574,0,0.3224752654389267,0,-1.5384312418579817,0,-1.0471975511965976,1.5707963267948966,-0.2990570664405823,-0.29496780037879944,0.2998071014881134
-0.15491273980684597,0.40810148061007756,0,-1.1879650354871583,0,-0.2637041413694514,0,-1.5110020624321232,0,-1.0471975511965976,1.5707963267948966,-0.30591994524002075,-0.2784869074821472,0.3531254827976227
-0.020050382445661707,-0.4571635276254991,0,-0.3781121270443577,0,-0.4114118995350684,0,-1.6950023941224974,0,-1.0471975511965976,1.5707963267948966,-0.3070153295993805,-0.2848378121852875,0.34373852610588074
-0.1778373278658007,-0.6002944726006746,0,0.7432413112737983,0,-0.6046745034590916,0,-1.863517624465929,0,-1.0471975511965976,1.5707963267948966,-0.29682251811027527,-0.3230639100074768,0.2899762690067291
-0.020584044806358004,0.36396540403095146,0,0.7238163747891264,0,0.6290945239466323,0,-1.5193577895729387,0,-1.0471975511965976,1.5707963267948966,-0.2804858386516571,-0.3853459656238556,0.2576417922973633
-0.16094104098703302,0.4105919336206729,0,-0.024725476799279722,0,0.41582994908666326,0,-1.6513223783106672,0,-1.0471975511965976,1.5707963267948966,-0.2713838815689087,-0.43390029668807983,0.26193270087242126
0.10339905901733126,0.4130842945994915,0,0.3784587636611296,0,-0.41342528816709323,0,-1.304298994006611,0,-1.0471975511965976,1.5707963267948966,-0.265303373336792,-0.4313524067401886,0.3279542028903961
-0.12775866050245543,-0.42696323746215725,0,-1.1138074819479442,0,0.8389810731290861,0,-1.2262534500258688,0,-1.0471975511965976,1.5707963267948966,-0.20258070528507233,-0.5082957744598389,0.31423142552375793
-0.14697182967586675,0.26823755772667335,0,0.4638181426166075,0,-0.04259689041215964,0,-1.841460358517534,0,-1.0471975511965976,1.5707963267948966,-0.20474380254745483,-0.49084386229515076,0.2546122670173645
0.199251693419969,-0.2507045789335747,0,0.7976061974712392,0,-1.3437264383791967,0,-1.812268913368022,0,-1.0471975511965976,1.5707963267948966,-0.20666643977165222,-0.45543161034584045,0.23848897218704224
-0.2101506542484773,0.45852590614250044,0,0.028944123545913802,0,-1.42740719693685,0,-1.6835692550886119,0,-1.0471975511965976,1.5707963267948966,-0.20828256011009216,-0.48765650391578674,0.221351757645607
0.015064459594973434,0.45449656631931834,0,0.8727911897219294,0,-0.8668940380479888,0,-1.8828347570242054,0,-1.0471975511965976,1.5707963267948966,-0.134013369679451,-0.36209195852279663,0.15102028846740723
0.040841940827942236,0.2551088585378838,0,0.07338587274713171,0,-1.0703915266013633,0,-1.8391256459021454,0,-1.0471975511965976,1.5707963267948966,-0.13848675787448883,-0.36417195200920105,0.20933760702610016
0.2288055730141712,0.13741568129870463,0,-1.1660994161356169,0,-0.5974078374537938,0,-1.7811542749881568,0,-1.0471975511965976,1.5707963267948966,-0.1450653076171875,-0.4335145950317383,0.24851925671100616
0.287697650221399,0.43946853960488896,0,-0.9646820095061648,0,0.256116809961765,0,-1.2657220487199428,0,-1.0471975511965976,1.5707963267948966,-0.13707652688026428,-0.49641865491867065,0.24843299388885498
0.11103911401720984,-0.17731465612641384,0,0.5288560472642672,0,0.025548613680514975,0,-1.7899428831971658,0,-1.0471975511965976,1.5707963267948966,-0.111330546438694,-0.49604955315589905,0.24114665389060974
0.2844549330882848,-0.2849185799096773,0,-0.8476958476390395,0,-1.409115627291537,0,-1.2708816597587487,0,-1.0471975511965976,1.5707963267948966,-0.07107025384902954,-0.4756411910057068,0.2332720309495926
0.21291899976487288,-0.011248453330314767,0,-1.1633074119365736,0,-1.0639859427636305,0,-1.1516073128987978,0,-1.0471975511965976,1.5707963267948966,-0.02720341645181179,-0.4725079834461212,0.2357071340084076
0.2778015294514415,-0.49111907117791953,0,0.738840397758395,0,0.07858677981207429,0,-1.1781470468046016,0,-1.0471975511965976,1.5707963267948966,0.0025248269084841013,-0.45584914088249207,0.20626859366893768
0.17731975487673152,0.6494704325050444,0,-1.0495918937559452,0,-0.9798760133668385,0,-1.6774519741527478,0,-1.0471975511965976,1.5707963267948966,0.010224801488220692,-0.3169795572757721,0.20191031694412231
0.1177380691484663,0.1869109824271291,0,-0.06661597170373112,0,0.36849746995623356,0,-1.412116238390227,0,-1.0471975511965976,1.5707963267948966,-0.0074899764731526375,-0.2569286525249481,0.23203632235527039
0.2804006656618702,-0.2126383584834146,0,0.6133280887646388,0,0.10035045965348477,0,-1.6362746371245946,0,-1.0471975511965976,1.5707963267948966,-0.025302618741989136,-0.23030172288417816,0.22111910581588745
0.12028480727704738,0.18048115097062123,0,-0.6320049917852454,0,-0.4006584741461965,0,-1.4881282437807646,0,-1.0471975511965976,1.5707963267948966,-0.03406108543276787,-0.20270861685276031,0.23944717645645142
0.09785757313324334,0.3264179415576429,0,0.1405081338905354,0,-0.6937622775564333,0,-1.750345053517477,0,-1.0471975511965976,1.5707963267948966,-0.04006722569465637,-0.2024940401315689,0.2556297779083252
-0.24236155932299142,0.3518513628828248,0,-0.5163652361337207,0,0.759990243578464,0,-1.8669088967665541,0,-1.0471975511965976,1.5707963267948966,-0.042616233229637146,-0.2380893975496292,0.22986572980880737
0.22714519233212532,-0.7990958835358777,0,0.6552539513091469,0,-0.37182639417079355,0,-1.3705418437775458,0,-1.0471975511965976,1.5707963267948966,-0.03125223517417908,-0.2752358615398407,0.2348937839269638
0.03676919088958813,-0.39225084746226546,0,0.5688214428436809,0,-0.4224617722908306,0,-1.6599724868931496,0,-1.0471975511965976,1.5707963267948966,-0.006094705779105425,-0.2895568907260895,0.2769354283809662
0.018057995291473172,-0.08453989152027752,0,-0.37072438350560444,0,-0.9507469692492814,0,-1.3358131485572327,0,-1.0471975511965976,1.5707963267948966,0.02336692065000534,-0.31646445393562317,0.34391888976097107
0.21754251204797442,-0.026039871948398408,0,0.4811622481503097,0,0.6813498030647416,0,-1.6587456974639982,0,-1.0471975511965976,1.5707963267948966,0.047105126082897186,-0.4720342457294464,0.3509994447231293
0.10354881522380555,0.6987951862360204,0,0.46183618759266754,0,-1.2539983257408198,0,-1.68052082137667,0,-1.0471975511965976,1.5707963267948966,0.04086651653051376,-0.5495228171348572,0.2777549922466278
-0.24157089182322997,0.24371560434867123,0,-0.8785536820636162,0,-0.4342594482370754,0,-1.2694703217478316,0,-1.0471975511965976,1.5707963267948966,0.03120069019496441,-0.5972293615341187,0.2631281614303589
-0.03650314890236189,0.7805734058155263,0,-0.6389089485528915,0,-0.42389908716369185,0,-1.2396420192232438,0,-1.0471975511965976,1.5707963267948966,0.031646452844142914,-0.6222435832023621,0.25434744358062744
-0.04964044217598884,0.731112634489574,0,-0.2686200915872229,0,-0.9390887225878067,0,-1.394769185129325,0,-1.0471975511965976,1.5707963267948966,0.04601875692605972,-0.6138758063316345,0.2298855483531952
-0.23551698993620274,-0.20323471889258438,0,0.40914182630494134,0,-1.0656316694852415,0,-1.5108425325494617,0,-1.0471975511965976,1.5707963267948966,0.18270829319953918,-0.5573621988296509,0.2771856486797333
0.1867032843839887,-0.3565078390872243,0,-0.9175348065338303,0,-0.6112204989541168,0,-1.8288233085221972,0,-1.0471975511965976,1.5707963267948966,0.1935894936323166,-0.5409517884254456,0.3233640491962433
-0.29276979374753576,0.7191134485451631,0,-0.055367678699375755,0,0.281588343304245,0,-1.3443415297111816,0,-1.0471975511965976,1.5707963267948966,0.18701311945915222,-0.5640828013420105,0.3152402639389038
-0.07337810306984743,0.34510941510309445,0,0.20711898314986898,0,0.4617160777116185,0,-1.7375790032695246,0,-1.0471975511965976,1.5707963267948966,0.1679796725511551,-0.560149073600769,0.3083992600440979
-0.22005500365597025,0.457229865936559,0,0.3405499375611831,0,0.1329499374207579,0,-1.3165529341050028,0,-1.0471975511965976,1.5707963267948966,0.1537163108587265,-0.5353993773460388,0.3521617352962494
-0.011375787056408349,0.32725911247681694,0,-1.0512427954002324,0,-1.1087248342845881,0,-1.8681026957492641,0,-1.0471975511965976,1.5707963267948966,0.12717121839523315,-0.7248643040657043,0.37934786081314087
-0.2661378797594321,-0.19350104999113582,0,0.5166231137227231,0,-0.4788511190237259,0,-1.7827302386916888,0,-1.0471975511965976,1.5707963267948966,0.10575684905052185,-0.7467254996299744,0.3677850365638733
-0.14715097766200286,0.3551558680995621,0,0.29547421530072526,0,-0.9950559331309135,0,-1.318744491596017,0,-1.0471975511965976,1.5707963267948966,0.08888708800077438,-0.7832608819007874,0.3264182209968567
0.15852907112196335,-0.5449234743711473,0,0.7142456623116111,0,0.5728809842564992,0,-1.6362546201188848,0,-1.0471975511965976,1.5707963267948966,0.06798020005226135,-0.7984983325004578,0.31943947076797485
-0.19380103144169764,-0.49188568721379,0,-1.1018400823500827,0,-0.7764578679160278,0,-1.8086761856457179,0,-1.0471975511965976,1.5707963267948966,0.05255812034010887,-0.7965468168258667,0.3324112594127655
0.27582568856948003,-0.39543281947526854,0,-0.8764099321844289,0,-0.37402713010623234,0,-1.6121840512118846,0,-1.0471975511965976,1.5707963267948966,0.027543900534510612,-0.7856773734092712,0.3819786310195923
0.21286190031840352,0.15541126227483648,0,0.15812726237625552,0,-1.1704896896524586,0,-1.599200798781815,0,-1.0471975511965976,1.5707963267948966,-0.01232218835502863,-0.7968541979789734,0.36826881766319275
-0.2631124805785466,0.6941899471362307,0,-0.07627280592087837,0,0.13605672111463685,0,-1.4196561770077383,0,-1.0471975511965976,1.5707963267948966,-0.0627603530883789,-0.798980712890625,0.33214277029037476
0.1926453616907312,0.1873610490772426,0,-0.36816405984305234,0,-0.9656721344600895,0,-1.232279137263603,0,-1.0471975511965976,1.5707963267948966,-0.10323064774274826,-0.7917013168334961,0.30545347929000854
-0.21972995477027962,-0.7587224698102564,0,-0.8306839265717808,0,-1.3937183417730818,0,-1.1145146734302016,0,-1.0471975511965976,1.5707963267948966,-0.12976716458797455,-0.7574291825294495,0.314715713262558
0.24277916546316985,-0.49537592100094924,0,0.7480826355701642,0,-1.426068539425132,0,-1.6417605072606052,0,-1.0471975511965976,1.5707963267948966,-0.14497800171375275,-0.7435320615768433,0.26458388566970825
0.07333676352919616,0.7184594991711448,0,0.5259198284972975,0,-1.1839533335931614,0,-1.7412911588291784,0,-1.0471975511965976,1.5707963267948966,-0.18310081958770752,-0.44435080885887146,0.25005146861076355
-0.15106410681045865,0.6816466254493116,0,-0.7872592705957707,0,0.4898468629883339,0,-1.447467013142789,0,-1.0471975511965976,1.5707963267948966,-0.15276925265789032,-0.4231888949871063,0.26414668560028076
-0.16737929484238132,0.6131159159103037,0,0.4043218038951797,0,0.4060756844882403,0,-1.8860422432316186,0,-1.0471975511965976,1.5707963267948966,-0.11636266857385635,-0.41373947262763977,0.2719447612762451
0.18859806863544476,0.209239745426411,0,-0.02055661535111919,0,-1.146809475184837,0,-1.3067000572839045,0,-1.0471975511965976,1.5707963267948966,-0.06922654807567596,-0.38959795236587524,0.2934885323047638
0.20854815512129504,-0.6391125442399557,0,-0.15379962776890177,0,-0.4179608505811072,0,-1.3465782465514282,0,-1.0471975511965976,1.5707963267948966,-0.007325156591832638,-0.39971739053726196,0.302411288022995
0.09905028401542881,0.23440093902729342,0,0.529017124675357,0,-0.23840943744696408,0,-1.8257420222259082,0,-1.0471975511965976,1.5707963267948966,0.04944680631160736,-0.39641839265823364,0.2911486327648163
-0.16126669380627337,-0.2867884930600646,0,-0.4320242180944097,0,0.8487369732151289,0,-1.7569683298680836,0,-1.0471975511965976,1.5707963267948966,0.09377963095903397,-0.3865302503108978,0.3001113831996918
0.11776106673027231,-0.34775816224850103,0,-0.24600832280298301,0,0.7506050318660102,0,-1.202229095364527,0,-1.0471975511965976,1.5707963267948966,0.12920241057872772,-0.38263487815856934,0.33943232893943787
0.0023671955074452966,-0.2290859332898615,0,0.6013040031072601,0,0.5769640350642631,0,-1.4845791408279374,0,-1.0471975511965976,1.5707963267948966,0.12840232253074646,-0.5428272485733032,0.36007726192474365
0.046655828304032865,-0.5093463044701323,0,-1.0769994805976524,0,-0.7622996541719256,0,-1.596691301397808,0,-1.0471975511965976,1.5707963267948966,0.09818124771118164,-0.5981279611587524,0.2874246835708618
0.2934168972580367,-0.12435227424813322,0,-0.3648501092417733,0,-0.05732741067763669,0,-1.4352510402641476,0,-1.0471975511965976,1.5707963267948966,0.05386734753847122,-0.6320707201957703,0.2564682066440582
0.10855918488203536,-0.45009552183823376,0,-0.03478132154113034,0,0.051747028850920085,0,-1.6723732455884561,0,-1.0471975511965976,1.5707963267948966,-0.16386061906814575,-0.6216990947723389,0.27002468705177307
-0.20384069777427669,0.7719870370271908,0,0.7975041451392668,0,-0.7523737807640161,0,-1.534259350164095,0,-1.0471975511965976,1.5707963267948966,-0.2176400125026703,-0.5960897207260132,0.28829407691955566
0.18910306847804587,0.5945327903840167,0,0.11341130080173434,0,-0.47369594510618585,0,-1.618975241504346,0,-1.0471975511965976,1.5707963267948966,-0.2724035382270813,-0.5828123688697815,0.33057865500450134
0.08977619702208944,-0.46185649925049366,0,-0.09583433332919733,0,0.6364386071150594,0,-1.106190217521373,0,-1.0471975511965976,1.5707963267948966,-0.3166964054107666,-0.5842047333717346,0.37373441457748413
0.19773808313343832,-0.054702350283025836,0,-0.6001278366012512,0,0.3970556854165077,0,-1.5570194347828457,0,-1.0471975511965976,1.5707963267948966,-0.422241747379303,-0.649527370929718,0.3760504424571991
0.09045642150554839,-0.55814474567814,0,0.6445305786522657,0,-0.1437939334128988,0,-1.5351806928538871,0,-1.0471975511965976,1.5707963267948966,-0.3984780013561249,-0.6304985284805298,0.341012567281723
-0.00015221817491678502,-0.0487698075804609,0,0.0554105652823671,0,-0.3482944118912372,0,-1.3503336531702894,0,-1.0471975511965976,1.5707963267948966,-0.36222633719444275,-0.6006428003311157,0.35535475611686707
-0.017181796337072452,0.6074212608709613,0,-1.1471352993408004,0,0.8070482658102807,0,-1.5206281537835014,0,-1.0471975511965976,1.5707963267948966,-0.2416645586490631,-0.6158428192138672,0.33522459864616394
-0.18985945395891524,0.6772541741330478,0,-0.8146454289054397,0,-1.1768575253584324,0,-1.1857753777814577,0,-1.0471975511965976,1.5707963267948966,-0.2004593312740326,-0.6126744747161865,0.2909436523914337
0.16781832805440544,0.4042717182417279,0,-0.8116663811516152,0,0.13799890020885863,0,-1.6097903613990474,0,-1.0471975511965976,1.5707963267948966,-0.15199014544487,-0.5677581429481506,0.25977882742881775
0.266833831204152,-0.41814240194233626,0,-1.0828787878229869,0,0.3949746414777462,0,-1.3158354250468907,0,-1.0471975511965976,1.5707963267948966,0.19648563861846924,-0.47610339522361755,0.2556498050689697
0.008259318861577769,0.17722158484660455,0,0.44694858271640303,0,-0.1931307987869093,0,-1.7107941094197268,0,-1.0471975511965976,1.5707963267948966,0.23885853588581085,-0.4283612072467804,0.3422330617904663
-0.021180223921015207,-0.6787119967205298,0,-0.4010422868253708,0,-0.7626695794870257,0,-1.7886459165507964,0,-1.0471975511965976,1.5707963267948966,0.2744119465351105,-0.434440940618515,0.36502715945243835
0.28097498916591884,-0.0919770593119068,0,0.8053392591898347,0,-0.3075386231931416,0,-1.5108605024014876,0,-1.0471975511965976,1.5707963267948966,0.27590712904930115,-0.48725882172584534,0.3408071994781494
0.06686178889222594,0.7312792539642745,0,0.6475163675069424,0,0.36803587696362383,0,-1.380856407651867,0,-1.0471975511965976,1.5707963267948966,0.2597000002861023,-0.5333502888679504,0.33201515674591064
-0.08305762868820546,0.01529095351466836,0,-1.1401266798091578,0,-0.4715095691965683,0,-1.7559371112698332,0,-1.0471975511965976,1.5707963267948966,-0.02506181225180626,-0.48867523670196533,0.30519381165504456
0.18795100099933204,-0.3249459088589284,0,0.399696762526204,0,-0.14336645064548947,0,-1.6880477357932488,0,-1.0471975511965976,1.5707963267948966,0.01751050353050232,-0.4650498032569885,0.2066071480512619
-0.17416824340525433,-0.19381306675980792,0,0.7497633170413718,0,0.6506463379538385,0,-1.365236403119836,0,-1.0471975511965976,1.5707963267948966,-0.19019465148448944,-0.514938473701477,0.2245098054409027
0.10843827840051157,0.055002870698709794,0,0.6459235195060549,0,-1.4324357838121355,0,-1.3379467922999815,0,-1.0471975511965976,1.5707963267948966,-0.23408661782741547,-0.5600774884223938,0.2518444359302521
0.13576802289162054,0.39419940582462676,0,0.42187730487215536,0,0.024319326329346636,0,-1.7719039050130838,0,-1.0471975511965976,1.5707963267948966,-0.2626790404319763,-0.5833847522735596,0.3109810948371887
-0.26812391909583344,-0.556587224053809,0,-1.001739735414726,0,-0.9435122152532859,0,-1.6347571775149914,0,-1.0471975511965976,1.5707963267948966,-0.27365514636039734,-0.6270195245742798,0.3375897705554962
0.08385295394267328,-0.47519693469650054,0,-0.525598429084385,0,-0.25223154038745865,0,-1.8668474682345848,0,-1.0471975511965976,1.5707963267948966,-0.2736086845397949,-0.7088607549667358,0.3458540141582489
0.11170440062440684,-0.5697041615226504,0,-0.5916250856111211,0,-0.934238320795244,0,-1.2072823900775989,0,-1.0471975511965976,1.5707963267948966,-0.2930445373058319,-0.7590696811676025,0.29358765482902527
0.04730765713236723,0.7307302285092325,0,0.3350198788702521,0,-1.340779862343212,0,-1.8082667170106648,0,-1.0471975511965976,1.5707963267948966,-0.32654640078544617,-0.7647795677185059,0.2572609782218933
0.28076556125524527,-0.3390022638333964,0,0.31478363958461797,0,-1.112541439649212,0,-1.6510605829204277,0,-1.0471975511965976,1.5707963267948966,-0.4248247444629669,-0.6587454080581665,0.22554460167884827
0.08560157442506428,-0.679357270869221,0,-1.1144130696348264,0,0.5121451533914654,0,-1.4102900468771056,0,-1.0471975511965976,1.5707963267948966,-0.4321228265762329,-0.5688759088516235,0.3070547878742218
0.1444933555364774,-0.5802996023761969,0,0.32775068258234774,0,0.4016845712154411,0,-1.7305441098344525,0,-1.0471975511965976,1.5707963267948966,-0.4812898635864258,-0.4134158790111542,0.3448261320590973
0.16151862911112574,0.3471679559691585,0,-0.409219560109664,0,-0.11495435590131686,0,-1.4511139036268454,0,-1.0471975511965976,1.5707963267948966,-0.49135562777519226,-0.39693760871887207,0.3390797972679138
0.10391664112725107,0.11891697949206803,0,-0.5240691278895694,0,0.40651619943608264,0,-1.6955639915180367,0,-1.0471975511965976,1.5707963267948966,-0.4510725438594818,-0.4378291070461273,0.334205687046051
0.19762201457158657,0.42674101394319686,0,0.03593193485832735,0,-0.7685184630135378,0,-1.571867217968599,0,-1.0471975511965976,1.5707963267948966,-0.435603529214859,-0.4440077245235443,0.26856139302253723
-0.10136523963239266,-0.3966746182768335,0,-0.8452622410188113,0,0.4092014836801461,0,-1.6691966710765243,0,-1.0471975511965976,1.5707963267948966,-0.4084083139896393,-0.44953635334968567,0.24519096314907074
0.05889737983572496,0.22871452674698944,0,0.7391582030641748,0,0.41701348079590694,0,-1.5951103014385932,0,-1.0471975511965976,1.5707963267948966,-0.36797353625297546,-0.44384726881980896,0.23944860696792603
0.198258790912275,-0.27540493390063936,0,-0.7659387836475469,0,0.7262615628788984,0,-1.4681045353084143,0,-1.0471975511965976,1.5707963267948966,-0.32537737488746643,-0.4184545576572418,0.2466089427471161
-0.031398233766115,0.6794573584219359,0,-0.5090876838971591,0,0.1362995798641795,0,-1.6825529005996358,0,-1.0471975511965976,1.5707963267948966,-0.28064918518066406,-0.377265065908432,0.28188130259513855
0.1381532078137776,-0.40321193908734226,0,0.7678961930702233,0,0.24243993392290641,0,-1.2305014930294353,0,-1.0471975511965976,1.5707963267948966,-0.2365182638168335,-0.3419301211833954,0.30219608545303345
-0.09872385947895207,0.3054664795980677,0,-1.0156073154881506,0,0.11692402309434669,0,-1.1819380164243256,0,-1.0471975511965976,1.5707963267948966,-0.10603360086679459,-0.35288456082344055,0.3037208616733551
0.1442718237005074,0.4471073948828992,0,-0.25268886895451426,0,0.16357813228906526,0,-1.5220147637775083,0,-1.0471975511965976,1.5707963267948966,-0.055413197726011276,-0.3702645003795624,0.2969586253166199
-0.20370946849644278,-0.42968263758576647,0,-0.46221722340640614,0,-1.2599634767616437,0,-1.860130693121202,0,-1.0471975511965976,1.5707963267948966,0.004182520322501659,-0.3530055582523346,0.292130708694458
-0.13852274418843655,0.5267129774433532,0,0.4732965431254792,0,-0.7739259834018064,0,-1.3653438900252932,0,-1.0471975511965976,1.5707963267948966,0.07468865811824799,-0.36057671904563904,0.29456791281700134
-0.18649758849413473,0.031192565640901337,0,0.4903378601078707,0,-1.443715148581354,0,-1.3745986075044092,0,-1.0471975511965976,1.5707963267948966,0.1481018215417862,-0.4065494239330292,0.24853673577308655
-0.1715786347381493,0.5232178686421967,0,-0.8733959878226002,0,-0.6875253238323679,0,-1.863132773343265,0,-1.0471975511965976,1.5707963267948966,0.22189106047153473,-0.44929659366607666,0.23011642694473267
-0.24424164805174,0.6480257760118993,0,-0.7834348443102832,0,-1.1860832891654212,0,-1.6137966725487236,0,-1.0471975511965976,1.5707963267948966,0.4244612455368042,-0.5246435403823853,0.19871842861175537
-0.19271404567236222,0.036536319552303076,0,0.5074548909465879,0,-1.1774151084667777,0,-1.3517336986942774,0,-1.0471975511965976,1.5707963267948966,0.4045356810092926,-0.43839070200920105,0.18229469656944275
-0.20813916723634424,0.32346924990516013,0,0.48122714747924844,0,0.8956266587990214,0,-1.4190408476539842,0,-1.0471975511965976,1.5707963267948966,0.37372297048568726,-0.42879343032836914,0.25230172276496887
0.29430414686570533,-0.20301395979787018,0,0.3672444711924274,0,-1.0300220906198256,0,-1.2038834461517038,0,-1.0471975511965976,1.5707963267948966,0.3307937979698181,-0.44967320561408997,0.3095530569553375
0.047031771175924275,0.3287409164954518,0,0.5680069827927379,0,-1.2207492449955542,0,-1.7630763287108533,0,-1.0471975511965976,1.5707963267948966,-0.04738921299576759,-0.39220818877220154,0.26371070742607117
