gmarotta2107/reinforcementLearning/datasets/Low_position_dataset.csv
joint_0,joint_1,joint_2,joint_3,joint_4,joint_5,joint_6,joint_7,joint_8,joint_9,joint_10,paddle_x,paddle_y,paddle_z
-0.09071245789527893,0.21051503717899323,2.8662758268183097e-05,-0.14747777581214905,-0.022266346961259842,-0.32683297991752625,-0.01665501482784748,-1.7053978443145752,0.00012017182598356158,-1.0472477674484253,1.5681371688842773,0.19554074108600616,-0.7176030874252319,0.31656143069267273
-0.11856772750616074,0.24856913089752197,2.3168960979091935e-05,-0.3245711624622345,-0.039579614996910095,-0.12546926736831665,-0.029599498957395554,-1.610296368598938,-0.0006306376308202744,-1.0473442077636719,1.5660637617111206,0.25388002395629883,-0.6611810326576233,0.2923130989074707
-0.08278360962867737,0.2711503803730011,1.8810940673574805e-05,-0.21219739317893982,-0.04244227334856987,-0.3374100625514984,-0.05390005558729172,-1.5086040496826172,-0.00017658401338849217,-1.0472612380981445,1.5636262893676758,0.30048924684524536,-0.5834607481956482,0.30929115414619446
-0.07811922580003738,0.281317800283432,1.5236861145240255e-05,-0.27632999420166016,-0.0591021329164505,-0.11153755336999893,-0.0648258700966835,-1.5613166093826294,-0.0010276793036609888,-1.0475294589996338,1.5615259408950806,0.3286084830760956,-0.5793800354003906,0.3222651779651642
-0.14353899657726288,0.18167607486248016,-0.0002113204973284155,-0.05121218413114548,0.004620020743459463,-0.5162186622619629,0.02614830620586872,-1.6855839490890503,-0.000543304136954248,-1.0475736856460571,1.573865532875061,0.1410297155380249,-0.790489137172699,0.3185628652572632
-0.13012108206748962,0.2371370792388916,-9.096654684981331e-05,-0.6350967884063721,-0.03074285201728344,0.20545907318592072,-0.0728214681148529,-1.5504752397537231,-0.0007840875769034028,-1.0533447265625,1.5638917684555054,0.27966514229774475,-0.541789710521698,0.23103389143943787
0.10550591349601746,0.08678976446390152,0.00010363418550696224,0.2726360857486725,0.01904153637588024,-0.6352317333221436,0.02519308589398861,-1.66801917552948,0.00039655715227127075,-1.0475984811782837,1.5718681812286377,0.0465075746178627,-0.623320996761322,0.3668322265148163
0.10916457325220108,0.10947123169898987,8.394369069719687e-05,0.3767962157726288,0.015606594271957874,-0.8706003427505493,0.014125330373644829,-1.664170265197754,0.0010445923544466496,-1.0477879047393799,1.5697352886199951,0.08613519370555878,-0.6899194717407227,0.30438488721847534
0.10339928418397903,0.11849412322044373,0.0003048114012926817,0.43754202127456665,0.012615286745131016,-0.9459676146507263,0.007803547196090221,-1.6632068157196045,0.0013822840992361307,-1.0476967096328735,1.5685276985168457,0.10656087845563889,-0.7371154427528381,0.2533990144729614
0.047282204031944275,0.11376917362213135,0.00024689722340554,0.22215363383293152,0.010405803099274635,-0.5874817967414856,0.003973783925175667,-1.7149361371994019,0.001439417595975101,-1.0476068258285522,1.568013072013855,0.11158759891986847,-0.7448521256446838,0.27961620688438416
-0.0013892404967918992,0.09413536638021469,0.00019998672360088676,0.11927136033773422,0.007192721590399742,-0.48407211899757385,-0.004015417769551277,-1.641861081123352,0.0019155695335939527,-1.047304630279541,1.566643476486206,0.10171021521091461,-0.6964083313941956,0.3529423475265503
0.018317339941859245,0.05960764363408089,0.00016198924276977777,0.23645858466625214,0.0018078482244163752,-0.6245923638343811,-0.012592168524861336,-1.5318738222122192,0.002520844107493758,-1.0480046272277832,1.5648994445800781,0.08001016825437546,-0.6815192699432373,0.3571704030036926
-0.11007531732320786,-0.024502312764525414,4.164275821949559e-07,-0.25370296835899353,-0.016087351366877556,-0.042821191251277924,0.0012647168477997184,-1.5626164674758911,0.00014573369116988033,-1.047654628753662,1.5697356462478638,-0.023177435621619225,-0.6789805293083191,0.3817705810070038
0.06677117198705673,0.10056538134813309,-6.930474683031207e-08,-0.49290433526039124,-0.005315934773534536,0.030690480023622513,-0.04355170577764511,-1.6522836685180664,0.00131815648637712,-1.0472838878631592,1.5668715238571167,0.11463778465986252,-0.35561615228652954,0.3077518343925476
0.030141979455947876,0.08410754799842834,-2.8120764383743335e-08,-0.6863580942153931,-0.004359538666903973,0.25050798058509827,-0.09254106134176254,-1.655556321144104,0.0021689797285944223,-1.0474456548690796,1.5630022287368774,0.1248631477355957,-0.3577146530151367,0.23834560811519623
0.008573243394494057,0.056090839207172394,-2.277781874227003e-08,-0.8986307978630066,0.0002613072283565998,0.6114228963851929,-0.11075019836425781,-1.5387938022613525,0.0009475476108491421,-1.0475075244903564,1.561131238937378,0.12000209838151932,-0.27694785594940186,0.23579080402851105
-0.03533666208386421,-0.17383573949337006,-6.259596557356417e-05,0.018897267058491707,-0.020182045176625252,-0.7109601497650146,-0.040115803480148315,-1.393432855606079,0.0003328468301333487,-1.0440815687179565,1.5648703575134277,-0.12570983171463013,-0.6125839352607727,0.30663785338401794
-0.029686590656638145,-0.22722551226615906,-5.070319093647413e-05,-0.06940820813179016,-0.04081582650542259,-0.5873894691467285,-0.036672282963991165,-1.4719969034194946,0.000191247439943254,-1.044716715812683,1.5635886192321777,-0.16615988314151764,-0.6088696122169495,0.2687530517578125
-0.03845011070370674,-0.2841298282146454,-0.0006036077393218875,-0.2117428183555603,-0.05427698791027069,-0.2704826593399048,-0.029803557321429253,-1.4991958141326904,-0.0011421131202951074,-1.0483237504959106,1.5642579793930054,-0.2166639268398285,-0.5669897198677063,0.2987397313117981
0.03659306466579437,-0.323577344417572,-0.0004889637348242104,-0.014332793653011322,-0.028210286051034927,-0.41377779841423035,-0.01541387289762497,-1.4906402826309204,-0.0004349458322394639,-1.0477982759475708,1.5673283338546753,-0.2736198306083679,-0.519708514213562,0.3610961437225342
-0.06104322522878647,0.1392206847667694,-9.959425369743258e-06,0.0472770519554615,-0.01924937218427658,-0.6248353719711304,0.004219318740069866,-1.5341436862945557,0.00015347974840551615,-1.04374098777771,1.5698610544204712,0.12912917137145996,-0.6804409623146057,0.35605496168136597
-0.07703665643930435,0.15306781232357025,-8.0671807154431e-06,-0.07906083017587662,-0.03549345210194588,-0.583452582359314,-0.001758106634952128,-1.6296004056930542,0.00042323602247051895,-1.04436457157135,1.567689299583435,0.1583162099123001,-0.7117858529090881,0.25976744294166565
-0.07908336073160172,0.13872195780277252,-3.78617255591962e-06,-0.27108725905418396,-0.06576540321111679,-0.21101588010787964,-0.015386530198156834,-1.599751591682434,-0.0021313705947250128,-1.0461513996124268,1.5658843517303467,0.17832691967487335,-0.6229151487350464,0.27645838260650635
-0.04026084393262863,0.10833880305290222,-3.066799763473682e-06,-0.19642387330532074,-0.06822701543569565,-0.33265218138694763,-0.037611838430166245,-1.5335283279418945,-0.0018257398623973131,-1.0462367534637451,1.5635732412338257,0.16848307847976685,-0.5711036920547485,0.31373023986816406
0.015909487381577492,0.09179255366325378,-2.4529856545996154e-06,-0.1327805519104004,-0.05491365119814873,-0.33242079615592957,-0.031131962314248085,-1.4632047414779663,-0.0014600519789382815,-1.0464227199554443,1.5648850202560425,0.1457880288362503,-0.5304171442985535,0.3270782232284546
0.11740094423294067,0.04055590182542801,9.776654042070732e-05,-0.03918006643652916,-0.001241179066710174,-0.49016687273979187,0.01843147724866867,-1.5649560689926147,-0.0002986816980410367,-1.0448981523513794,1.5732793807983398,0.02694546990096569,-0.4416961073875427,0.38270413875579834
0.06251095980405807,0.05830454081296921,7.906556857051328e-05,-0.1754448413848877,0.012247949838638306,-0.48984262347221375,0.015811802819371223,-1.6329190731048584,0.000369868241250515,-1.048362374305725,1.5734684467315674,0.03847939148545265,-0.5167509913444519,0.2630595564842224
0.0018584536155685782,0.05432918667793274,5.189502189750783e-05,-0.32369616627693176,-0.016467267647385597,-0.3171987235546112,-0.0006023544701747596,-1.4503636360168457,-0.001781486440449953,-1.0483808517456055,1.57061767578125,0.062399569898843765,-0.4660095274448395,0.24069972336292267
-0.0007776760612614453,0.0574016347527504,4.2034967918880284e-05,-0.3981684744358063,-0.012219353578984737,-0.039316561073064804,0.004596772138029337,-1.3735642433166504,-0.0015432002255693078,-1.0486559867858887,1.571173071861267,0.06263621896505356,-0.3984460234642029,0.3114617168903351
-0.0020454798359423876,-0.10341346263885498,4.110614554519998e-06,-0.4180893898010254,0.008213965222239494,0.12222576141357422,0.0492742583155632,-1.5917773246765137,-0.000876809295732528,-1.0468957424163818,1.577470064163208,-0.14768442511558533,-0.44670698046684265,0.3568679988384247
0.10380597412586212,-0.14247192442417145,4.450775747955049e-07,0.3220670223236084,-0.0027734278701245785,-0.8645100593566895,-0.037179283797740936,-1.5325981378555298,0.0011349525302648544,-1.0481401681900024,1.5649062395095825,-0.1027582436800003,-0.6398026943206787,0.2879122197628021
0.034330666065216064,-0.17236094176769257,3.6051284268978634e-07,0.17695166170597076,-0.0011675256537273526,-0.8939481973648071,-0.02572123147547245,-1.492215871810913,0.00011750702833523974,-1.047975778579712,1.567868947982788,-0.14383426308631897,-0.6507718563079834,0.27274826169013977
0.03927464783191681,-0.24174274504184723,5.939562470302917e-05,-0.8093740344047546,0.02935236506164074,0.44313564896583557,0.07235290110111237,-1.5334802865982056,0.003115495201200247,-1.0506259202957153,1.5765337944030762,-0.3039153516292572,-0.2821643054485321,0.20018106698989868
-0.16236944496631622,0.13339881598949432,6.5065974013123196e-06,-0.28195488452911377,-0.028808586299419403,-0.22935116291046143,-0.009874604642391205,-1.4215835332870483,0.000646307016722858,-1.0437124967575073,1.5647377967834473,0.14916418492794037,-0.6461853384971619,0.35927483439445496
-0.12259811162948608,0.11135950684547424,5.2703439905599225e-06,-0.3746964633464813,-0.03695724159479141,-0.334362268447876,-0.04146949201822281,-1.3558331727981567,0.0006067898939363658,-1.0436348915100098,1.5618443489074707,0.1540544182062149,-0.5413781404495239,0.3049108386039734
-0.10154847800731659,0.07693498581647873,1.0689598639146425e-05,-0.6090796589851379,-0.04547024145722389,-0.11664435267448425,-0.06925177574157715,-1.3724647760391235,-0.0001336407585768029,-1.0466896295547485,1.5593916177749634,0.14497625827789307,-0.46760696172714233,0.21211639046669006
-0.035580407828092575,0.02723356895148754,8.658575097797439e-06,-0.5836514830589294,-0.0415242575109005,-0.3082093298435211,-0.09958640486001968,-1.3185311555862427,0.00041011697612702847,-1.0466514825820923,1.5577980279922485,0.1194378212094307,-0.3873705267906189,0.15532231330871582
-0.007343788165599108,-0.006811983417719603,7.013446065684548e-06,-0.715115487575531,-0.03501986339688301,-0.13138477504253387,-0.08301392197608948,-1.3262014389038086,0.00023860741930548102,-1.0472224950790405,1.5599653720855713,0.07739708572626114,-0.32923081517219543,0.11614075303077698
0.024668361991643906,-0.02254331111907959,5.680891263182275e-06,-0.817681074142456,-0.027065163478255272,-0.031148873269557953,-0.0314827486872673,-1.4484871625900269,-0.0004809148667845875,-1.0471783876419067,1.5647797584533691,0.0289512500166893,-0.26869580149650574,0.09085032343864441
0.028598928824067116,-0.016561245545744896,2.87189322989434e-06,-1.1700493097305298,-0.01853344962000847,0.5313460826873779,0.07429677993059158,-1.4717544317245483,0.0006018800777383149,-1.304943323135376,1.6498304605484009,-0.040701013058423996,-0.16690713167190552,0.008489405736327171
0.11208885163068771,-0.0697743147611618,-5.0998634833376855e-05,-0.48352721333503723,-0.004523810464888811,-0.3084505498409271,0.019610555842518806,-1.395235300064087,0.00012623601651284844,-1.1024824380874634,1.5888826847076416,-0.07724713534116745,-0.260962575674057,0.15589620172977448
0.10951951891183853,-0.09333720803260803,-4.1308892832603306e-05,-0.4251157343387604,-0.012071647681295872,-0.2668860852718353,-0.008809860795736313,-1.4044808149337769,-0.00030289951246231794,-1.0922389030456543,1.5829432010650635,-0.07858728617429733,-0.2893903851509094,0.21258722245693207
0.10533753782510757,-0.13181187212467194,-3.348286554683e-05,-0.4416269063949585,-0.019885944202542305,-0.037668485194444656,-0.0450160913169384,-1.3762927055358887,-0.0001241092977579683,-1.0837329626083374,1.5768790245056152,-0.0901002362370491,-0.2745215892791748,0.279675155878067
-0.07880866527557373,0.0954909697175026,0.00035573382047005,-0.3447498679161072,0.036522671580314636,-0.2696828544139862,0.0624677874147892,-1.5413366556167603,-0.0005585627513937652,-1.0477088689804077,1.5797348022460938,0.030718280002474785,-0.5555124878883362,0.282863587141037
-0.09740173071622849,0.15532256662845612,0.00028829314396716654,-0.4966994524002075,0.042382627725601196,-0.11979648470878601,0.08475209027528763,-1.4394925832748413,-0.0002729522529989481,-1.047792911529541,1.5817269086837769,0.0700332298874855,-0.5144999623298645,0.24274976551532745
-0.056556057184934616,0.23007813096046448,0.00023351745039690286,-0.37000399827957153,0.03960192948579788,-0.39190495014190674,0.10487007349729538,-1.3701958656311035,-0.0005005750572308898,-1.0443438291549683,1.5829509496688843,0.12197206914424896,-0.4477848410606384,0.24196137487888336
-0.03680666163563728,0.2909257113933563,0.00018914914107881486,-0.28813210129737854,0.028171593323349953,-0.6760905385017395,0.08913835883140564,-1.3218629360198975,-0.0007940147188492119,-1.0432511568069458,1.5812890529632568,0.19427390396595,-0.4854210615158081,0.1916106939315796
-0.022431012243032455,0.05565844103693962,5.0559992814669386e-05,-0.6272270083427429,0.011774632148444653,-0.011010854505002499,-0.005537114571779966,-1.4730751514434814,0.002756120404228568,-1.0477995872497559,1.5697072744369507,0.040821537375450134,-0.39046141505241394,0.1296028345823288
0.031093494966626167,0.05346454679965973,-0.00011910812463611364,-0.47509121894836426,0.008702659048140049,0.06799108535051346,-0.043253425508737564,-1.388796329498291,0.0030968829523772,-1.0478453636169434,1.566694736480713,0.06195751577615738,-0.3169102966785431,0.2823435366153717
-0.022846609354019165,-0.008990760892629623,9.291491733165458e-05,-0.39265766739845276,0.0034327958710491657,-0.20781069993972778,0.07798466086387634,-1.503851294517517,-0.0013750051148235798,-1.0469043254852295,1.5786699056625366,-0.05265093594789505,-0.4395328164100647,0.30987125635147095
-0.013600913807749748,0.002392021007835865,7.526107947342098e-05,-0.5166111588478088,0.0032494075130671263,-0.08753776550292969,0.06451889127492905,-1.5653733015060425,-0.001128879957832396,-1.0469633340835571,1.577329397201538,-0.03755880519747734,-0.45003706216812134,0.23246832191944122
0.0003328197344671935,0.02315695211291313,6.096147626521997e-05,-0.5040204524993896,0.0040618074126541615,-0.19934068620204926,0.06501609086990356,-1.4730294942855835,-0.0011218013241887093,-1.0471022129058838,1.577170729637146,-0.01923273503780365,-0.40546002984046936,0.20713096857070923
0.012807813473045826,0.04615695774555206,0.0001792294206097722,-0.45202481746673584,0.004848583601415157,-0.45156216621398926,0.06115347146987915,-1.4324923753738403,-0.0008828103891573846,-1.0464413166046143,1.5767379999160767,0.0017641116864979267,-0.39997848868370056,0.17347437143325806
0.042128097265958786,0.014353122562170029,-3.5834327718475834e-05,-0.6615166068077087,0.00013438737369142473,0.1576145589351654,-0.18000100553035736,-1.51215398311615,0.0025537479668855667,-1.0478394031524658,1.5569779872894287,0.12342873215675354,-0.30626967549324036,0.1929512619972229
0.13359986245632172,0.15639375150203705,1.6082649381132796e-06,0.49709752202033997,0.006978267803788185,-0.7629472017288208,0.004750486463308334,-1.7995659112930298,0.0005367727717384696,-1.0476188659667969,1.569771647453308,0.16813677549362183,-0.7713174819946289,0.30881762504577637
0.17679637670516968,0.11574622988700867,2.2036618247511797e-05,0.603925883769989,0.006050219759345055,-0.7275983095169067,0.0015898512210696936,-1.7545920610427856,0.0006093801930546761,-1.0475417375564575,1.5693671703338623,0.13315895199775696,-0.7584079504013062,0.3102150559425354
-0.08237001299858093,-0.10780375450849533,-0.00013434630818665028,0.012999133206903934,0.03603707626461983,-0.5718735456466675,0.029272278770804405,-1.7112371921539307,-0.00013134386972524226,-1.046122431755066,1.5747907161712646,-0.13307666778564453,-0.7589907050132751,0.29219555854797363
-0.09989970177412033,-0.14525331556797028,-8.802056254353374e-05,-0.04143417626619339,0.0037534451112151146,-0.4185962975025177,0.012491647154092789,-1.5293740034103394,0.000547280244063586,-1.0474870204925537,1.5706560611724854,-0.14336524903774261,-0.7227424383163452,0.2982054352760315
-0.08194617927074432,0.07336747646331787,1.4213394933904056e-05,-0.16965526342391968,0.017683593556284904,-0.42372438311576843,0.04748890921473503,-1.5262129306793213,-0.0016104948008432984,-1.0447229146957397,1.576166033744812,0.042553696781396866,-0.5997771620750427,0.3084368407726288
-0.09046509861946106,0.10633116960525513,1.156455709860893e-05,-0.2136031836271286,0.04953683167695999,-0.37077033519744873,0.047895144671201706,-1.4572803974151611,0.0009367592865601182,-1.0453767776489258,1.5777372121810913,0.04912243038415909,-0.6024309396743774,0.28514567017555237
-0.04785018414258957,0.12371426075696945,9.976100045605563e-06,-0.13281747698783875,0.03767836093902588,-0.3950493335723877,0.03816716745495796,-1.4068660736083984,0.0006313573685474694,-1.046985149383545,1.5762169361114502,0.07199440151453018,-0.5560963153839111,0.3264135420322418
0.0129121458157897,0.12287814915180206,8.695944416103885e-06,-0.007341249380260706,0.006380440201610327,-0.5408024787902832,0.025732506066560745,-1.4108420610427856,-0.00044126660213805735,-1.0450471639633179,1.5731391906738281,0.09817764163017273,-0.5349884033203125,0.3552885353565216
0.04271272197365761,0.10742337256669998,7.043714504106902e-06,0.08583027124404907,-0.02076668106019497,-0.8112128973007202,0.012183932587504387,-1.3777258396148682,0.00016279512783512473,-1.0454047918319702,1.568994164466858,0.11164925992488861,-0.5425347685813904,0.31394410133361816
0.05206376686692238,0.07933904975652695,5.705459443561267e-06,0.02988097071647644,-0.039631836116313934,-0.8038982152938843,-9.279734513256699e-05,-1.4516370296478271,0.001817541429772973,-1.0458725690841675,1.5649157762527466,0.105660580098629,-0.57248854637146,0.23796039819717407
-0.026202190667390823,-0.06271853297948837,3.7903432712482754e-06,-0.26727163791656494,-0.00040195760084316134,-0.33637911081314087,0.005065205041319132,-1.551857829093933,0.00320326816290617,-1.0473012924194336,1.5691051483154297,-0.054588139057159424,-0.5342932343482971,0.22368648648262024
-0.03148382157087326,-0.05875533074140549,3.4787140066327993e-06,-0.2546879053115845,0.018375610932707787,-0.2399076372385025,0.024250660091638565,-1.5507757663726807,0.003402771195396781,-1.0456032752990723,1.5723148584365845,-0.07412990927696228,-0.5288621783256531,0.2939266562461853
0.009252450428903103,-0.06816446781158447,2.817758286255412e-06,-0.10933489352464676,0.012638569809496403,-0.35039910674095154,0.01992027275264263,-1.5566660165786743,0.0026556432712823153,-1.0440949201583862,1.5719151496887207,-0.08146680146455765,-0.5374662280082703,0.3294053077697754
0.015247909352183342,-0.09561469405889511,2.2823842300567776e-06,-0.03652336448431015,-0.010814209468662739,-0.48964956402778625,0.010757163166999817,-1.5503748655319214,0.0015001310966908932,-1.0436837673187256,1.569891333580017,-0.08815295994281769,-0.5602571368217468,0.33418822288513184
-0.002476675668731332,-0.1378902643918991,1.8487312445358839e-06,-0.08589950948953629,-0.03680581972002983,-0.5362316966056824,0.004790610168129206,-1.6046133041381836,0.0004444594378583133,-1.044195532798767,1.5679839849472046,-0.1083899587392807,-0.5995903611183167,0.2905914783477783
-0.1418924778699875,-0.2889254689216614,0.00010991672024829313,-0.3749083876609802,-0.0076658353209495544,-0.08917032182216644,0.005719550885260105,-1.401370882987976,-8.000777597771958e-05,-1.0463511943817139,1.5706758499145508,-0.2715437412261963,-0.5573822259902954,0.2989937365055084
-0.1991155445575714,-0.056349609047174454,6.457018753280863e-05,-0.3310900628566742,0.007834212854504585,-0.16977442800998688,0.019171088933944702,-1.6538206338882446,-0.0013536076294258237,-1.0460838079452515,1.574874758720398,-0.09366032481193542,-0.6993671655654907,0.3503265082836151
-0.20103110373020172,-0.025438904762268066,5.2301849791547284e-05,-0.4575892686843872,-0.002604805864393711,-0.25907689332962036,-0.007272229064255953,-1.5336819887161255,-0.0011249820236116648,-1.0462812185287476,1.5717644691467285,-0.04286334663629532,-0.6862942576408386,0.22506071627140045
-0.19485284388065338,-0.00996463093906641,4.2488329199841246e-05,-0.7072621583938599,-0.008265184238553047,0.07305485755205154,-0.04637954756617546,-1.5473841428756714,-0.0005645865458063781,-1.046671986579895,1.5680890083312988,-0.001516901422291994,-0.5880786180496216,0.1732192039489746
-0.13417735695838928,0.01867925003170967,3.441554508754052e-05,-0.831296980381012,-0.006856101099401712,0.3307228088378906,-0.04278087243437767,-1.6476436853408813,-0.0003065975324716419,-1.0468518733978271,1.5682176351547241,0.027756748721003532,-0.49593499302864075,0.15426288545131683
-0.07368990778923035,0.03801221027970314,2.787659286695998e-05,-0.7744619250297546,-0.004405549727380276,0.08717300742864609,-0.04950284585356712,-1.6020467281341553,-0.00035581100382842124,-1.0468652248382568,1.5674455165863037,0.05162092670798302,-0.4325242042541504,0.1401703655719757
0.05747480317950249,0.0744304284453392,-8.175471884896979e-05,-1.1064026355743408,-0.0010795521084219217,0.6523523926734924,-0.04782011732459068,-1.6566654443740845,-0.00017241251771338284,-1.0508041381835938,1.5671406984329224,0.09214960038661957,-0.24429666996002197,0.060851335525512695
0.023954153060913086,0.09959125518798828,-4.355976125225425e-05,-1.000286340713501,-0.0008229411323554814,0.5721893310546875,-0.01728607341647148,-1.6876510381698608,0.0002500060072634369,-1.1310230493545532,1.5690230131149292,0.10580744594335556,-0.26632311940193176,0.09813957661390305
-0.01743697188794613,0.11249613761901855,-3.530436151777394e-05,-0.9972476959228516,-0.0017769273836165667,0.5872250199317932,-0.009158292785286903,-1.6567944288253784,0.0007124780677258968,-1.114570140838623,1.569827914237976,0.1098194271326065,-0.2948654592037201,0.1267516314983368
-0.04749511927366257,0.139821857213974,-2.8596530682989396e-05,-0.9911466240882874,-0.002633212134242058,0.6434935927391052,-0.0022694149520248175,-1.5833368301391602,0.0011852430179715157,-1.101764440536499,1.5706067085266113,0.12707379460334778,-0.30028027296066284,0.14932136237621307
0.1625460386276245,0.10074031352996826,-0.0006589373224414885,-0.17512334883213043,-0.018475620076060295,-0.32433515787124634,-0.0012665080139413476,-1.5857999324798584,0.000927494082134217,-1.0489532947540283,1.5705500841140747,0.09746796637773514,-0.39555469155311584,0.32260099053382874
0.15571048855781555,0.1033780425786972,-0.0005337392212823033,-0.25875750184059143,-0.03325849398970604,-0.19595088064670563,-0.017114685848355293,-1.5712370872497559,0.0002149582578567788,-1.049456000328064,1.568051815032959,0.11944641172885895,-0.3602792024612427,0.3158912658691406
0.1370948851108551,0.1195395216345787,-0.000432328786700964,-0.3713901937007904,-0.027809228748083115,0.06390064209699631,-0.009508809074759483,-1.5558630228042603,-8.043226671361481e-07,-1.0507149696350098,1.5689181089401245,0.1320241242647171,-0.3128392994403839,0.35132840275764465
0.10490231215953827,0.11176694184541702,-0.00028199295047670603,-0.366057425737381,-0.026557791978120804,-0.09414296597242355,-0.056221138685941696,-1.5729633569717407,0.0014306692173704505,-1.0500297546386719,1.564406156539917,0.14771805703639984,-0.34085896611213684,0.3353521525859833
0.07476378232240677,0.11253202706575394,-0.00022753507073502988,-0.5258811712265015,-0.022677168250083923,0.16014829277992249,-0.05298493802547455,-1.602406620979309,0.0013511378783732653,-1.0498218536376953,1.564881443977356,0.14758512377738953,-0.33737823367118835,0.30268076062202454
0.10912971198558807,0.10316735506057739,-0.0001824351493269205,-0.37225377559661865,-0.018586821854114532,-0.0893302634358406,-0.05660203471779823,-1.522560477256775,0.0014332558494061232,-1.0501986742019653,1.5647636651992798,0.14190763235092163,-0.31799039244651794,0.3114338517189026
0.12446761131286621,-0.07168849557638168,-5.9426714869914576e-05,-0.33405786752700806,-0.005582356825470924,-0.2661738097667694,-0.006612026132643223,-1.6171070337295532,0.00032790296245366335,-1.0464110374450684,1.569898009300232,-0.05879936367273331,-0.35973072052001953,0.30872032046318054
0.02934659644961357,-0.07450961321592331,0.0001863303768914193,-0.7667709589004517,0.0027822088450193405,0.08086156100034714,0.03046269342303276,-1.4779032468795776,4.9974009016295895e-05,-1.0470504760742188,1.5731619596481323,-0.08613303303718567,-0.3043566346168518,0.14725075662136078
0.037717971950769424,-0.0811842530965805,0.00015096149581950158,-0.8129070401191711,0.002322147600352764,0.12279912084341049,0.022169804200530052,-1.4841527938842773,7.527254638262093e-05,-1.046869158744812,1.5725057125091553,-0.09195810556411743,-0.25377845764160156,0.12403161078691483
0.05371781811118126,-0.07819923013448715,0.00012227881234139204,-0.7533106207847595,0.0017987822648137808,-0.10375170409679413,0.03462738171219826,-1.5550611019134521,-0.0002229566453024745,-1.0469341278076172,1.573453426361084,-0.09422339498996735,-0.27030616998672485,0.09462786465883255
0.05155789107084274,0.2820427417755127,1.1981640454905573e-05,0.01168887224048376,0.011887804605066776,-0.6742938160896301,0.0015301587991416454,-1.4977940320968628,0.0012041126610711217,-1.052446961402893,1.5711781978607178,0.25424087047576904,-0.5507976412773132,0.23320743441581726
0.07171115279197693,0.3439611494541168,9.705128832138143e-06,0.24379990994930267,0.025148745626211166,-0.8467350006103516,0.008716470561921597,-1.4587087631225586,-0.00013409910025075078,-1.0466207265853882,1.574280023574829,0.30046728253364563,-0.5896739363670349,0.2842494249343872
0.020626205950975418,0.3930741846561432,7.861154699639883e-06,0.155219167470932,0.019447673112154007,-0.6006525158882141,0.003962666727602482,-1.472226619720459,0.0003990819677710533,-1.0477895736694336,1.5724563598632812,0.35729342699050903,-0.6282460689544678,0.325141578912735
-0.008222750388085842,0.03054555132985115,4.315839032642543e-05,-0.09739021211862564,0.023166045546531677,-0.4335288107395172,0.031108427792787552,-1.719871997833252,0.00042105509783141315,-1.0448153018951416,1.5741180181503296,-0.00034003189648501575,-0.6533225774765015,0.31748083233833313
0.0870111733675003,0.028117937967181206,-0.0002774480381049216,-0.19814327359199524,-0.03733419254422188,-0.24185290932655334,-0.00833558477461338,-1.4802608489990234,-0.003077293513342738,-1.0464134216308594,1.5681928396224976,0.05662399157881737,-0.4224488139152527,0.30516597628593445
-0.10005516558885574,-0.331901490688324,-0.0002790488360915333,-0.35626617074012756,0.030564693734049797,-0.13485932350158691,0.053436748683452606,-1.6739845275878906,-0.001576287904754281,-1.046354055404663,1.5790265798568726,-0.36667507886886597,-0.6304017901420593,0.31009936332702637
-0.10238046944141388,-0.16846218705177307,1.3212593330536038e-05,-0.468681275844574,-0.004606498405337334,0.05689762532711029,0.04012535512447357,-1.5964832305908203,-0.0015763361006975174,-1.0468332767486572,1.5739952325820923,-0.19403958320617676,-0.537923276424408,0.240481898188591
-0.07604044675827026,-0.15402093529701233,1.070220059773419e-05,-0.3077843189239502,-0.004146210849285126,-0.036302030086517334,0.020283665508031845,-1.6103111505508423,-0.0009290610905736685,-1.0455482006072998,1.5722326040267944,-0.17224876582622528,-0.5235114097595215,0.343728244304657
-0.07887744903564453,-0.12913820147514343,8.447611435258295e-06,-0.16170614957809448,-8.069525938481092e-05,-0.27881529927253723,0.02549906075000763,-1.5311176776885986,-0.0009546668734401464,-1.045204520225525,1.573040246963501,-0.1508771926164627,-0.5776498913764954,0.35900014638900757
-0.11419481784105301,-0.1146518886089325,6.842565653641941e-06,-0.20030127465724945,-0.006352765019983053,-0.2737783193588257,0.015466047450900078,-1.4445605278015137,-0.000904959044419229,-1.0452417135238647,1.5716911554336548,-0.1293700486421585,-0.5907664895057678,0.3591269254684448
-0.11161620169878006,-0.1076682060956955,3.804220568781602e-06,-0.078154057264328,-0.01579769141972065,-0.4667159616947174,-0.005131070036441088,-1.49722421169281,-0.0006832992075942457,-1.0464982986450195,1.5690522193908691,-0.10043619573116302,-0.6334259510040283,0.34934863448143005
-0.11411678045988083,-0.0824936255812645,0.00017572047363501042,-0.04981062188744545,0.005255505908280611,-0.6505191922187805,-0.0027457415126264095,-1.4549821615219116,0.0002519325935281813,-1.047044038772583,1.5704163312911987,-0.09195764362812042,-0.6788622736930847,0.2927156388759613
-0.12556175887584686,-0.07325053215026855,0.0001423335779691115,-0.12945973873138428,-0.007811230607330799,-0.5612683296203613,-0.002383628161624074,-1.5197662115097046,-0.0004037200124002993,-1.0470744371414185,1.569967269897461,-0.07525492459535599,-0.6985743641853333,0.24531668424606323
-0.15581393241882324,-0.052088022232055664,0.00011529019684530795,-0.366177499294281,0.0010008997051045299,-0.09993965178728104,0.0023543331772089005,-1.6092644929885864,0.00011451813770690933,-1.0520670413970947,1.5708340406417847,-0.061668455600738525,-0.665144681930542,0.26492398977279663
-0.12382397800683975,-0.014407805167138577,9.338506060885265e-05,-0.4035087525844574,0.0037316379602998495,0.1539655327796936,0.0412944033741951,-1.6293480396270752,-0.0009355359361506999,-1.0511900186538696,1.5744435787200928,-0.04483919218182564,-0.5918527841567993,0.3333463668823242
-0.0409240759909153,0.3010052740573883,1.5900910511845723e-05,-0.3800817131996155,0.01577920652925968,-0.07055603712797165,0.01333257369697094,-1.5809130668640137,-0.0019370405934751034,-1.0490368604660034,1.5742664337158203,0.27069664001464844,-0.49989038705825806,0.3561149835586548
-0.02567625790834427,0.3048691749572754,1.2879737369075883e-05,-0.524493932723999,0.008966952562332153,0.07909496128559113,-0.035736165940761566,-1.6025350093841553,-0.000356300879502669,-1.0486716032028198,1.5694490671157837,0.30402281880378723,-0.467614084482193,0.2818619906902313
0.026410184800624847,0.2943507134914398,1.0687904250517022e-05,-0.5501369833946228,0.0072000701911747456,-0.012457353994250298,-0.09403613209724426,-1.6590356826782227,0.001043157884851098,-1.0480302572250366,1.5644001960754395,0.32585325837135315,-0.40988418459892273,0.24942311644554138
0.15419110655784607,-0.0038752795662730932,1.3391726270128856e-06,-0.7362549304962158,-0.002409803681075573,0.49498334527015686,-0.03311925753951073,-1.7306253910064697,-0.000391297071473673,-1.047952651977539,1.5684385299682617,0.03462984040379524,-0.2094700038433075,0.21649765968322754
-0.13624316453933716,-0.16622838377952576,0.00010679636034183204,-0.019049501046538353,0.04210275039076805,-0.49988800287246704,0.04825867339968681,-1.5165458917617798,0.00010662712884368375,-1.0475835800170898,1.5776987075805664,-0.22358287870883942,-0.7285996079444885,0.33066636323928833
-0.1616138368844986,-0.1591782569885254,8.650505333207548e-05,-0.11043793708086014,0.018067454919219017,-0.3362801671028137,0.03583474084734917,-1.4211962223052979,-0.00031973642762750387,-1.0474809408187866,1.574965476989746,-0.19595812261104584,-0.6954401135444641,0.34776678681373596
0.029544873163104057,-0.12689262628555298,4.87586876261048e-05,-0.3092070519924164,0.004873853642493486,-0.13684572279453278,0.03960133343935013,-1.565540075302124,-0.0008897577645257115,-1.04989755153656,1.57412850856781,-0.14220954477787018,-0.4231988191604614,0.33426329493522644
0.06044502183794975,-0.12739577889442444,3.949453457607888e-05,-0.2970860004425049,0.006201090756803751,0.005298749078065157,0.04201526567339897,-1.6424967050552368,-0.0009461607551202178,-1.04940664768219,1.574532151222229,-0.14776140451431274,-0.4469528794288635,0.3367871046066284
0.012343143112957478,-0.19945058226585388,1.1154314961459022e-05,-0.31498071551322937,-0.002258042339235544,0.0754082202911377,-0.04303698614239693,-1.660645842552185,0.0009619439369998872,-1.0479261875152588,1.5661954879760742,-0.17186537384986877,-0.4995194375514984,0.35790619254112244
0.01608559861779213,-0.34026873111724854,4.4269276259001344e-05,0.13413649797439575,-0.0049143279902637005,-0.5518314838409424,0.011832492426037788,-1.547213077545166,-9.229143324773759e-05,-1.0438872575759888,1.571815013885498,-0.34551340341567993,-0.6341302394866943,0.3765585422515869
0.0028725431766361,-0.3283720910549164,3.58581128239166e-05,0.10645341873168945,2.9726996217505075e-05,-0.45976632833480835,0.01588715799152851,-1.565593957901001,-0.0007388863596133888,-1.0445213317871094,1.5734260082244873,-0.34076085686683655,-0.6449690461158752,0.36314061284065247
0.018105102702975273,-0.25789976119995117,-0.0001532399037387222,0.05244263634085655,0.0030918982811272144,-0.7145046591758728,0.008351416327059269,-1.4198051691055298,-0.00045364152174443007,-1.0454785823822021,1.5723880529403687,-0.2705828845500946,-0.5827796459197998,0.30477291345596313
0.0403902567923069,-0.25147774815559387,-0.00012412431533448398,0.12810775637626648,-0.005917849950492382,-0.864589273929596,0.002607126021757722,-1.3818893432617188,0.0003028448554687202,-1.0473530292510986,1.5703181028366089,-0.25560274720191956,-0.5816846489906311,0.2677128314971924
0.10855960100889206,-0.2341424524784088,-0.00010054069571197033,0.36580878496170044,-0.0017776613822206855,-1.1135900020599365,0.006328615825623274,-1.4919843673706055,-0.0006847130716778338,-1.0470328330993652,1.5723062753677368,-0.2449173629283905,-0.629077672958374,0.2290884107351303
0.10974359512329102,-0.22573105990886688,-8.143796731019393e-05,0.44842204451560974,-0.0016125001711770892,-1.162798523902893,0.003309926949441433,-1.473261833190918,-0.00018024977180175483,-1.0470768213272095,1.571022629737854,-0.2297465205192566,-0.6982356905937195,0.19635245203971863
0.07972798496484756,-0.20958249270915985,-6.599055632250383e-05,0.37827685475349426,-0.0013075140304863453,-1.0848439931869507,0.004574963822960854,-1.5741287469863892,-0.000492811668664217,-1.0461220741271973,1.5720080137252808,-0.22075919806957245,-0.7202539443969727,0.20749251544475555
0.0763317421078682,-0.17892006039619446,-5.3452342399396e-05,0.39970847964286804,-0.0008857828797772527,-1.0190351009368896,0.005822007544338703,-1.5669798851013184,-0.0008270128164440393,-1.046326994895935,1.572912335395813,-0.1978880912065506,-0.7431620955467224,0.21183252334594727
0.07431592792272568,-0.1338309496641159,-4.329639705247246e-05,0.4164735972881317,-0.0008389060385525227,-0.7815887331962585,0.0074889990501105785,-1.5788683891296387,-0.0010934208985418081,-1.0464916229248047,1.5737415552139282,-0.16055454313755035,-0.7239891290664673,0.2779260575771332
-0.14395396411418915,0.3272724449634552,0.00011550899216672406,-0.11081395298242569,-0.0018311631865799427,-0.3574357330799103,-0.0494379885494709,-1.5672756433486938,0.0010710405185818672,-1.0434635877609253,1.5659005641937256,0.3416883647441864,-0.734801709651947,0.3396375775337219
-0.15614597499370575,0.328453928232193,9.33790288399905e-05,-0.17275571823120117,-0.021269209682941437,-0.38223591446876526,-0.04685468599200249,-1.494634747505188,2.4278595446958207e-05,-1.0425769090652466,1.5650352239608765,0.3569640815258026,-0.6837484240531921,0.3197544813156128
-0.18737787008285522,0.3429664373397827,7.563701365143061e-05,-0.41947561502456665,-0.018313651904463768,0.020939402282238007,-0.03224175423383713,-1.5119539499282837,-0.00015663731028325856,-1.0472025871276855,1.566529393196106,0.3637485206127167,-0.6288699507713318,0.3215811252593994
0.028594492003321648,-0.09931691735982895,0.0002651880495250225,-0.2031431496143341,0.015026010572910309,-0.3042653799057007,0.10022854804992676,-1.5026111602783203,0.00010438673780299723,-1.050034761428833,1.5816351175308228,-0.1712220013141632,-0.493101567029953,0.3336769640445709
0.043050408363342285,-0.03890838474035263,0.00021480231953319162,-0.22758755087852478,0.03428160399198532,-0.24858592450618744,0.10119273513555527,-1.5033869743347168,0.0007070696447044611,-1.050400972366333,1.582849383354187,-0.13022582232952118,-0.455779492855072,0.33190008997917175
0.07588302344083786,0.00641895504668355,0.00017199368448927999,-0.21912360191345215,0.02673223614692688,-0.11448433250188828,0.07682836800813675,-1.5961227416992188,0.000707955623511225,-1.050546646118164,1.5800033807754517,-0.07148746401071548,-0.4400081932544708,0.35601210594177246
0.08903232216835022,0.30290916562080383,3.199947241228074e-05,-0.1013435423374176,-0.020302826538681984,-0.27679741382598877,-0.04385910928249359,-1.5670713186264038,0.0015423092991113663,-1.0504543781280518,1.5643726587295532,0.31807878613471985,-0.456430047750473,0.3796071708202362
0.009022579528391361,0.03535854443907738,1.9778677597059868e-05,0.08199723809957504,-0.008589469827711582,-0.5073267817497253,0.00261704926379025,-1.5061646699905396,0.0016296661924570799,-1.0502856969833374,1.567223310470581,0.044474758207798004,-0.6422569155693054,0.3655439615249634
0.011523440480232239,0.044509708881378174,3.798832537427188e-08,-0.3153039813041687,0.0013534543104469776,-0.30589810013771057,0.007230465766042471,-1.5198094844818115,0.0003054436238016933,-1.0474891662597656,1.5712026357650757,0.03904655948281288,-0.46781834959983826,0.29422110319137573
-0.019936826080083847,0.06002727523446083,3.053103725392248e-08,-0.3487430512905121,0.010847414843738079,-0.5508905053138733,0.015589874237775803,-1.533788800239563,0.001003008452244103,-1.047435998916626,1.5724884271621704,0.042448531836271286,-0.4903826117515564,0.20373523235321045
0.0003811630012933165,0.14567150175571442,-0.0002743806689977646,-0.7358837127685547,-0.008101914077997208,0.29122194647789,-0.014960339292883873,-1.6330029964447021,-0.0011685335775837302,-1.0469473600387573,1.5690715312957764,0.15891312062740326,-0.36774900555610657,0.16856861114501953
0.03124080039560795,0.16281381249427795,-0.00022224834538064897,-0.6202263236045837,-0.009334791451692581,0.17771506309509277,0.01557964738458395,-1.656144142150879,-0.0005071033374406397,-1.0469892024993896,1.5718531608581543,0.1561521738767624,-0.3312215507030487,0.23773817718029022
0.04902225732803345,0.1871233433485031,0.00015816150698810816,-0.6301864981651306,-0.009388486854732037,0.3861488103866577,0.03521711006760597,-1.7397403717041016,-0.00032331133843399584,-1.0471082925796509,1.5732767581939697,0.16723355650901794,-0.3577965497970581,0.2598755955696106
0.095554880797863,0.16592097282409668,8.405350672546774e-05,-0.14810088276863098,-0.009418568573892117,-0.058741502463817596,-0.04500647261738777,-1.7504922151565552,0.0006461415905505419,-1.047342300415039,1.565628170967102,0.19169825315475464,-0.4726558327674866,0.36954134702682495
0.07037157565355301,0.12693507969379425,6.784690049244091e-05,-0.011888789013028145,-0.027998419478535652,-0.30831578373908997,-0.07414443045854568,-1.6612539291381836,0.0014708153903484344,-1.0469536781311035,1.5618020296096802,0.18062980473041534,-0.5342654585838318,0.3827986717224121
0.03541825711727142,0.10197009146213531,5.495598816196434e-05,0.06278248876333237,-0.025164278224110603,-0.5505437254905701,-0.061534881591796875,-1.5491775274276733,0.0011209534713998437,-1.0466500520706177,1.5632908344268799,0.15499581396579742,-0.5821694731712341,0.35584303736686707
-0.01470075361430645,0.09618393331766129,4.451434870134108e-05,-0.0857989564538002,-0.008421353995800018,-0.32505184412002563,-0.04551742225885391,-1.6357526779174805,0.0007940410287119448,-1.0499051809310913,1.566298484802246,0.1284770518541336,-0.6102458238601685,0.3306342363357544
-0.003035723464563489,0.07785700261592865,3.6056622775504366e-05,0.10604972392320633,-0.010624578222632408,-0.6672239303588867,-0.03815217688679695,-1.5798934698104858,0.0007256634999066591,-1.0464341640472412,1.5666370391845703,0.11004301905632019,-0.6381793022155762,0.3212999403476715
0.03884317725896835,0.0443047359585762,2.92970726150088e-05,0.3153204917907715,-0.01493366900831461,-0.836915135383606,-0.03855187073349953,-1.6060540676116943,0.0018969977973029017,-1.0468608140945435,1.564490556716919,0.08451239764690399,-0.7171660661697388,0.27792394161224365
0.0566721186041832,0.020501552149653435,2.3730628527118824e-05,0.3547043800354004,-0.012158564291894436,-0.6566020250320435,-0.028794849291443825,-1.601693034172058,0.0012148296227678657,-1.0469253063201904,1.5665514469146729,0.04954110085964203,-0.7376196980476379,0.3121489882469177
0.04808397963643074,-0.050673868507146835,7.046189421089366e-05,-0.05577000603079796,0.002988157793879509,-0.4226025342941284,-0.007050815504044294,-1.5678819417953491,0.0005123264854773879,-1.0475553274154663,1.5695966482162476,-0.04430427774786949,-0.506668746471405,0.3798065483570099
0.01910214126110077,-0.06910393387079239,5.707411764888093e-05,-0.06190674006938934,-0.011331184767186642,-0.7606140375137329,-0.007187339477241039,-1.5401930809020996,-2.0366418539197184e-05,-1.047101378440857,1.5689326524734497,-0.05375150218605995,-0.5787306427955627,0.2643936574459076
-0.010638860054314137,-0.18310168385505676,-0.00017523346468806267,-0.2274293601512909,-0.013223476707935333,-0.6398870348930359,-0.0014207764761522412,-1.2789121866226196,-0.00018003543664235622,-1.046317458152771,1.5700457096099854,-0.16537491977214813,-0.4946277439594269,0.15418651700019836
0.05445170775055885,-0.2233525514602661,-0.00014193910465110093,-0.018529964610934258,-0.03499449044466019,-0.7678291201591492,-0.0010596276260912418,-1.2861982583999634,-0.0023487191647291183,-1.0458561182022095,1.5692607164382935,-0.187530979514122,-0.4546252489089966,0.24288444221019745
0.0677848681807518,-0.2486383020877838,-0.0001149706804426387,0.019292110577225685,-0.023320788517594337,-0.7366727590560913,0.00043342335266061127,-1.4102898836135864,-0.0020062190014868975,-1.0439321994781494,1.570172905921936,-0.22127564251422882,-0.49464401602745056,0.26757097244262695
0.07823267579078674,-0.2827906310558319,1.1184654795215465e-05,0.04996455833315849,-0.02654094807803631,-0.8301057815551758,-0.001415478065609932,-1.4983655214309692,-0.0014821302611380816,-1.0437003374099731,1.5694280862808228,-0.25371354818344116,-0.5517551302909851,0.24170567095279694
-0.0814523920416832,-0.5460906028747559,1.2625525869225385e-06,-0.68229079246521,-0.011725308373570442,0.08192828297615051,0.04930320382118225,-1.5238008499145508,-0.0026433703023940325,-1.0459595918655396,1.574618935585022,-0.545134961605072,-0.4333556890487671,0.1875782012939453
-0.049355704337358475,-0.5500743985176086,1.0226675613012048e-06,-0.5866431593894958,-0.008946110494434834,-0.06762601435184479,0.09300486743450165,-1.5218943357467651,-0.003233891911804676,-1.0461915731430054,1.5780854225158691,-0.5770976543426514,-0.41462692618370056,0.1871572583913803
-0.03829434886574745,-0.5389209389686584,8.283607257908443e-07,-0.5163971185684204,-0.0032998400274664164,-0.12903307378292084,0.13486932218074799,-1.4384286403656006,-0.0038244426250457764,-1.046754240989685,1.5815443992614746,-0.5968339443206787,-0.4080089330673218,0.20961186289787292
-0.03772105276584625,-0.5416375994682312,6.709722129016882e-07,-0.4640197455883026,-0.0022747681941837072,-0.15967760980129242,0.12404966354370117,-1.433340072631836,-0.0032801185734570026,-1.0437860488891602,1.5803568363189697,-0.601516604423523,-0.40226301550865173,0.24677447974681854
0.010375426150858402,-0.5371034145355225,5.434874879028939e-07,-0.16431079804897308,0.0030773752368986607,-0.56557697057724,0.10833169519901276,-1.470802664756775,-0.0024067906197160482,-1.0445442199707031,1.5794986486434937,-0.5960764288902283,-0.46517062187194824,0.24627509713172913
0.005948932841420174,-0.5145481824874878,4.4022485212735774e-07,-0.03369447588920593,0.029419662430882454,-0.7591068744659424,0.08792081475257874,-1.501571774482727,-0.00019203306874260306,-1.0452988147735596,1.578859806060791,-0.5807369947433472,-0.5746967196464539,0.23200277984142303
-0.07058922201395035,-0.4262402057647705,2.8966181275791314e-07,0.05588719993829727,0.06953570246696472,-0.6803503036499023,0.06553751230239868,-1.4494181871414185,-0.0003600297204684466,-1.0461012125015259,1.5806736946105957,-0.512506365776062,-0.6864113807678223,0.2491103559732437
-0.08657816797494888,-0.37270012497901917,-0.00025800062576308846,0.15652254223823547,0.06469478458166122,-0.5456902384757996,0.055824171751737595,-1.5134934186935425,-0.0005239415331743658,-1.043672800064087,1.5799192190170288,-0.45954179763793945,-0.7054979801177979,0.3381732702255249
-0.21392041444778442,0.18034674227237701,4.961743798048701e-06,0.1327914595603943,0.003051882842555642,-0.9495489597320557,-0.017556082457304,-1.3671681880950928,-0.0035881923977285624,-1.0501831769943237,1.5777395963668823,0.16495691239833832,-0.8747542500495911,0.27790752053260803
-0.17840026319026947,0.2214168906211853,4.019007519673323e-06,0.021779924631118774,-0.006591198965907097,-1.0200625658035278,-0.01826360449194908,-1.299021601676941,-0.0020255690906196833,-1.050010323524475,1.5745437145233154,0.21260514855384827,-0.8222958445549011,0.18267248570919037
0.057073693722486496,0.2628776431083679,1.401349777552241e-06,-0.45595383644104004,-0.047720275819301605,-0.3288213014602661,-0.012067698873579502,-1.490110158920288,-0.003843978513032198,-1.0476775169372559,1.5703808069229126,0.2933618426322937,-0.41030576825141907,0.19028382003307343
0.15715011954307556,0.19366495311260223,0.0001965878764167428,-0.6005576252937317,-0.026783572509884834,0.07151388376951218,0.012874373234808445,-1.5600577592849731,-0.0031140532810240984,-1.0458399057388306,1.5718426704406738,0.2113933265209198,-0.2487732470035553,0.2157823145389557
0.16525261104106903,0.17747950553894043,0.00015923618047963828,-0.6474881768226624,-0.021489571779966354,0.2620166540145874,0.011495530605316162,-1.6422151327133179,-0.0025974218733608723,-1.046032428741455,1.5717222690582275,0.19113118946552277,-0.19923043251037598,0.24357256293296814
0.16142570972442627,0.15480026602745056,2.9473898393916897e-05,-0.6236467361450195,-0.016778012737631798,0.31798043847084045,0.003997677471488714,-1.5649771690368652,-0.002191856037825346,-1.0462764501571655,1.5711593627929688,0.1714410036802292,-0.18020737171173096,0.2892499566078186
-0.1016288474202156,0.2963119447231293,-1.1639057220236282e-06,-0.5254887342453003,-0.0019114152528345585,0.06420529633760452,-0.08461049944162369,-1.594648838043213,0.001761285006068647,-1.0458307266235352,1.5621594190597534,0.3399033844470978,-0.498668372631073,0.31548362970352173
-0.08814767748117447,0.2536928951740265,-9.075495199795114e-07,-0.5069965124130249,-0.004351945593953133,-0.254939466714859,-0.12888292968273163,-1.6157089471817017,0.0026515054050832987,-1.045432448387146,1.5588431358337402,0.3248212933540344,-0.5302309989929199,0.2103586494922638
-0.013834691606462002,0.048298951238393784,1.3841327017871663e-07,-0.3999125361442566,-0.0026466799899935722,0.18308091163635254,-0.0071654184721410275,-1.820237636566162,5.631309250020422e-05,-1.0469576120376587,1.569809913635254,0.06168508902192116,-0.5335005521774292,0.2898803949356079
-0.00047868979163467884,0.008116189390420914,1.1211474770789209e-07,-0.28960949182510376,-0.0009568773093633354,0.11910927295684814,-0.04020847752690315,-1.6993602514266968,0.0003728517913259566,-1.0470060110092163,1.5670400857925415,0.03971719369292259,-0.524043083190918,0.37006238102912903
-0.06209823861718178,-0.061788178980350494,-5.423455513664521e-05,0.15716968476772308,0.0021272951271384954,-0.8988910913467407,0.054868023842573166,-1.53219735622406,0.0011789752170443535,-1.0435296297073364,1.5718247890472412,-0.1007164791226387,-0.7585738301277161,0.2857447564601898
-0.05559375509619713,0.001482924330048263,-4.8439019337820355e-06,-0.5597202181816101,-0.05334310606122017,-0.10112150758504868,-0.06171983852982521,-1.646060824394226,-0.003914219327270985,-1.0466197729110718,1.5663155317306519,0.07842114567756653,-0.4847082793712616,0.199151411652565
-0.05698375031352043,-0.10605287551879883,-3.0180981411831453e-06,-0.5863927602767944,-0.036051638424396515,-0.13802483677864075,-0.05846034735441208,-1.505700945854187,-0.0022398855071514845,-1.046910285949707,1.5664732456207275,-0.030753029510378838,-0.443948894739151,0.15994681417942047
-0.047922246158123016,-0.17961563169956207,-2.4446594579785597e-06,-0.5934335589408875,-0.03157849237322807,-0.0035956748761236668,-0.08178110420703888,-1.600285291671753,-0.0012032719096168876,-1.047121286392212,1.5645703077316284,-0.09370452165603638,-0.4408864676952362,0.17952083051204681
-0.041337743401527405,-0.2433820366859436,-1.980174147320213e-06,-0.5319223999977112,-0.02555857039988041,-0.11313169449567795,-0.06930391490459442,-1.4911872148513794,-0.000913164229132235,-1.0469754934310913,1.5655368566513062,-0.16363172233104706,-0.4333130419254303,0.21106883883476257
0.0075662038289010525,-0.2882026433944702,-1.6330326388924732e-06,-0.3026956021785736,-0.012553544715046883,-0.48496922850608826,-0.028135035187005997,-1.4905868768692017,-0.0006614403100684285,-1.04507577419281,1.569340467453003,-0.23529931902885437,-0.4519982933998108,0.20810207724571228
0.025103719905018806,-0.33433976769447327,-1.075510454029427e-06,-0.22503535449504852,0.022058775648474693,-0.5954166650772095,0.011131337843835354,-1.4604045152664185,0.0023511007893830538,-1.0482139587402344,1.5739588737487793,-0.33729973435401917,-0.46452876925468445,0.20121100544929504
0.10524391382932663,-0.384611040353775,-1.5208445347525412e-06,0.07979921251535416,0.021519474685192108,-0.631151556968689,0.009165730327367783,-1.6017301082611084,0.001357733504846692,-1.0502430200576782,1.5737276077270508,-0.3873763382434845,-0.5552139282226562,0.2571263909339905
0.08611700683832169,-0.415286660194397,-1.2318840845182422e-06,0.0911029577255249,0.012883848510682583,-0.5067426562309265,0.0032158943358808756,-1.6287071704864502,0.001620678580366075,-1.0487006902694702,1.5718014240264893,-0.408731609582901,-0.5766667127609253,0.32249799370765686
0.07078032195568085,-0.4353107511997223,-9.9782607776433e-07,0.15203028917312622,0.01439754106104374,-0.5435620546340942,0.00848175399005413,-1.5137877464294434,0.0007102066301740706,-1.0490385293960571,1.5732612609863281,-0.43544578552246094,-0.5828145742416382,0.3608398735523224
-0.003540741978213191,-0.19967874884605408,3.4315180528210476e-05,-0.21495358645915985,-0.005897152703255415,-0.2019583135843277,-0.03732931613922119,-1.6125110387802124,0.0004678016994148493,-1.046469807624817,1.567101240158081,-0.15178973972797394,-0.5086401104927063,0.38023895025253296
-0.023953668773174286,-0.23339778184890747,2.7795294954557903e-05,-0.2874142825603485,0.005963181611150503,-0.16319136321544647,-0.006677169818431139,-1.6609145402908325,0.0001499838544987142,-1.0494763851165771,1.5706285238265991,-0.20830325782299042,-0.5442153811454773,0.3137325048446655
-0.04140755906701088,-0.2516535222530365,2.251418845844455e-05,-0.25094255805015564,0.020187916234135628,-0.3581499755382538,0.026893334463238716,-1.5511820316314697,8.864171104505658e-05,-1.0486844778060913,1.5744225978851318,-0.2553492486476898,-0.5503823161125183,0.2834111750125885
-0.03352172672748566,-0.25626492500305176,1.8236492905998603e-05,-0.1067238375544548,0.04281039163470268,-0.662604570388794,0.030960209667682648,-1.5168325901031494,0.001978496089577675,-1.0485438108444214,1.57567298412323,-0.2844374179840088,-0.5931026339530945,0.24027787148952484
-0.0815252885222435,-0.2542567551136017,1.1964963050559163e-05,-0.06267818063497543,0.05026360973715782,-0.6597636342048645,0.019729124382138252,-1.5308115482330322,0.002590911230072379,-1.048028826713562,1.5746454000473022,-0.2869325876235962,-0.6769006252288818,0.22679133713245392
-0.09653588384389877,-0.24981753528118134,9.697825589682907e-06,-0.0721665769815445,0.054487235844135284,-0.4787934124469757,0.016523631289601326,-1.5607701539993286,0.002665469190105796,-1.04792058467865,1.5745980739593506,-0.2843131721019745,-0.6958995461463928,0.25905629992485046
-0.07910218089818954,-0.22931422293186188,7.85523843660485e-06,-0.020458441227674484,0.0663866177201271,-0.42148357629776,0.017084935680031776,-1.6553465127944946,0.0029305294156074524,-1.0478506088256836,1.5754529237747192,-0.2754954397678375,-0.6961655616760254,0.3229689598083496
-0.06592874974012375,-0.1943429708480835,6.362743079080246e-06,0.057726915925741196,0.07279285788536072,-0.4091746211051941,0.022613516077399254,-1.6877837181091309,0.002359566045925021,-1.0508465766906738,1.576850175857544,-0.2505263388156891,-0.7324498891830444,0.3373139500617981
-0.025836585089564323,-0.1697157919406891,5.181066626391839e-06,0.27248886227607727,0.05694523826241493,-0.5984306335449219,0.013357001356780529,-1.5768654346466064,0.0023473789915442467,-1.0503429174423218,1.5744653940200806,-0.21478882431983948,-0.748203694820404,0.36658352613449097
-0.0956847220659256,0.17365223169326782,-2.3974305804586038e-05,0.32591164112091064,-0.0013068258995190263,-0.6972668766975403,0.04102206230163574,-1.6025320291519165,0.0013682232238352299,-1.0456855297088623,1.5683989524841309,0.155058354139328,-0.8552238941192627,0.34053096175193787
-0.156874418258667,0.15690827369689941,-1.9419187083258294e-05,0.09514877945184708,-0.0012658931082114577,-0.4666720926761627,0.026275185868144035,-1.5859476327896118,0.0018381099216639996,-1.0468209981918335,1.5669100284576416,0.15209679305553436,-0.832356870174408,0.36436912417411804
-0.11797098070383072,0.14971397817134857,-1.5729541701148264e-05,0.27359509468078613,0.0019054460572078824,-0.8121312856674194,0.02711981162428856,-1.49087655544281,0.0007894738810136914,-1.0433781147003174,1.569428563117981,0.13867440819740295,-0.7993718981742859,0.34834837913513184
-0.08442418277263641,0.1566338837146759,-1.2740929378196597e-05,0.35969507694244385,0.002379865851253271,-0.9203799962997437,0.02857035957276821,-1.4318255186080933,-0.0004558053915388882,-1.0441324710845947,1.5723642110824585,0.13692674040794373,-0.8223779797554016,0.29602840542793274
-0.07374081760644913,0.15482333302497864,-1.0319855391571764e-05,0.347795695066452,0.0018177309539169073,-0.9712326526641846,0.019164567813277245,-1.4568289518356323,0.0002702777273952961,-1.0430293083190918,1.5703829526901245,0.14518028497695923,-0.8068117499351501,0.29083749651908875
-0.08590999990701675,0.1424538791179657,6.0064026911277324e-05,0.2083132565021515,0.0009493341203778982,-0.8542413711547852,0.012127681635320187,-1.414197564125061,0.0008548119221813977,-1.0443406105041504,1.568989634513855,0.14080269634723663,-0.7860836386680603,0.267916202545166
-0.051225945353507996,0.14324943721294403,4.865186201641336e-05,0.19468943774700165,0.004483959637582302,-0.838874876499176,0.01673259027302265,-1.35002601146698,-0.0006290365126915276,-1.042916178703308,1.5721373558044434,0.1328348070383072,-0.7110129594802856,0.29697537422180176
-0.048411350697278976,0.14108313620090485,0.00010622756235534325,-0.016230875626206398,0.0029294120613485575,-0.5133646130561829,0.01286876481026411,-1.3079349994659424,-0.00039577187271788716,-1.0437904596328735,1.571638584136963,0.13304679095745087,-0.6178184151649475,0.3368605077266693
0.11701471358537674,0.13267217576503754,4.575424100039527e-05,0.09995705634355545,-0.00284681492485106,-0.9063199162483215,-0.00014218992146197706,-1.356243371963501,0.0007820242317393422,-1.0445480346679688,1.5692105293273926,0.13707195222377777,-0.4715088903903961,0.2849481999874115
0.07707823812961578,0.11780701577663422,3.706093775690533e-05,-0.15696987509727478,-0.014875883236527443,-0.7324141263961792,-0.0018603617791086435,-1.4300072193145752,0.0006180988275445998,-1.0450825691223145,1.5683642625808716,0.130548357963562,-0.5010865926742554,0.19532537460327148
0.004628061782568693,0.08062583953142166,0.00022694349172525108,-0.5724111795425415,0.0453832782804966,0.03870085999369621,-0.013463043607771397,-1.729479193687439,0.001742485910654068,-1.0453400611877441,1.571753978729248,0.041139401495456696,-0.4566684663295746,0.19679610431194305
0.04464606195688248,0.1938163936138153,0.00012060602603014559,-0.37122994661331177,0.026766065508127213,-0.12154248356819153,-0.003085917327553034,-1.6782667636871338,0.000829122553113848,-1.0448325872421265,1.5718224048614502,0.16373254358768463,-0.4538823366165161,0.24333612620830536
0.09716828912496567,0.2591176927089691,0.0005664967466145754,-0.0537465400993824,0.03370995074510574,-0.4956992566585541,0.02165631763637066,-1.655481219291687,0.0008211022359319031,-1.0450241565704346,1.5741608142852783,0.20767758786678314,-0.5015941262245178,0.27646347880363464
0.12104839086532593,0.3227143883705139,0.0005910834297537804,0.1555103212594986,0.040727656334638596,-0.5419777035713196,0.019048437476158142,-1.6249319314956665,0.0011036896612495184,-1.0454307794570923,1.574308156967163,0.26677605509757996,-0.5661378502845764,0.3045484125614166
-0.013120741583406925,0.05349815636873245,2.5482035198365338e-05,-0.04531673714518547,0.010139626450836658,-0.5501376986503601,0.09565172344446182,-1.7100268602371216,0.0008198196883313358,-1.0471299886703491,1.5735583305358887,-0.010028846561908722,-0.7008089423179626,0.29240918159484863
-0.02922917529940605,0.10857026278972626,1.6718762708478607e-05,-0.46167290210723877,0.003681274363771081,-0.05470888689160347,0.07073531299829483,-1.6697571277618408,0.0003009741485584527,-1.047532558441162,1.5732228755950928,0.059520620852708817,-0.5525633096694946,0.23097631335258484
0.03166629374027252,0.1298481523990631,1.3542198757932056e-05,-0.43772608041763306,0.0016426530200988054,-0.008614184334874153,0.03478635102510452,-1.721134066581726,0.0007605262799188495,-1.0473008155822754,1.5708991289138794,0.09654784202575684,-0.47641754150390625,0.25212234258651733
0.06021751090884209,0.13481716811656952,1.096918094845023e-05,-0.5439566969871521,0.001351738697849214,0.36756715178489685,-0.02091321535408497,-1.7490336894989014,0.0014156487304717302,-1.047296404838562,1.5668760538101196,0.13064110279083252,-0.41419339179992676,0.2956603765487671
0.0929880291223526,0.15313750505447388,2.2515956516144797e-05,-0.26135218143463135,-0.008782291784882545,-0.1664828062057495,-0.000505677773617208,-1.698876142501831,-0.0006300006643868983,-1.0470898151397705,1.5707703828811646,0.16521325707435608,-0.4880789518356323,0.321102499961853
0.042620059102773666,0.11655742675065994,1.8237924450659193e-05,-0.428681343793869,-0.01415080577135086,-0.062385112047195435,-0.03097721002995968,-1.5822603702545166,8.87464702827856e-05,-1.0472421646118164,1.567702293395996,0.14789307117462158,-0.42129579186439514,0.2908603847026825
0.020535126328468323,0.063767209649086,1.4772718714084476e-05,-0.5083634257316589,-0.016305511817336082,-0.1393253356218338,-0.07751733064651489,-1.4937692880630493,0.001273498171940446,-1.0468863248825073,1.5637073516845703,0.12344249337911606,-0.3798023760318756,0.2546633183956146
0.02230534516274929,0.02516889199614525,1.1884635569003876e-05,-0.5562578439712524,-0.013944634236395359,-0.21508732438087463,-0.07110606878995895,-1.5467897653579712,0.001162699074484408,-1.0462061166763306,1.5644032955169678,0.08654970675706863,-0.3832551836967468,0.1814686805009842
-0.1623431146144867,-0.3083009719848633,1.1845060043924605e-06,-0.2275567650794983,0.010607319884002209,-0.6856497526168823,0.04218221828341484,-1.3571250438690186,0.0015978628071025014,-1.061360239982605,1.5738974809646606,-0.3395947515964508,-0.6246719360351562,0.1856628805398941
-0.15419238805770874,-0.23450326919555664,7.82325230375136e-07,-0.09920231252908707,0.06716134399175644,-0.6650692820549011,0.02489309385418892,-1.4218308925628662,0.005816225428134203,-1.058232307434082,1.574030876159668,-0.29756906628608704,-0.7238703966140747,0.220424085855484
-0.1350378841161728,-0.1766582727432251,6.336834417197679e-07,-0.025640543550252914,0.08653999865055084,-0.796467661857605,0.019928283989429474,-1.404503583908081,0.006553318817168474,-1.0562516450881958,1.574666976928711,-0.25654423236846924,-0.713853657245636,0.23558609187602997
-0.15924523770809174,-0.0814732015132904,3.992931567609048e-07,-0.2571812868118286,0.07414624094963074,-0.3524494767189026,0.015299446880817413,-1.3844711780548096,0.005508007947355509,-1.0539692640304565,1.574288010597229,-0.154896080493927,-0.6443126797676086,0.2605679929256439
-0.041156116873025894,0.19961956143379211,-3.176223617629148e-05,0.12620197236537933,-0.004623853601515293,-0.8483005166053772,-0.029698966071009636,-1.5392662286758423,0.0018554379930719733,-1.0483677387237549,1.5663994550704956,0.22530655562877655,-0.7151309847831726,0.29445508122444153
0.0816551074385643,0.09353824704885483,-1.0942945664282888e-05,0.15386077761650085,0.007285234052687883,-0.9191890358924866,-0.0067084068432450294,-1.5193928480148315,0.00011898262891918421,-1.0485981702804565,1.5708686113357544,0.10296287387609482,-0.6099663972854614,0.21854647994041443
0.1369481384754181,0.07208025455474854,-8.863785296853166e-06,0.25953906774520874,0.004750379826873541,-0.8619440197944641,-0.007400375325232744,-1.6098673343658447,0.0005419390508905053,-1.0496439933776855,1.5699772834777832,0.08512675762176514,-0.6342794895172119,0.23179690539836884
0.17493218183517456,0.05896597355604172,-7.17966622687527e-06,0.34577712416648865,0.004315406084060669,-0.6776962280273438,-0.002462474163621664,-1.6023436784744263,-0.00015309885202441365,-1.0491760969161987,1.5715546607971191,0.06429234892129898,-0.6125988960266113,0.2957189083099365
0.05246904864907265,0.22971975803375244,-2.0979061446269043e-05,-0.10122720152139664,-0.03291075676679611,-0.4428476095199585,-0.00464003998786211,-1.6213395595550537,0.0005827239365316927,-1.0479912757873535,1.5648332834243774,0.2593848407268524,-0.5322141051292419,0.37612593173980713
-0.03878911957144737,-0.1492285579442978,0.000557510822545737,-0.17373567819595337,0.015168349258601665,-0.5843302011489868,-0.0023292230907827616,-1.3264107704162598,0.0028656090144068003,-1.0459390878677368,1.56923246383667,-0.16598504781723022,-0.4888739585876465,0.2379177361726761
-0.003754800884053111,-0.11357174813747406,0.000452101492555812,0.0029375075828284025,0.03633204475045204,-0.7908674478530884,-0.0012409380869939923,-1.294339656829834,0.003915704786777496,-1.044208288192749,1.570754885673523,-0.14652450382709503,-0.5277658104896545,0.2605505883693695
-0.04289031773805618,-0.09237813204526901,0.00036624132189899683,-0.06904719769954681,0.024892549961805344,-0.752874493598938,-0.0013908343389630318,-1.2552400827407837,0.0030506914481520653,-1.0442934036254883,1.5704269409179688,-0.11919654160737991,-0.5413678288459778,0.25794491171836853
-0.05449580028653145,-0.059888970106840134,0.00029663153691217303,-0.07114283740520477,0.03334931284189224,-0.7403943538665771,-0.0010502198711037636,-1.2987630367279053,0.003178346436470747,-1.044935941696167,1.571156620979309,-0.09266281127929688,-0.5534310340881348,0.24157315492630005
-0.0380997508764267,-0.04038527235388756,0.0002402715472271666,-0.022508615627884865,0.015232305973768234,-0.8240901231765747,-0.0010763612808659673,-1.4471075534820557,0.0020631165243685246,-1.0443438291549683,1.5704991817474365,-0.06145550683140755,-0.6081221103668213,0.22609910368919373
-0.15538287162780762,0.11636928468942642,0.00039687042590230703,0.14727869629859924,-0.01078710239380598,-0.767534613609314,-0.01531275361776352,-1.4021564722061157,0.004084447864443064,-1.047631025314331,1.5632699728012085,0.1476164609193802,-0.813450276851654,0.27068161964416504
-0.15795183181762695,0.06205083057284355,0.0006083133048377931,0.09113771468400955,-0.01718844845890999,-0.6984408497810364,-0.019811036065220833,-1.3845019340515137,0.0044804224744439125,-1.0474988222122192,1.5619864463806152,0.10425872355699539,-0.7594599723815918,0.3236163556575775
-0.10233133286237717,0.019270723685622215,-9.354366738989484e-06,0.2654189169406891,-0.007745553273707628,-0.9141764640808105,-0.011010895483195782,-1.4273959398269653,0.0028214172925800085,-1.0476471185684204,1.5654520988464355,0.051878754049539566,-0.7668415904045105,0.2966269254684448
-0.05578190088272095,-0.03499625623226166,-7.275733423739439e-06,0.4187459647655487,-0.006940467748790979,-1.0173075199127197,-0.012797107920050621,-1.3710007667541504,0.0030096271075308323,-1.0488166809082031,1.56474769115448,0.0018109219381585717,-0.7909750938415527,0.2747439444065094
-0.010106079280376434,-0.08083102852106094,-5.893344223295571e-06,0.5420953035354614,-0.005864603444933891,-1.1253108978271484,-0.006711162161082029,-1.3586395978927612,0.0019257935928180814,-1.0478739738464355,1.567452073097229,-0.05301480367779732,-0.7782924175262451,0.29188886284828186
-0.005519007798284292,-0.1121765673160553,-4.7736084525240585e-06,0.5571880340576172,-0.0051753949373960495,-1.2178213596343994,-0.001638034824281931,-1.3419885635375977,0.0010731522925198078,-1.0471243858337402,1.5697712898254395,-0.09474430978298187,-0.7768232822418213,0.2588225305080414
-0.041826438158750534,-0.1513894498348236,-3.8852690522617195e-06,0.4450002908706665,-0.003991664387285709,-1.2993220090866089,-0.003780106082558632,-1.3631263971328735,0.001238733995705843,-1.0457532405853271,1.5687062740325928,-0.1274539679288864,-0.8003798127174377,0.2055855095386505
0.05435340851545334,0.21476802229881287,-5.718632382922806e-05,-0.0905858650803566,0.001971815712749958,-0.5381908416748047,-0.0013872482813894749,-1.424708604812622,0.0006562515627592802,-1.0392961502075195,1.5701441764831543,0.1856555938720703,-0.4896122217178345,0.2643246352672577
0.05482945963740349,0.24880152940750122,-4.632092168321833e-05,-0.09315323084592819,-0.025074519217014313,-0.4452808201313019,-0.0038163450080901384,-1.547908067703247,-0.0007409862009808421,-1.0408109426498413,1.5685356855392456,0.24000684916973114,-0.48756179213523865,0.3138749599456787
0.012967637740075588,0.26824694871902466,-3.659336289274506e-05,-0.1740843653678894,-0.05173229053616524,-0.4152233302593231,-0.008279098197817802,-1.4859946966171265,-0.002124497899785638,-1.043528437614441,1.5668073892593384,0.28171417117118835,-0.5079149603843689,0.3068126440048218
-0.03046243265271187,0.2756405472755432,-2.9640623324667104e-05,-0.3795801103115082,-0.06687885522842407,-0.1813524216413498,-0.025015054270625114,-1.601441502571106,-0.0030031241476535797,-1.0421743392944336,1.5644820928573608,0.3092518448829651,-0.5040323138237,0.2783506214618683
-0.06525880098342896,0.2659742534160614,-2.4307317289640196e-05,-0.4353596568107605,-0.06429007649421692,-0.37806084752082825,-0.057635530829429626,-1.5380218029022217,-0.0023163522128015757,-1.0433013439178467,1.5619709491729736,0.32276299595832825,-0.5132762789726257,0.21598270535469055
-0.007348742801696062,-0.07522426545619965,-1.5723438991699368e-05,-0.5928924083709717,-0.0038742125034332275,-0.030128370970487595,-0.08208419382572174,-1.4791498184204102,0.0016208527376875281,-1.046166181564331,1.5641552209854126,-0.01816657744348049,-0.39444056153297424,0.17520800232887268
-0.0009003181476145983,-0.1367160826921463,-1.2497946954681538e-05,-0.5689926743507385,-0.0046714898198843,0.04203052818775177,-0.11920475214719772,-1.4213134050369263,0.002542037284001708,-1.044531226158142,1.5612585544586182,-0.05454830825328827,-0.3295225203037262,0.24974828958511353
0.04343213140964508,-0.21493719518184662,-7.918250958027784e-06,-0.3545718491077423,-0.002542976289987564,-0.277805358171463,-0.06310760229825974,-1.4746941328048706,0.001307278173044324,-1.0405265092849731,1.5663394927978516,-0.15845178067684174,-0.3609853982925415,0.28080570697784424
0.0534706749022007,-0.2286660224199295,-6.413783012249041e-06,-0.2871823012828827,0.015327946282923222,-0.49989694356918335,-0.030034592375159264,-1.5056010484695435,0.002127500483766198,-1.0405395030975342,1.5700292587280273,-0.20576614141464233,-0.424042284488678,0.23188026249408722
-0.07141412049531937,-0.2094440907239914,0.0002353375602979213,0.05980919674038887,0.04019051790237427,-0.6911402344703674,0.00034713640343397856,-1.4597513675689697,0.0014186843764036894,-1.0473177433013916,1.5728639364242554,-0.23555631935596466,-0.7115203142166138,0.21606364846229553
-0.07589786499738693,-0.17345479130744934,0.00019062342471443117,0.054810408502817154,0.050362858921289444,-0.41822105646133423,0.009715557098388672,-1.5606262683868408,0.0001476054167142138,-1.0470764636993408,1.5759189128875732,-0.2166847288608551,-0.6853750348091125,0.3472449779510498
-0.010837533511221409,-0.09869746118783951,4.3649277358781546e-05,-0.344016432762146,-0.0009123068884946406,-0.1601400226354599,0.11068467050790787,-1.5064908266067505,-0.0026924421545118093,-1.0479676723480225,1.5820547342300415,-0.15999330580234528,-0.4663127660751343,0.3232989013195038
0.022909946739673615,-0.04208929091691971,3.535591531544924e-05,-0.1641608327627182,0.017786884680390358,-0.5307871699333191,0.12189460545778275,-1.459851622581482,-0.0018079995643347502,-1.048197865486145,1.5839111804962158,-0.13241802155971527,-0.47598084807395935,0.2824002504348755
0.05859106406569481,0.024342559278011322,0.0005188964423723519,-0.057096514850854874,0.046935465186834335,-0.6114922165870667,0.09895437955856323,-1.5056885480880737,0.0009727419819682837,-1.0484497547149658,1.5824776887893677,-0.07712676376104355,-0.5285434722900391,0.25282394886016846
0.03211980685591698,0.0730547308921814,0.0004203061107546091,-0.15059557557106018,0.037211015820503235,-0.343576580286026,0.0795130729675293,-1.5042170286178589,0.0006740351673215628,-1.0499660968780518,1.5800822973251343,-0.012437102384865284,-0.5137186050415039,0.29586151242256165
-0.0434378981590271,0.14564287662506104,-0.00018662870570551604,0.015840552747249603,-0.006480087526142597,-0.522788405418396,0.030474618077278137,-1.5999027490615845,0.0013255890225991607,-1.047739863395691,1.5689879655838013,0.1422111839056015,-0.6884163022041321,0.37259218096733093
-0.06500579416751862,0.10749348253011703,-0.00015116923896130174,-0.25319164991378784,-0.026498351246118546,-0.3257996439933777,0.02062593214213848,-1.6740155220031738,0.00046121940249577165,-1.047646403312683,1.5676640272140503,0.12362366914749146,-0.6673861742019653,0.2729733884334564
-0.047132156789302826,0.055325232446193695,-0.00012244709068909287,-0.39324891567230225,-0.03646186366677284,-0.19373905658721924,-0.004219893831759691,-1.5496121644973755,-0.00023623536981176585,-1.0482378005981445,1.5657258033752441,0.093291275203228,-0.5655521154403687,0.248059943318367
0.015514727681875229,-0.011358690448105335,-9.918214345816523e-05,-0.39037224650382996,-0.03840691223740578,-0.19706250727176666,-0.03994990512728691,-1.573940396308899,0.00012563052587211132,-1.0475252866744995,1.5631170272827148,0.050924647599458694,-0.4701732397079468,0.2528136372566223
0.0700891762971878,-0.06412521004676819,-8.03375369287096e-05,-0.3831700086593628,-0.03125462308526039,-0.14974044263362885,-0.031899403780698776,-1.6163820028305054,7.359842129517347e-05,-1.0475544929504395,1.5646013021469116,-0.005743039306253195,-0.42613300681114197,0.25433504581451416
0.10807865113019943,-0.11607344448566437,3.7161793443374336e-05,-0.3585478365421295,-0.02381024695932865,-0.2471686601638794,-0.022357121109962463,-1.6545958518981934,5.959586633252911e-05,-1.0468454360961914,1.5661402940750122,-0.06675715744495392,-0.4065922498703003,0.2539585828781128
0.09199123084545135,-0.15155521035194397,3.010972977790516e-05,-0.5270307064056396,-0.01275968924164772,0.025865573436021805,0.006059842649847269,-1.679314136505127,-4.1018232877831906e-05,-1.0468767881393433,1.5693185329437256,-0.1238672062754631,-0.3921290934085846,0.2260660082101822
0.1390353888273239,-0.1720825582742691,2.4388242309214547e-05,-0.37996789813041687,-0.0071596489287912846,-0.20827214419841766,0.056055422872304916,-1.676200032234192,-0.0010810350067913532,-1.0468676090240479,1.5737628936767578,-0.17258203029632568,-0.3509022891521454,0.23296917974948883
0.13841396570205688,-0.17789921164512634,1.9753479136852548e-05,-0.4616502821445465,0.004636729601770639,0.06453166902065277,0.09644857048988342,-1.7161720991134644,-0.0014571776846423745,-1.0469361543655396,1.5778576135635376,-0.20708245038986206,-0.36739373207092285,0.24693576991558075
0.1737925112247467,-0.18742021918296814,0.00028335978277027607,-0.2885562479496002,0.00446520559489727,-0.11299038678407669,0.10060127824544907,-1.643249273300171,-0.001618455396965146,-1.0472710132598877,1.5784573554992676,-0.22619086503982544,-0.3332543671131134,0.30327996611595154
0.21308375895023346,-0.19737887382507324,0.0004041824140585959,-0.0425119586288929,0.0063369241543114185,-0.41531506180763245,0.08753038197755814,-1.5554287433624268,-0.001304794568568468,-1.0449870824813843,1.5775805711746216,-0.23656968772411346,-0.3538473844528198,0.3389601409435272
0.2662964463233948,-0.22172723710536957,0.00032738776644691825,0.24002428352832794,-0.0061501143500208855,-0.6573986411094666,0.06412021070718765,-1.5906223058700562,-0.0006083783810026944,-1.0452580451965332,1.5741081237792969,-0.2418808937072754,-0.41429999470710754,0.3422166407108307
0.2638644874095917,-0.23480576276779175,0.0002651840914040804,0.4233662188053131,-0.005114876199513674,-0.8912817239761353,0.05500839650630951,-1.5651146173477173,-0.0008558778208680451,-1.0446330308914185,1.5745010375976562,-0.2543310225009918,-0.4914032518863678,0.3241148889064789
0.19683679938316345,-0.23303213715553284,0.00021479910355992615,0.30556580424308777,-0.004520862828940153,-0.7445659041404724,0.04894813522696495,-1.5755568742752075,-0.0012480929726734757,-1.0451267957687378,1.5754528045654297,-0.25715649127960205,-0.5518515706062317,0.29960396885871887
0.11028935015201569,-0.21591708064079285,0.0001739872677717358,0.009362004697322845,-0.0021071096416562796,-0.23321384191513062,0.04675528034567833,-1.5913541316986084,-0.0018041350413113832,-1.048571228981018,1.5766597986221313,-0.24554620683193207,-0.5252549648284912,0.3750306963920593
0.08385919034481049,0.07968023419380188,9.705852426122874e-05,-0.3294876217842102,-0.004414928611367941,-0.4303174912929535,-0.008999760262668133,-1.3674397468566895,-0.0004608251038007438,-1.0452903509140015,1.5695444345474243,0.08306775242090225,-0.3266669809818268,0.1944817155599594
0.09092460572719574,0.0927312895655632,7.861740596126765e-05,-0.31006020307540894,0.0016347102355211973,-0.14885523915290833,-0.0004122002865187824,-1.4725914001464844,-8.368891576537862e-05,-1.0543127059936523,1.5706570148468018,0.0889413058757782,-0.34352877736091614,0.27918457984924316
-0.14016874134540558,-0.002261828863993287,2.1886414742766647e-06,0.04424501955509186,0.005955408792942762,-0.4998118579387665,0.04032757133245468,-1.5368250608444214,0.000270687451120466,-1.0474002361297607,1.5723031759262085,-0.04267837479710579,-0.772611141204834,0.37480053305625916
-0.07627010345458984,0.01141546480357647,1.6772033859524527e-06,0.1630677878856659,-0.009341015480458736,-0.7330053448677063,0.022935135290026665,-1.6073561906814575,0.0012692533200606704,-1.0448002815246582,1.5687189102172852,-0.007014492526650429,-0.7742534279823303,0.30918121337890625
-0.029655825346708298,0.013316056691110134,1.3585347460320918e-06,0.2839733958244324,-0.0121799660846591,-0.9384464025497437,0.01063576154410839,-1.5740495920181274,0.002517022890970111,-1.047863245010376,1.5659313201904297,0.01042271964251995,-0.7984718680381775,0.25680506229400635
-0.019394146278500557,0.025019418448209763,1.1004132147718337e-06,0.28801390528678894,-0.009053032845258713,-0.8984957337379456,0.0116555942222476,-1.5760306119918823,0.001402795547619462,-1.0477614402770996,1.5682827234268188,0.015344731509685516,-0.7978006601333618,0.23829308152198792
-0.021477827802300453,0.02840820886194706,8.913346505323716e-07,0.22668670117855072,-0.008025724440813065,-0.6002674102783203,0.005670123267918825,-1.6609779596328735,0.0018024059245362878,-1.047645926475525,1.5672041177749634,0.02718433178961277,-0.7788624167442322,0.2879480719566345
0.032380566000938416,0.08552813529968262,7.609613930981141e-06,0.20157013833522797,-0.00417232746258378,-0.6293702125549316,0.007190920878201723,-1.700640082359314,0.0007553739123977721,-1.0477004051208496,1.5692386627197266,0.08583267033100128,-0.6781372427940369,0.3593432903289795
-0.028846388682723045,0.08796151727437973,6.163787475088611e-06,-0.01672668382525444,-0.0005453602061606944,-0.4792581796646118,0.009566388092935085,-1.7791794538497925,0.00011449658632045612,-1.0476069450378418,1.5707076787948608,0.08275222778320312,-0.7531566619873047,0.2913985252380371
0.17124693095684052,0.1973562389612198,0.00020452620810829103,-0.4389561712741852,-0.0015391664346680045,0.08754056692123413,0.0706750676035881,-1.7941076755523682,0.01755758561193943,-1.0466364622116089,1.5771563053131104,0.1564682573080063,-0.32587578892707825,0.24145962297916412
0.18344759941101074,0.20834194123744965,0.0001656662207096815,-0.2685357630252838,-0.0013405266217887402,0.09386114776134491,0.04539327323436737,-1.6768500804901123,0.014484948478639126,-1.0467777252197266,1.574881911277771,0.1757921427488327,-0.32928818464279175,0.34351420402526855
0.003854425624012947,0.09655843675136566,0.0003012774104718119,0.1273292452096939,-0.003872171975672245,-0.6693772673606873,0.019530287012457848,-1.4458550214767456,6.250693695619702e-05,-1.052331805229187,1.5721068382263184,0.08078722655773163,-0.6400228142738342,0.3657691776752472
-0.016994990408420563,0.09698128700256348,0.00024403471616096795,-0.009777088649570942,-0.013824114575982094,-0.7753325700759888,0.00934815313667059,-1.5012692213058472,0.0009542395710013807,-1.0511819124221802,1.5693670511245728,0.09499194473028183,-0.6278882622718811,0.2812314033508301
0.05973941087722778,-0.2463919222354889,-3.869788270094432e-05,-0.22506855428218842,-0.038610588759183884,-0.5480530261993408,-0.007196984253823757,-1.415738582611084,-0.002430326072499156,-1.0450044870376587,1.5693168640136719,-0.19229987263679504,-0.458752304315567,0.19274567067623138
0.08155091106891632,-0.2928411364555359,0.0006184129742905498,-0.17615489661693573,-0.017552874982357025,-0.5994604229927063,-0.0059133367612957954,-1.385882019996643,-0.0005184810725040734,-1.0453530550003052,1.5698158740997314,-0.25275719165802,-0.4202919900417328,0.23822006583213806
0.0645366981625557,-0.3532405197620392,0.0005009144661016762,-0.32567012310028076,-0.025815332308411598,-0.3262149393558502,-0.007124769501388073,-1.3973135948181152,-0.001448193215765059,-1.0506689548492432,1.5693920850753784,-0.30817678570747375,-0.3901374042034149,0.2472008913755417
0.056915540248155594,-0.4012542963027954,0.00040689765592105687,-0.5078508853912354,-0.019342880696058273,0.11879555881023407,0.003837073687463999,-1.3791803121566772,-0.0013799599837511778,-1.0504895448684692,1.5705922842025757,-0.36490583419799805,-0.3013363778591156,0.32050621509552
0.025589605793356895,-0.1806173026561737,1.7120790289482102e-05,-0.4642980396747589,0.011777856387197971,0.1590382307767868,0.040186911821365356,-1.686502456665039,-0.00025874495622701943,-1.0450479984283447,1.5749017000198364,-0.22613075375556946,-0.44228535890579224,0.33408039808273315
0.0535794198513031,-0.11375457793474197,1.3867839697923046e-05,-0.4079517722129822,0.00917158741503954,-0.009991099126636982,0.06730568408966064,-1.6521883010864258,-0.0008339085034094751,-1.0454829931259155,1.5770972967147827,-0.17527739703655243,-0.41358688473701477,0.30761492252349854
0.06451942026615143,-0.031637270003557205,1.123294987337431e-05,-0.41921475529670715,0.009734352119266987,0.03380008414387703,0.10391272604465485,-1.6363043785095215,-0.0019843089394271374,-1.0460079908370972,1.5802536010742188,-0.11480637639760971,-0.39696937799453735,0.3034612238407135
0.11932768672704697,0.2073659598827362,5.595531092694728e-06,-0.015356302261352539,-0.011134373024106026,-0.43430423736572266,0.05347448214888573,-1.6033518314361572,-0.0010314868995919824,-1.0452321767807007,1.5741312503814697,0.1455610692501068,-0.4387935698032379,0.3722774088382721
0.08643513917922974,0.2565748989582062,4.5323804442887194e-06,-0.023748768493533134,-0.035634275525808334,-0.5211769938468933,0.03578091785311699,-1.5766085386276245,-0.0010220021940767765,-1.0459648370742798,1.5707452297210693,0.22486549615859985,-0.5219537019729614,0.31763359904289246
0.030722735449671745,0.2930481433868408,3.6712281143991277e-06,-0.2182680070400238,-0.05743494629859924,-0.2421354502439499,0.021951638162136078,-1.5914052724838257,-0.0017842124216258526,-1.0503090620040894,1.568467617034912,0.2841900587081909,-0.5161115527153015,0.3042430877685547
0.030073126778006554,0.33269479870796204,-0.0002589997893664986,-0.16691213846206665,-0.05218835175037384,-0.33347082138061523,0.013411527499556541,-1.4974749088287354,-0.0016347516793757677,-1.0469861030578613,1.5681263208389282,0.3311983048915863,-0.4851098358631134,0.3303845524787903
0.007562493905425072,0.35961994528770447,-0.00019992367015220225,-0.28846368193626404,-0.05913131684064865,-0.00957209151238203,-0.007820656523108482,-1.5565460920333862,-0.0015131235122680664,-1.048874855041504,1.5658115148544312,0.37219029664993286,-0.472293496131897,0.35756129026412964
-0.0248574186116457,0.33871492743492126,-9.268662688555196e-05,-0.23719090223312378,-0.1036115363240242,-0.3478127121925354,-0.07241308689117432,-1.416275143623352,-0.0015193573199212551,-1.0499188899993896,1.556931734085083,0.42891284823417664,-0.5096525549888611,0.3137413561344147
-0.027349330484867096,0.3076570928096771,-7.507616828661412e-05,-0.17658084630966187,-0.10333386808633804,-0.4858146011829376,-0.07088635116815567,-1.425713300704956,-0.002422130201011896,-1.0494449138641357,1.5571377277374268,0.41432690620422363,-0.4988527297973633,0.29751527309417725
-0.059314560145139694,0.26513078808784485,-0.0008466647122986615,-0.23793937265872955,-0.11472636461257935,-0.3212883770465851,-0.06127125769853592,-1.5226126909255981,-0.004347583279013634,-1.0496156215667725,1.5582985877990723,0.37185466289520264,-0.5560723543167114,0.27995193004608154
-0.09486597031354904,0.21347390115261078,-0.000828167365398258,-0.2409176528453827,-0.10560236871242523,-0.36275118589401245,-0.06019872799515724,-1.5489721298217773,-0.004089519381523132,-1.0494403839111328,1.5590497255325317,0.3219345808029175,-0.5835615992546082,0.29418516159057617
-0.08783802390098572,0.17919428646564484,-0.0006650626310147345,-0.12030600756406784,-0.07214438170194626,-0.5299112200737,-0.043186839669942856,-1.5837849378585815,-0.002376170828938484,-1.0504634380340576,1.5624865293502808,0.25820550322532654,-0.656151294708252,0.25614070892333984
-0.10924595594406128,0.13373495638370514,-0.0005387007258832455,-0.2142350822687149,-0.07714235037565231,-0.23427559435367584,-0.03820669278502464,-1.6802011728286743,-0.003050723811611533,-1.050008773803711,1.5630767345428467,0.20646345615386963,-0.6922692060470581,0.27077236771583557
-0.10421817749738693,0.07303307205438614,-0.0004264074086677283,-0.28900694847106934,-0.07369006425142288,0.11890973150730133,-0.06449836492538452,-1.7553261518478394,-0.0018330563325434923,-1.0502252578735352,1.560865044593811,0.1561717391014099,-0.660862386226654,0.34727057814598083
0.030190983787178993,-0.19590356945991516,-6.535043939948082e-05,-0.18764597177505493,0.01904609240591526,-0.42461591958999634,0.05672072991728783,-1.4751367568969727,0.0003299103700555861,-1.0460467338562012,1.5781521797180176,-0.25019723176956177,-0.4535036087036133,0.3094562590122223
0.036062464118003845,-0.13398073613643646,-5.2933854021830484e-05,-0.17450295388698578,0.04853034019470215,-0.426220566034317,0.05358392000198364,-1.4744787216186523,0.002410075394436717,-1.050830364227295,1.578972339630127,-0.20988303422927856,-0.48082059621810913,0.2878391444683075
0.061113327741622925,-0.08716432750225067,-4.2876421503024176e-05,-0.038351673632860184,0.0326010063290596,-0.5797713994979858,0.043194543570280075,-1.3943676948547363,0.0015843156725168228,-1.0502433776855469,1.5770858526229858,-0.15409523248672485,-0.4764716625213623,0.30181166529655457
0.09362805634737015,-0.059158410876989365,-3.472990283626132e-05,0.14707623422145844,0.00223172246478498,-0.8207380771636963,0.027973957359790802,-1.4394288063049316,0.0016502676298841834,-1.0493953227996826,1.5726637840270996,-0.09727630019187927,-0.5111117362976074,0.30247315764427185
0.05813533812761307,-0.016485339030623436,-2.813122046063654e-05,0.15381017327308655,0.004185511730611324,-0.8505840301513672,0.02517094276845455,-1.3945900201797485,0.0008233909611590207,-1.0489734411239624,1.5733481645584106,-0.05332076922059059,-0.57375168800354,0.2627827227115631
-0.03212560713291168,0.015811465680599213,-2.2786289264331572e-05,-0.10888347774744034,-0.005685475189238787,-0.4387381076812744,0.01683059334754944,-1.4008629322052002,0.0010868192184716463,-1.048707365989685,1.571276307106018,-0.009577224031090736,-0.5639203786849976,0.2981593906879425
-0.04216929152607918,0.03316257894039154,0.0007497819024138153,0.15206515789031982,-0.04690302535891533,-0.6965084075927734,-0.01358744315803051,-1.3907079696655273,0.002090797759592533,-1.0475977659225464,1.5626033544540405,0.06116544082760811,-0.6578161120414734,0.329926073551178
-0.07912974804639816,0.018048804253339767,0.0006072807591408491,0.15989577770233154,-0.04501824826002121,-0.7824016809463501,-0.02042296528816223,-1.371985912322998,0.0032713727559894323,-1.041703462600708,1.5606242418289185,0.05706481263041496,-0.6708049774169922,0.3403233289718628
-0.0933556780219078,0.003019588068127632,0.0006127271335572004,0.19179420173168182,-0.03767856955528259,-0.7977748513221741,-0.017775116488337517,-1.3962597846984863,0.0028536058962345123,-1.0427216291427612,1.562124490737915,0.038267940282821655,-0.7169373035430908,0.30407482385635376
-0.15398460626602173,0.002079977886751294,0.0004963090177625418,-0.035549867898225784,-0.02400418370962143,-0.4236689507961273,-0.0083610313013196,-1.51436185836792,0.0014628780772909522,-1.0448590517044067,1.5659860372543335,0.02125813439488411,-0.7292386293411255,0.3402236998081207
-0.1810123324394226,0.01657630316913128,0.0004020130727440119,-0.13071055710315704,0.004036948550492525,-0.3514474332332611,0.0007292695809155703,-1.566314935684204,0.0018036994151771069,-1.0452815294265747,1.5691828727722168,0.013835798017680645,-0.7219271063804626,0.3513781726360321
-0.1784035861492157,0.017129307612776756,0.0003256305935792625,-0.17145054042339325,3.451207930993405e-06,-0.27578699588775635,-0.0008612099336460233,-1.5692821741104126,0.0013303749728947878,-1.0456427335739136,1.5691808462142944,0.0156023558229208,-0.7288548946380615,0.322300523519516
0.01618204452097416,-0.053905121982097626,-0.00039610377280041575,-0.30011722445487976,-0.026043685153126717,-0.18717604875564575,-0.033451031893491745,-1.5950592756271362,0.0009059610893018544,-1.0510892868041992,1.566244125366211,-0.018775178119540215,-0.5042877197265625,0.3028406500816345
0.04520693048834801,-0.0361238457262516,-0.00032084406120702624,-0.24183543026447296,-0.004784256685525179,-0.2906382083892822,0.008900400251150131,-1.6003479957580566,0.0006344722351059318,-1.050041913986206,1.571282982826233,-0.03496954217553139,-0.4804688096046448,0.29070723056793213
0.06446294486522675,-0.004908453207463026,-0.00025987601839005947,-0.2592623233795166,0.019298190250992775,-0.1418267786502838,0.0350642167031765,-1.6062507629394531,0.0011352266883477569,-1.0495367050170898,1.575048804283142,-0.03554713726043701,-0.470462828874588,0.30303215980529785
-0.18464641273021698,-0.08594455569982529,1.7387295883963816e-05,-0.2945699095726013,-0.00975935347378254,-0.2380966991186142,0.00997207872569561,-1.4495686292648315,-0.0006983506609685719,-1.0492157936096191,1.5712765455245972,-0.06648696213960648,-0.6492829322814941,0.35886263847351074
-0.16762447357177734,-0.11694611608982086,1.4083709174883552e-05,-0.4249069392681122,-0.007182902656495571,-0.12068828195333481,0.007605420891195536,-1.562565803527832,-0.0005070956540293992,-1.0489108562469482,1.5712202787399292,-0.10153419524431229,-0.610863208770752,0.2889319956302643
-0.14100368320941925,-0.1383153647184372,1.1407804777263664e-05,-0.5727522969245911,-0.0046279518865048885,0.14463719725608826,0.02578151971101761,-1.624741792678833,-0.0008666571811772883,-1.0486676692962646,1.572799563407898,-0.13260343670845032,-0.5718763470649719,0.25770094990730286
-0.012276331894099712,-0.11626404523849487,6.062575266696513e-06,-0.3532426357269287,-0.003313482739031315,-0.06842361390590668,0.08109617978334427,-1.4748538732528687,-0.000892318261321634,-1.0495333671569824,1.578459620475769,-0.15826819837093353,-0.4388517439365387,0.33332622051239014
-0.08180950582027435,-0.05161566659808159,0.00032465645927004516,-0.11226886510848999,0.006091328337788582,-0.5416777729988098,-0.02628137171268463,-1.369361162185669,0.0007640555268153548,-1.0482652187347412,1.569101333618164,-0.03497620299458504,-0.5737507939338684,0.338127464056015
-0.10372259467840195,-0.06860923767089844,0.0002629717346280813,-0.248325914144516,-0.004710633773356676,-0.3794936239719391,-0.022536106407642365,-1.446290373802185,-7.055029709590599e-05,-1.0480831861495972,1.5688931941986084,-0.048257458955049515,-0.5836140513420105,0.2826645076274872
-0.12730582058429718,-0.07408510148525238,0.0002130073116859421,-0.4544735550880432,-0.0002659967285580933,0.045092180371284485,-0.007767212577164173,-1.5649511814117432,-0.00013448967365548015,-1.047935128211975,1.5703766345977783,-0.06326255202293396,-0.5524997711181641,0.2970525920391083
-0.0065867481753230095,0.39544299244880676,-6.287603173404932e-05,0.1598682999610901,-0.0011931171175092459,-0.6125237345695496,-0.0044311704114079475,-1.6244958639144897,0.0016309941420331597,-1.0489451885223389,1.5665658712387085,0.3998156189918518,-0.7150803208351135,0.33533746004104614
-0.026817182078957558,0.4009007215499878,-5.092958235763945e-05,0.0927002802491188,0.0034247133880853653,-0.7013895511627197,0.0021166768856346607,-1.5084724426269531,0.0004790261446032673,-1.048520803451538,1.569333791732788,0.39651307463645935,-0.6948067545890808,0.3047603666782379
-0.050405628979206085,0.3952081799507141,-4.125296254642308e-05,-0.015056819655001163,-0.00703940587118268,-0.6186466217041016,-0.0020261930767446756,-1.4641224145889282,0.0008117034449242055,-1.0488967895507812,1.568023681640625,0.39976727962493896,-0.652055561542511,0.2854033410549164
-0.05806079879403114,0.37262195348739624,-3.341490082675591e-05,-0.076539546251297,-0.0305449478328228,-0.6537047624588013,-0.004579754546284676,-1.4188344478607178,0.00014603543968405575,-1.0472807884216309,1.5665876865386963,0.3959391117095947,-0.6221868395805359,0.27501019835472107
-0.04108413681387901,0.36493703722953796,-2.7066069378633983e-05,-0.14891928434371948,-0.017420494928956032,-0.6025866270065308,-0.004051653202623129,-1.4982013702392578,0.0006177445175126195,-1.0492792129516602,1.567588448524475,0.3812396228313446,-0.6104523539543152,0.2377569079399109
-0.045512594282627106,0.34554412961006165,-2.192351530538872e-05,-0.23084323108196259,-0.026421211659908295,-0.5238082408905029,-0.0036482203286141157,-1.421797275543213,-0.0005697397864423692,-1.0532305240631104,1.5678342580795288,0.3683720529079437,-0.5708497166633606,0.22557449340820312
-0.016980847343802452,0.33826950192451477,-1.7758047761162743e-05,-0.13725781440734863,-0.007722717244178057,-0.7588958740234375,-0.0028041289187967777,-1.3746659755706787,0.0008336417959071696,-1.0515446662902832,1.5687811374664307,0.35092276334762573,-0.5376476049423218,0.21543967723846436
0.03507758677005768,0.3190847337245941,0.0003233920142520219,-0.3317282795906067,-0.004977906588464975,-0.20795562863349915,-0.01114643644541502,-1.6144577264785767,0.0003129402466583997,-1.0488537549972534,1.5686172246932983,0.33198773860931396,-0.4855615794658661,0.2387371063232422
0.06832611560821533,0.3091305196285248,0.0002616920683067292,-0.2921675145626068,-0.0022414636332541704,-0.23308037221431732,-0.004972231574356556,-1.5991302728652954,0.00024259199562948197,-1.0480915307998657,1.5694941282272339,0.3188685178756714,-0.4490872323513031,0.2820187211036682
0.10330057144165039,0.28926002979278564,0.00021197012392804027,-0.3694751262664795,-0.005352315492928028,0.07520076632499695,-0.017871005460619926,-1.6816258430480957,0.000440942618297413,-1.0479247570037842,1.5683139562606812,0.30583885312080383,-0.41583874821662903,0.3053441047668457
0.19048233330249786,0.25226643681526184,0.0001716957922326401,-0.09612900763750076,-0.008744233287870884,-0.23213344812393188,-0.05110064148902893,-1.5741181373596191,0.0014181795995682478,-1.048066258430481,1.5650522708892822,0.2897854149341583,-0.3697364330291748,0.36892426013946533
0.07630512863397598,-0.020143263041973114,6.350922194542363e-05,-0.07824168354272842,0.01851455681025982,-0.2033175528049469,0.037720609456300735,-1.7402780055999756,3.5257085983175784e-05,-1.0462794303894043,1.5730398893356323,-0.054059553891420364,-0.5550061464309692,0.39920249581336975
0.10882110893726349,0.023363111540675163,5.104971569380723e-05,0.026744036003947258,0.034519925713539124,-0.5030679702758789,0.042110562324523926,-1.6715223789215088,0.00016787338245194405,-1.0471433401107788,1.574842095375061,-0.027501588687300682,-0.5595784187316895,0.3319835066795349
0.09547518193721771,0.053093716502189636,4.135027120355517e-05,-0.11963079869747162,0.024234728887677193,-0.4048844873905182,0.03385746851563454,-1.675769567489624,-2.9238444767543115e-05,-1.0481268167495728,1.5739027261734009,0.011531775817275047,-0.5454039573669434,0.29969340562820435
0.12322213500738144,0.16206607222557068,2.1975229174131528e-05,-0.14032185077667236,0.017960907891392708,-0.3854826092720032,0.020470572635531425,-1.7065962553024292,0.00024010984634514898,-1.0475916862487793,1.5729751586914062,0.126530721783638,-0.5010399222373962,0.2638704180717468
0.13166747987270355,0.19109225273132324,1.6224930732278153e-05,-0.1668538600206375,0.005412648897618055,-0.10953815281391144,0.012045430950820446,-1.7412883043289185,-0.00013098394265398383,-1.0492204427719116,1.571691870689392,0.1663893759250641,-0.48842853307724,0.30759280920028687
-0.03290649875998497,0.13230536878108978,-0.00021092848328407854,-0.036363862454891205,-0.027505973353981972,-0.43968287110328674,-0.07255388796329498,-1.6821907758712769,0.0018717995844781399,-1.0472519397735596,1.561728596687317,0.18963094055652618,-0.6500300765037537,0.32713600993156433
-0.030689360573887825,0.0909268781542778,-0.00017085207218769938,-0.04701772704720497,-0.046982333064079285,-0.3807470500469208,-0.06384651362895966,-1.6644281148910522,0.0009704362018965185,-1.047445297241211,1.5615520477294922,0.15516908466815948,-0.6883978843688965,0.30518829822540283
-0.01230102963745594,0.035551272332668304,-0.00013839018356520683,-0.038744352757930756,-0.06103464961051941,-0.39780193567276,-0.058272939175367355,-1.6636825799942017,0.00033267788239754736,-1.0462584495544434,1.561231255531311,0.11243750900030136,-0.6565124988555908,0.3291514813899994
-0.01347376499325037,-0.00654624542221427,-0.000113217334728688,-0.06472563743591309,-0.03998053818941116,-0.5252953767776489,-0.04546615481376648,-1.6947293281555176,0.0005352534353733063,-1.0449256896972656,1.5637096166610718,0.05495484545826912,-0.6582791209220886,0.2984321415424347
-0.09752371907234192,-0.30528682470321655,-2.1183859644224867e-05,-0.6725345849990845,-0.002109444234520197,0.08551359176635742,-0.011191499419510365,-1.5699924230575562,0.000790465681347996,-1.0430999994277954,1.569547176361084,-0.28261491656303406,-0.48068737983703613,0.15981730818748474
-0.07328486442565918,-0.36210551857948303,-1.7161164578283206e-05,-0.6078854203224182,-0.001429214607924223,0.09660068154335022,-0.04925010725855827,-1.4854930639266968,0.0013932958245277405,-1.043871521949768,1.5665403604507446,-0.3177945911884308,-0.4181462526321411,0.21968132257461548
-0.03425999730825424,-0.40662604570388794,-1.3900544217904098e-05,-0.529830276966095,-0.0011022428516298532,0.062001246958971024,-0.043859608471393585,-1.4709968566894531,0.0012015796964988112,-1.0443923473358154,1.5670149326324463,-0.36177903413772583,-0.3864360451698303,0.2853517234325409
-0.006406434811651707,-0.451983779668808,-4.44141223852057e-05,-0.4935402572154999,-0.0010268086334690452,0.059281326830387115,-0.040146585553884506,-1.541521668434143,0.0010454135481268167,-1.0420323610305786,1.5674561262130737,-0.4091033935546875,-0.3787013590335846,0.306433767080307
0.026210881769657135,-0.4812515377998352,-3.597543764044531e-05,-0.38218340277671814,0.0008134247618727386,-0.19570983946323395,-0.006246904842555523,-1.5052738189697266,0.00018109215307049453,-1.042900562286377,1.5704469680786133,-0.4566294550895691,-0.396750271320343,0.29151690006256104
0.02730156108736992,-0.5012924671173096,0.0004733093664981425,-0.4835936427116394,0.007066668476909399,0.013476241379976273,0.024427253752946854,-1.553561806678772,-0.0001888188417069614,-1.0437458753585815,1.5733407735824585,-0.4983478784561157,-0.3948606550693512,0.27005359530448914
0.0686173066496849,-0.5081264972686768,0.00038338059675879776,-0.32542675733566284,0.009792299009859562,-0.23821498453617096,0.06629926711320877,-1.5455422401428223,-0.001230678171850741,-1.0429085493087769,1.5769660472869873,-0.5311042070388794,-0.37897738814353943,0.28609898686408997
0.07881144434213638,-0.5001107454299927,0.000310538278426975,-0.20719434320926666,0.030733829364180565,-0.5617766380310059,0.08071249723434448,-1.4762680530548096,0.00018178235040977597,-1.0432734489440918,1.5795106887817383,-0.5514394044876099,-0.42546042799949646,0.2535136342048645
-0.022304866462945938,-0.49817779660224915,0.0003169981937389821,-0.36725619435310364,0.00509623670950532,-0.15711309015750885,0.024037152528762817,-1.505661964416504,-0.0003817321266978979,-1.0460420846939087,1.5732040405273438,-0.5107139348983765,-0.4774779975414276,0.25260359048843384
-0.1111069992184639,-0.2036224603652954,-0.00023278604203369468,-0.043692804872989655,0.008117282763123512,-0.8183096051216125,0.06153026595711708,-1.4065929651260376,-0.002639041282236576,-1.0441452264785767,1.5795992612838745,-0.2510523796081543,-0.7419257760047913,0.23022249341011047
0.05171319097280502,-0.11944802105426788,-0.0001001678392640315,-0.5691543221473694,-0.0009513019467703998,-0.3586733937263489,-0.01296023465692997,-1.3351019620895386,-0.002167104510590434,-1.043891191482544,1.5710546970367432,-0.12045467644929886,-0.3239814043045044,0.10410996526479721
0.025963716208934784,0.03882493078708649,4.711221845354885e-05,0.2665996849536896,0.022033043205738068,-0.899515688419342,0.016188977286219597,-1.4429734945297241,-0.0024792682379484177,-1.0687685012817383,1.5588939189910889,0.006155543029308319,-0.6691375374794006,0.2426227480173111
-0.00019643845735117793,0.08863458037376404,3.816089883912355e-05,0.3063696324825287,0.01949617639183998,-0.7562569975852966,0.021713601425290108,-1.3935418128967285,-0.0035022918600589037,-1.0653349161148071,1.5645698308944702,0.04431847855448723,-0.6768102049827576,0.33163902163505554
0.1169244647026062,0.34119346737861633,4.624212579074083e-06,0.4496672749519348,-0.005012103356420994,-1.0736594200134277,-0.04006136581301689,-1.3560646772384644,0.0009767095325514674,-1.0448397397994995,1.5643953084945679,0.3667915463447571,-0.6155716776847839,0.28660354018211365
0.1519271433353424,0.32537001371383667,3.745612275452004e-06,0.5337997674942017,-0.0038093440234661102,-1.0080538988113403,-0.036113567650318146,-1.4795621633529663,0.0013126966077834368,-1.0466585159301758,1.5640103816986084,0.3550095558166504,-0.6333914399147034,0.2840833365917206
