gmarotta2107/reinforcementLearning/datasets/Mid_position_dataset.csv
joint_0,joint_1,joint_2,joint_3,joint_4,joint_5,joint_6,joint_7,joint_8,joint_9,joint_10,paddle_x,paddle_y,paddle_z
-0.07840844988822937,0.07895033061504364,3.6627861845772713e-05,-0.30858251452445984,0.0098625048995018,-0.7044408321380615,-0.04585948958992958,-0.23852412402629852,0.002227886114269495,-1.8526796102523804,1.568327784538269,0.12051677703857422,-0.4490945637226105,0.44455546140670776
-0.02606242522597313,0.04073729366064072,2.966856845887378e-05,-0.39043647050857544,0.025849908590316772,-0.688378095626831,-0.027440600097179413,-0.3240046203136444,0.00633958401158452,-1.8532887697219849,1.5714681148529053,0.05942465364933014,-0.36882656812667847,0.3634868264198303
0.13125891983509064,0.126092329621315,-0.0007608050364069641,-0.25666022300720215,-0.04155261814594269,-0.7191040515899658,0.008259346708655357,-0.4088777005672455,-0.008880475535988808,-1.854361653327942,1.5692319869995117,0.14394721388816833,-0.26809483766555786,0.36646315455436707
0.15935920178890228,0.14129327237606049,-0.00019328025518916547,-0.17408736050128937,-0.02472289279103279,-0.7393314242362976,0.002186325378715992,-0.3924143612384796,-0.00541233504191041,-1.8548624515533447,1.5695641040802002,0.15244734287261963,-0.2537938356399536,0.406189501285553
0.1497022956609726,0.17453575134277344,-0.00015655701281502843,-0.17225295305252075,0.006696008145809174,-0.7115406394004822,0.0025550960563123226,-0.36251014471054077,-7.678382826270536e-05,-1.8512967824935913,1.5714858770370483,0.16164976358413696,-0.255956768989563,0.4486006200313568
0.13741667568683624,0.19230930507183075,-0.00012681118096224964,-0.13854938745498657,-0.00033729287679307163,-0.7060185670852661,0.005748207680881023,-0.3636482059955597,-0.0008120269048959017,-1.8525139093399048,1.5715053081512451,0.18031714856624603,-0.26949459314346313,0.4667539596557617
0.08831297606229782,0.19130684435367584,-0.00010310103971278295,-0.17418959736824036,-0.02543996274471283,-0.6847817897796631,0.0021771113388240337,-0.3455139994621277,-0.004172346089035273,-1.8512420654296875,1.5696468353271484,0.1996702253818512,-0.29975008964538574,0.48492273688316345
0.06843176484107971,0.20509198307991028,-8.351184078492224e-05,-0.1510774791240692,-0.014405171386897564,-0.6799307465553284,-0.0019468598766252398,-0.3700282871723175,-0.0025088584516197443,-1.8598589897155762,1.569747805595398,0.21037225425243378,-0.3333236575126648,0.47574377059936523
0.03885779529809952,0.23728476464748383,-6.764459249097854e-05,-0.15323492884635925,0.013601305894553661,-0.6752261519432068,0.0006551602273248136,-0.43031105399131775,0.0015280838124454021,-1.8583028316497803,1.5716098546981812,0.22049325704574585,-0.3762759566307068,0.4809800386428833
0.0052467635832726955,0.2845478951931,-5.47921190445777e-05,-0.19643916189670563,0.043941646814346313,-0.6899417638778687,0.004029185976833105,-0.4399230182170868,0.006166974548250437,-1.857645034790039,1.5736678838729858,0.24144016206264496,-0.40592727065086365,0.45435795187950134
-0.003127447096630931,0.3453017771244049,-4.4381617044564337e-05,-0.20481272041797638,0.06981430947780609,-0.7129642963409424,0.00479038804769516,-0.37909337878227234,0.011082947254180908,-1.8589744567871094,1.5753288269042969,0.2774111330509186,-0.4098415672779083,0.4259103834629059
-0.0039038152899593115,0.38907545804977417,-3.662724338937551e-05,-0.18275263905525208,0.05120890960097313,-0.7031002640724182,0.007009022403508425,-0.3562077283859253,0.008144724182784557,-1.8588954210281372,1.5745309591293335,0.32843318581581116,-0.4045872688293457,0.44147995114326477
0.037204962223768234,0.4142797589302063,-3.080250462517142e-05,-0.06259071081876755,0.015016474761068821,-0.7143831849098206,0.002577556297183037,-0.4155040383338928,0.0026744422502815723,-1.86004638671875,1.571913480758667,0.3814719021320343,-0.4220767021179199,0.4769876301288605
0.0802030935883522,0.4244464933872223,-2.4862561986083165e-05,0.03275706619024277,-0.020116301253437996,-0.7169551849365234,-0.010690041817724705,-0.4564586579799652,0.0008754425216466188,-1.8574494123458862,1.5690923929214478,0.423527330160141,-0.44392770528793335,0.5299667716026306
0.09152129292488098,0.43845292925834656,0.00021230078709777445,0.03887980058789253,-0.030989985913038254,-0.7047210931777954,-0.018629038706421852,-0.44482144713401794,0.0010152087779715657,-1.8563427925109863,1.5679385662078857,0.45118874311447144,-0.4461119472980499,0.5553605556488037
0.10370950400829315,0.45733070373535156,0.00023325196525547653,0.02208750508725643,-0.028957366943359375,-0.7147260308265686,-0.01815422810614109,-0.4626373052597046,0.0009077683789655566,-1.8554731607437134,1.5680149793624878,0.4705299437046051,-0.4323137402534485,0.5519877076148987
0.11934907734394073,0.4610018730163574,0.00018893409287557006,-0.0292343907058239,-0.04220530018210411,-0.6947145462036133,-0.02496471256017685,-0.49269527196884155,0.0008710044203326106,-1.8552881479263306,1.5668479204177856,0.4868377149105072,-0.4052298665046692,0.5262460112571716
0.12268707156181335,0.44810032844543457,0.00015352391346823424,-0.12549644708633423,-0.06640063971281052,-0.6906527876853943,-0.02869095653295517,-0.4381070137023926,-0.0012333656195551157,-1.8532768487930298,1.5653364658355713,0.49520936608314514,-0.35742291808128357,0.4974140524864197
0.1355149745941162,0.42164039611816406,0.00012435438111424446,-0.1775561273097992,-0.08688981086015701,-0.6982123255729675,-0.02597939409315586,-0.44236430525779724,-0.005455846898257732,-1.8546088933944702,1.5643527507781982,0.4894367456436157,-0.3073453903198242,0.45555397868156433
0.1485682874917984,0.41175132989883423,0.00010072704026242718,-0.19676533341407776,-0.06368996948003769,-0.6930332779884338,-0.022761067375540733,-0.4738582968711853,-0.003358197631314397,-1.855219841003418,1.5656863451004028,0.46724817156791687,-0.2843313217163086,0.42807307839393616
0.14476490020751953,0.4177907705307007,0.0006864584283903241,-0.24854856729507446,-0.027300875633955002,-0.7050115466117859,-0.020976437255740166,-0.48504477739334106,0.0017049262532964349,-1.8532510995864868,1.5676445960998535,0.44560059905052185,-0.2729865610599518,0.40417423844337463
0.12730951607227325,0.407440721988678,0.0005560313584282994,-0.3248663544654846,-0.02986389398574829,-0.6887273788452148,-0.013065294362604618,-0.40252500772476196,-0.00013708375627174973,-1.854621410369873,1.5683048963546753,0.4341268837451935,-0.24569961428642273,0.36625605821609497
0.10325513035058975,0.3801842927932739,0.0004451406130101532,-0.41350361704826355,-0.039570413529872894,-0.6746832132339478,-0.01651250384747982,-0.4143558442592621,-0.00417845556512475,-1.8521312475204468,1.567082166671753,0.42000988125801086,-0.23098686337471008,0.33225786685943604
0.07295391708612442,0.2443203330039978,0.00010305897740181535,-0.37399885058403015,-0.0036015179939568043,-0.7479949593544006,0.0003145398513879627,-0.2289181500673294,0.0007324395119212568,-1.8593134880065918,1.570939302444458,0.25641199946403503,-0.2217525988817215,0.3022609353065491
0.06713235378265381,0.24217002093791962,0.001021212199702859,-0.3374478220939636,0.010003507137298584,-0.7197468280792236,0.005223080515861511,-0.2874557375907898,0.004523640964180231,-1.8565815687179565,1.5729042291641235,0.23807679116725922,-0.24581384658813477,0.3497260808944702
0.05917248874902725,0.22401125729084015,0.0008271437254734337,-0.3202454745769501,-0.0013700438430532813,-0.7244330048561096,0.006877764593809843,-0.2660655081272125,0.001427189097739756,-1.855469822883606,1.5718728303909302,0.2274242341518402,-0.2634279131889343,0.36845824122428894
0.022979505360126495,0.18962810933589935,0.0006699864170514047,-0.36439037322998047,-0.018404902890324593,-0.7064262628555298,-0.001018789131194353,-0.24421551823616028,-0.0032278585713356733,-1.8519995212554932,1.5693215131759644,0.21279804408550262,-0.2726084589958191,0.3706427216529846
-0.014687707647681236,0.16875427961349487,0.0005426889983937144,-0.37454333901405334,-0.007799530401825905,-0.6983135342597961,-0.004788620863109827,-0.2883072793483734,-0.0009308872395195067,-1.8528776168823242,1.5699589252471924,0.1876567304134369,-0.3016619086265564,0.34941622614860535
-0.050248999148607254,0.1643749475479126,0.00044022349175065756,-0.3498365879058838,0.008306335657835007,-0.7037197947502136,0.003843091195449233,-0.2978164255619049,0.0033475079108029604,-1.8553467988967896,1.572280764579773,0.1642303168773651,-0.3489318788051605,0.3476756513118744
-0.08274779468774796,0.16146789491176605,0.0008117165416479111,-0.3454791307449341,0.013095502741634846,-0.700529932975769,0.009281220845878124,-0.3236938714981079,0.004787553567439318,-1.8552550077438354,1.5732630491256714,0.1520155966281891,-0.3954932689666748,0.3600309491157532
-0.09358526021242142,0.14363786578178406,0.0006570143741555512,-0.30748942494392395,-2.3760690964991227e-05,-0.7084479928016663,0.006730240304023027,-0.31224074959754944,0.0011787287658080459,-1.8574670553207397,1.5718083381652832,0.14536163210868835,-0.42546698451042175,0.363880455493927
-0.10772877931594849,0.13608700037002563,0.0008478570962324739,-0.2918592393398285,0.007805527653545141,-0.6962738633155823,0.0019734150264412165,-0.383381724357605,0.0028069468680769205,-1.8553223609924316,1.5718846321105957,0.13472822308540344,-0.45637503266334534,0.38432490825653076
-0.13218985497951508,0.1438114196062088,0.0006867642514407635,-0.34103208780288696,0.02476469799876213,-0.6776427626609802,0.004898353945463896,-0.32140684127807617,0.006696626078337431,-1.8552379608154297,1.5734093189239502,0.1261676549911499,-0.46912428736686707,0.37722158432006836
-0.11803968995809555,0.13810208439826965,0.0005562790320254862,-0.3172556161880493,0.012861145660281181,-0.6707778573036194,0.006423926446586847,-0.34303978085517883,0.0037733763456344604,-1.8561420440673828,1.5725876092910767,0.12668000161647797,-0.46400371193885803,0.37467607855796814
-0.08833736181259155,0.11545581370592117,0.0004505860270000994,-0.2213333696126938,-0.008529680781066418,-0.7085559368133545,0.00033259225892834365,-0.3872321546077728,-0.0013722560834139585,-1.8588978052139282,1.5702968835830688,0.1252518743276596,-0.47038790583610535,0.4019313454627991
-0.09706912934780121,0.07738689333200455,0.00036497466498985887,-0.20099568367004395,-0.034374915063381195,-0.7236655354499817,-0.003310626372694969,-0.38486507534980774,-0.006329128053039312,-1.857372760772705,1.5681818723678589,0.11155925691127777,-0.4907887876033783,0.4293983578681946
-0.11834591627120972,0.05464934557676315,0.0002956294920295477,-0.23417389392852783,-0.022520236670970917,-0.7369403839111328,-0.007952675223350525,-0.37562450766563416,-0.004293914884328842,-1.8566925525665283,1.568340539932251,0.08517386764287949,-0.5051302909851074,0.41562655568122864
-0.13669267296791077,0.05001598596572876,0.00023945988505147398,-0.3062540590763092,0.0033595983404666185,-0.7311936020851135,-0.006555069703608751,-0.423572301864624,0.0011468537850305438,-1.8558646440505981,1.5702604055404663,0.059073686599731445,-0.5105635523796082,0.373623251914978
0.21768738329410553,-0.07520922273397446,4.055839599459432e-05,-0.24048280715942383,-0.007886526174843311,-0.7369137406349182,-0.007226534653455019,-0.32702893018722534,-0.003366012591868639,-1.8592350482940674,1.5703833103179932,-0.0550345852971077,-0.14983417093753815,0.3493139147758484
0.230827197432518,-0.08413349092006683,0.0007169455639086664,-0.12903855741024017,0.007351130712777376,-0.7265687584877014,-0.006087681744247675,-0.37222251296043396,0.00020398202468641102,-1.8579893112182617,1.5714952945709229,-0.07760200649499893,-0.17581045627593994,0.4484054446220398
0.19123435020446777,-0.08987370133399963,0.0010465888772159815,-0.12840044498443604,0.019284242764115334,-0.7070342898368835,-0.004284020513296127,-0.32658934593200684,0.0021430295892059803,-1.8567310571670532,1.5722277164459229,-0.09412752091884613,-0.21395401656627655,0.492552250623703
0.1782262921333313,-0.08171339333057404,0.0008477370138280094,-0.06680694967508316,0.042188625782728195,-0.7295529246330261,-0.0005671813851222396,-0.2660468816757202,0.004837804473936558,-1.857681393623352,1.573679804801941,-0.10526779294013977,-0.24568697810173035,0.5142049193382263
-0.01545519195497036,-0.12202303111553192,0.00010306580952601507,-0.10954131186008453,0.011378373019397259,-0.7185880541801453,0.005223434418439865,-0.30353492498397827,0.0007979794754646719,-1.8560725450515747,1.5719501972198486,-0.13019461929798126,-0.44459179043769836,0.5148637890815735
-0.007867984473705292,-0.09856922179460526,8.348331175511703e-05,-0.08620870113372803,0.037049300968647,-0.7149593830108643,0.010086550377309322,-0.36041590571403503,0.003719590837135911,-1.856502890586853,1.573817491531372,-0.12891924381256104,-0.4466817378997803,0.5071768164634705
0.008138994686305523,-0.05983718857169151,6.762147677363828e-05,-0.05418051779270172,0.06512832641601562,-0.7284247875213623,0.017724426463246346,-0.4037016034126282,0.006048734299838543,-1.8551435470581055,1.575921893119812,-0.11592193692922592,-0.4630011320114136,0.5089983344078064
-0.014229841530323029,-0.037667304277420044,5.477339800563641e-05,-0.10755419731140137,0.05214514583349228,-0.7226296663284302,0.01831660605967045,-0.4415178596973419,0.00484417425468564,-1.8540560007095337,1.5755510330200195,-0.08939620852470398,-0.4678519666194916,0.49489185214042664
-0.044192906469106674,-0.004949314519762993,4.277409607311711e-05,-0.15436536073684692,0.05655874311923981,-0.7223233580589294,0.013499877415597439,-0.4572044610977173,0.005672488361597061,-1.8563320636749268,1.5751007795333862,-0.05890386179089546,-0.4766809940338135,0.4495341181755066
-0.08524189889431,0.01538756676018238,3.464701876509935e-05,-0.25545716285705566,0.036690983921289444,-0.6985263824462891,0.013559202663600445,-0.389885812997818,0.0030979171860963106,-1.8556386232376099,1.574127197265625,-0.025963157415390015,-0.4774567186832428,0.42338141798973083
-0.08511276543140411,0.01891280896961689,2.806408519973047e-05,-0.28046295046806335,0.0071441009640693665,-0.6929767727851868,0.007637825794517994,-0.4045734107494354,-0.0024608667008578777,-1.8561877012252808,1.5715818405151367,0.002835160354152322,-0.4650070071220398,0.38793233036994934
-0.10535066574811935,0.008629877120256424,2.2731908757123165e-05,-0.34666749835014343,-0.01858535222709179,-0.6872884631156921,0.0006712097674608231,-0.4143456518650055,-0.007702063303440809,-1.8550292253494263,1.569174885749817,0.019037190824747086,-0.4583646357059479,0.3689693808555603
-0.06611636281013489,0.040102239698171616,0.000615954224485904,-0.29149511456489563,-0.01082958746701479,-0.6900269985198975,0.0012417570687830448,-0.4735947549343109,-0.0032660518772900105,-1.8560051918029785,1.5700865983963013,0.0434129498898983,-0.4508250653743744,0.36501726508140564
-0.04343829303979874,0.05082721263170242,0.0004989229491911829,-0.2493021935224533,0.0006309644086286426,-0.685133695602417,-0.001173417898826301,-0.4577069878578186,-0.0007422330672852695,-1.8576170206069946,1.5704609155654907,0.0478762648999691,-0.45180627703666687,0.3738986551761627
-0.005431595724076033,0.04956532642245293,0.0004041275824420154,-0.15073999762535095,-0.011861585080623627,-0.6807031035423279,0.0011924912687391043,-0.5020971894264221,-0.002705884166061878,-1.8576651811599731,1.5701602697372437,0.05405715852975845,-0.4494442045688629,0.4204453229904175
0.028220903128385544,0.03086123801767826,0.0003273433248978108,-0.03439033776521683,-0.03735290467739105,-0.6691758036613464,-0.0008344445959664881,-0.4779405891895294,-0.005341163836419582,-1.8583287000656128,1.5688576698303223,0.05564132332801819,-0.4629984200000763,0.48676541447639465
0.02983328327536583,0.027152512222528458,0.0002651480899658054,0.03371687978506088,-0.02639288268983364,-0.6748949289321899,0.0008796594920568168,-0.4607613980770111,-0.004466722719371319,-1.8559105396270752,1.5694003105163574,0.04727115482091904,-0.4885433614253998,0.554669976234436
-0.15551632642745972,0.07228546589612961,-5.00320820719935e-05,-0.1688370406627655,-0.031544461846351624,-0.7184908986091614,0.005024098325520754,-0.3362685441970825,-0.004517744295299053,-1.8520548343658447,1.5698078870773315,0.08785507827997208,-0.5727056264877319,0.5088062286376953
-0.17050115764141083,0.04579249024391174,-4.052598524140194e-05,-0.2801751494407654,-0.057270631194114685,-0.6988088488578796,-0.001367892837151885,-0.280565083026886,-0.009473645128309727,-1.8538453578948975,1.567120909690857,0.0879153311252594,-0.5374329090118408,0.4335930347442627
-0.15863531827926636,0.03551702946424484,-3.122212365269661e-05,-0.31791213154792786,-0.041244424879550934,-0.6900172233581543,-0.006471079308539629,-0.28104421496391296,-0.006676950957626104,-1.8548425436019897,1.5677235126495361,0.07276652008295059,-0.4999770224094391,0.4016420543193817
-0.14438581466674805,0.0355016328394413,0.0007097919587977231,-0.3622170388698578,-0.022040821611881256,-0.7099819183349609,-0.004298469051718712,-0.2617417275905609,-0.0023374499287456274,-1.8539212942123413,1.569559931755066,0.05570920556783676,-0.4727129340171814,0.3772220015525818
-0.12788131833076477,0.019937848672270775,0.0005713113932870328,-0.43794238567352295,-0.02623407170176506,-0.7143805027008057,-0.004155353177338839,-0.3334744870662689,-0.004181756172329187,-1.8519004583358765,1.568912148475647,0.04419786483049393,-0.44511154294013977,0.3196142911911011
0.13502228260040283,-0.015904810279607773,-7.129034929675981e-05,-0.2030828297138214,0.03094523772597313,-0.6842889189720154,0.010226599872112274,-0.4061447083950043,0.00830608420073986,-1.8658678531646729,1.5741815567016602,-0.052797701209783554,-0.26026013493537903,0.3947497010231018
0.16139763593673706,0.005555868148803711,-5.774518285761587e-05,-0.027989307418465614,0.014322014525532722,-0.688812792301178,0.010296459309756756,-0.43337565660476685,0.005438228137791157,-1.8641358613967896,1.5732839107513428,-0.023079687729477882,-0.3017023205757141,0.486164391040802
-0.03841615840792656,0.3172636926174164,7.021456985967234e-05,-0.23242458701133728,-0.04989905655384064,-0.7063383460044861,-0.03346691653132439,-0.2660345137119293,-0.002082242863252759,-1.8532496690750122,1.564887523651123,0.36234232783317566,-0.428365558385849,0.4839688837528229
-0.023830994963645935,0.2840738892555237,5.818248610012233e-05,-0.29825568199157715,-0.06644628196954727,-0.7165825366973877,-0.034284982830286026,-0.27274399995803833,-0.007090297527611256,-1.8549631834030151,1.563056230545044,0.34957990050315857,-0.3787963390350342,0.41901129484176636
-0.03725298494100571,0.2661687135696411,3.9634964196011424e-05,-0.4210623502731323,-0.04573257640004158,-0.7001345157623291,-0.03830747678875923,-0.28996962308883667,-0.004147816449403763,-1.8525159358978271,1.564253807067871,0.3214857280254364,-0.3475959300994873,0.35810205340385437
-0.01995314471423626,-0.18842194974422455,-0.015363351441919804,-0.35367268323898315,0.012694609351456165,-0.6854923367500305,-0.0009686800185590982,-0.3541247248649597,0.005080982111394405,-1.845776915550232,1.571824550628662,-0.16870303452014923,-0.3409414291381836,0.31905317306518555
-0.03733452036976814,-0.22315235435962677,-0.012445286847651005,-0.3041194975376129,0.002243469003587961,-0.6776529550552368,0.003366455202922225,-0.3238954246044159,0.0023476637434214354,-1.8441343307495117,1.5714292526245117,-0.2013050615787506,-0.3629530072212219,0.37630534172058105
-0.07381071895360947,-0.2468782663345337,-0.01008068211376667,-0.2971314787864685,0.012812878005206585,-0.6707392930984497,0.0021194596774876118,-0.32818230986595154,0.004344413988292217,-1.8453264236450195,1.572121500968933,-0.23400597274303436,-0.3997681736946106,0.4054699242115021
-0.08040173351764679,-0.25408935546875,-0.00816535297781229,-0.2359866201877594,0.03056216426193714,-0.6948556900024414,0.006529213860630989,-0.3080946207046509,0.008087928406894207,-1.8481827974319458,1.5740071535110474,-0.26154372096061707,-0.4335050582885742,0.4173596203327179
-0.07936139404773712,-0.2492087036371231,-0.006052099633961916,-0.19719024002552032,0.04879155382514,-0.7005286812782288,0.00998289231210947,-0.29098978638648987,0.011510845273733139,-1.8494794368743896,1.5758271217346191,-0.2768263518810272,-0.45498329401016235,0.45768070220947266
-0.10503555834293365,-0.23281921446323395,-0.004898117855191231,-0.22510333359241486,0.06592491269111633,-0.6901883482933044,0.01656951755285263,-0.3137594163417816,0.014140396378934383,-1.8493322134017944,1.5777289867401123,-0.2803129553794861,-0.4697400629520416,0.463952898979187
-0.11786358058452606,-0.23119843006134033,-0.003967475611716509,-0.2396039515733719,0.04842504486441612,-0.6951038837432861,0.018709933385252953,-0.3083939254283905,0.010607535019516945,-1.854935884475708,1.576658844947815,-0.27137744426727295,-0.4846413731575012,0.4418352246284485
-0.1284450739622116,-0.24722136557102203,-0.0032136552035808563,-0.28600013256073,0.019052473828196526,-0.6927424669265747,0.013386848382651806,-0.29441744089126587,0.004446995444595814,-1.8545645475387573,1.5737509727478027,-0.26242440938949585,-0.48100921511650085,0.42763417959213257
-0.11711268126964569,-0.2491082400083542,-0.002604097593575716,-0.29192861914634705,0.0227673277258873,-0.6980629563331604,0.0047299787402153015,-0.29521307349205017,0.005028200801461935,-1.8560564517974854,1.5731812715530396,-0.26285430788993835,-0.46529650688171387,0.4038088619709015
-0.12071854621171951,-0.2594841718673706,-0.002418532269075513,-0.3471028208732605,0.010094563476741314,-0.6856798529624939,0.005862496793270111,-0.25406038761138916,0.0020931174512952566,-1.8548322916030884,1.5721430778503418,-0.264363557100296,-0.4474498927593231,0.3961837589740753
-0.11263653635978699,-0.25629132986068726,-0.00195901095867157,-0.4054095447063446,0.017316214740276337,-0.7009798884391785,0.006195473484694958,-0.2804119884967804,0.004023730289191008,-1.854651689529419,1.5729386806488037,-0.26793333888053894,-0.42389893531799316,0.35534143447875977
-0.08341173082590103,-0.24341711401939392,-0.0008534870576113462,-0.4405061602592468,0.02405293844640255,-0.7024697065353394,0.009007357060909271,-0.30439940094947815,0.0065574608743190765,-1.8576887845993042,1.574026346206665,-0.2659264802932739,-0.39787256717681885,0.3014817535877228
-0.04092101752758026,0.017659684643149376,-9.480979315412696e-06,-0.26840049028396606,0.004441853612661362,-0.7088227868080139,0.01184995099902153,-0.35626888275146484,0.0024141990579664707,-1.8530185222625732,1.5723916292190552,-0.0029048225842416286,-0.38977324962615967,0.3753570318222046
-0.056460656225681305,0.04920539632439613,-7.679593181819655e-06,-0.17037872970104218,0.015112124383449554,-0.724214494228363,0.006935353856533766,-0.38097208738327026,0.0041640521958470345,-1.8538955450057983,1.5725631713867188,0.023010237142443657,-0.4369976222515106,0.41894039511680603
-0.0745055228471756,0.06824276596307755,-6.1242376432346646e-06,-0.10262226313352585,0.00021522647875826806,-0.7304127216339111,0.007512732408940792,-0.38611915707588196,0.001777831232175231,-1.8538823127746582,1.5718454122543335,0.05135708302259445,-0.4965831935405731,0.4678266942501068
-0.08011731505393982,0.06936279684305191,-4.978322067472618e-06,2.7710068025044166e-05,-0.0276822317391634,-0.7500872611999512,-0.00012759683886542916,-0.38478294014930725,-0.0009160795016214252,-1.8556967973709106,1.5697427988052368,0.07634786516427994,-0.5447579622268677,0.5052222609519958
0.002333285752683878,-0.15983302891254425,4.067193003720604e-05,-0.15462881326675415,0.009880105033516884,-0.7393739819526672,0.005672928877174854,-0.4410352408885956,-0.0009941168827936053,-1.8532658815383911,1.5719462633132935,-0.1519966423511505,-0.45664069056510925,0.48712217807769775
0.009639013558626175,-0.20449592173099518,3.291571556474082e-05,-0.27860456705093384,-0.009455690160393715,-0.7570832371711731,0.005639312788844109,-0.3828490376472473,-0.003922752104699612,-1.854884147644043,1.5708398818969727,-0.18257640302181244,-0.3967224359512329,0.3911696970462799
0.15510042011737823,-0.35367250442504883,0.00034202076494693756,-0.24563239514827728,0.017139121890068054,-0.6825100183486938,-0.007867109030485153,-0.44165366888046265,0.004258227068930864,-1.880392074584961,1.571460485458374,-0.3713398575782776,-0.2283639907836914,0.3824324309825897
0.1308688074350357,-0.316926509141922,0.0002770368300843984,-0.20307490229606628,0.03462076187133789,-0.7094977498054504,-0.005909624509513378,-0.38700512051582336,0.00743349501863122,-1.8753130435943604,1.572619915008545,-0.35006004571914673,-0.2654012143611908,0.4216051995754242
0.09858908504247665,-0.2648082673549652,0.00022439983149524778,-0.17153769731521606,0.05606301128864288,-0.7227156758308411,-0.002726510167121887,-0.39036473631858826,0.01100833434611559,-1.8714203834533691,1.5742580890655518,-0.31890174746513367,-0.2985081374645233,0.43843379616737366
0.09175370633602142,-0.19802755117416382,0.00018176386947743595,-0.09003208577632904,0.07887715846300125,-0.7374897599220276,-0.00025547121185809374,-0.364713579416275,0.013967067934572697,-1.870044231414795,1.5757471323013306,-0.273837149143219,-0.34275251626968384,0.46241968870162964
0.09523922950029373,-0.14822174608707428,0.00014722872583661228,0.023212606087327003,0.05914366990327835,-0.7235509157180786,9.729404700919986e-05,-0.34654146432876587,0.011237437836825848,-1.8677856922149658,1.5748056173324585,-0.21576884388923645,-0.38332250714302063,0.5299081206321716
-0.07909820973873138,-0.054844584316015244,-9.807204332901165e-05,-0.026901328936219215,-0.034002725034952164,-0.7428142428398132,-0.01830383762717247,-0.3465251624584198,-0.0007571819005534053,-1.8598932027816772,1.567793607711792,-0.03330613672733307,-0.5751424431800842,0.5331103205680847
-0.17340931296348572,-0.25918298959732056,-0.00023138288815971464,-0.025085916742682457,0.055157147347927094,-0.7311539649963379,0.0860368013381958,-0.43309855461120605,-0.006241758819669485,-1.8638161420822144,1.5801202058792114,-0.33879560232162476,-0.6838057637214661,0.5355458855628967
-0.1873234212398529,-0.19446474313735962,-0.00018742014071904123,-0.08668690919876099,0.07943127304315567,-0.7250224351882935,0.0800785943865776,-0.37242698669433594,-0.0032798796892166138,-1.863728404045105,1.5807424783706665,-0.29429471492767334,-0.6559479832649231,0.5053321719169617
-0.16249383985996246,-0.11603746563196182,-0.00015181030903477222,-0.06423158943653107,0.10071299225091934,-0.729950487613678,0.07074589282274246,-0.32928818464279175,0.000728452461771667,-1.8640708923339844,1.5811082124710083,-0.23376449942588806,-0.6340638995170593,0.5063446164131165
-0.15251293778419495,0.1082846149802208,-8.197606075555086e-05,-0.17637281119823456,0.0491061694920063,-0.7176432609558105,0.04919552430510521,-0.36218583583831787,-0.0018740900559350848,-1.8591443300247192,1.5770387649536133,0.02085498720407486,-0.564304769039154,0.46784329414367676
-0.13684120774269104,0.17884041368961334,0.00019325941684655845,-0.18528659641742706,0.04522836208343506,-0.7038944363594055,0.030667046085000038,-0.3129209876060486,-0.0007293802336789668,-1.859071969985962,1.5750846862792969,0.1034446433186531,-0.5470294952392578,0.45356371998786926
-0.10557466000318527,0.25211867690086365,0.00021920363360550255,-0.18121056258678436,0.0377923920750618,-0.7183465957641602,0.027198534458875656,-0.29066935181617737,-0.00028530883719213307,-1.8579778671264648,1.574634075164795,0.18171769380569458,-0.515082597732544,0.47137293219566345
-0.053376466035842896,0.3073149621486664,0.00017755494627635926,-0.15839409828186035,0.010266904719173908,-0.7265044450759888,0.02002798393368721,-0.29060453176498413,-0.0035435263998806477,-1.8613544702529907,1.5722668170928955,0.2593197524547577,-0.4770828187465668,0.47220951318740845
-0.004217895213514566,0.3464936316013336,0.0001438195031369105,-0.13145025074481964,-0.021815717220306396,-0.7144606113433838,0.009111539460718632,-0.2560976445674896,-0.007328336127102375,-1.8607162237167358,1.5692521333694458,0.3283722698688507,-0.42984676361083984,0.4935914874076843
0.01960994303226471,0.38509273529052734,-0.0005618840223178267,-0.12854130566120148,-0.03646023944020271,-0.7273708581924438,0.0014930476900190115,-0.28867271542549133,-0.008684356696903706,-1.8585023880004883,1.5676844120025635,0.38436031341552734,-0.40182164311408997,0.5126911997795105
0.05281713977456093,0.41662442684173584,-0.0012419770937412977,-0.11565665900707245,-0.0511452779173851,-0.7255945205688477,-0.0006109834066592157,-0.27335697412490845,-0.010258759371936321,-1.8596549034118652,1.566652774810791,0.4303951561450958,-0.3786703944206238,0.5004428029060364
0.07205235213041306,0.43405547738075256,-0.0010062878718599677,-0.12637081742286682,-0.07076886296272278,-0.735375702381134,-0.008817434310913086,-0.29504045844078064,-0.01178430300205946,-1.85744309425354,1.5649158954620361,0.4673861563205719,-0.35658955574035645,0.5058255195617676
0.10897506028413773,0.4490610361099243,-0.0014588873600587249,-0.09632530063390732,-0.0763809010386467,-0.7492291331291199,-0.010323606431484222,-0.35013505816459656,-0.012336048297584057,-1.8583462238311768,1.5644742250442505,0.4923798739910126,-0.3380204141139984,0.4871112108230591
0.14439347386360168,0.4612155258655548,-0.001528990687802434,-0.036517273634672165,-0.07546796649694443,-0.759554386138916,-0.009340455755591393,-0.394848108291626,-0.011549418792128563,-1.858477234840393,1.5648995637893677,0.5063678026199341,-0.3335876166820526,0.49251285195350647
0.12980714440345764,0.4586045742034912,-0.001238482422195375,-0.07698161900043488,-0.08714596182107925,-0.746313750743866,-0.016402842476963997,-0.3465549945831299,-0.010669127106666565,-1.8574467897415161,1.5641156435012817,0.5153133273124695,-0.3284843862056732,0.5095711946487427
0.11143835633993149,0.44087159633636475,-0.0010031707352027297,-0.08798492699861526,-0.10102488100528717,-0.7553693056106567,-0.020779576152563095,-0.3462889790534973,-0.01145835779607296,-1.8606141805648804,1.563137412071228,0.5152506232261658,-0.32707107067108154,0.49348536133766174
0.0886666402220726,0.4395008385181427,-0.0008119323174469173,-0.08500397205352783,-0.07649962604045868,-0.728314995765686,-0.018027078360319138,-0.3535648584365845,-0.008772947825491428,-1.8608366250991821,1.5646456480026245,0.5007632970809937,-0.34782302379608154,0.4945756196975708
0.058026112616062164,0.4563210606575012,-0.0006583514623343945,-0.1076805368065834,-0.03507596626877785,-0.7073685526847839,-0.009880678728222847,-0.361322820186615,-0.004515090491622686,-1.8584115505218506,1.567568063735962,0.4850752055644989,-0.3735719621181488,0.5058278441429138
0.02086060866713524,0.48567837476730347,9.169384429696947e-05,-0.16929695010185242,0.004755143541842699,-0.6982822418212891,-0.0040130517445504665,-0.3773172199726105,0.0008053787751123309,-1.8564330339431763,1.5704981088638306,0.4808259606361389,-0.3886192739009857,0.4846342206001282
-0.009252113290131092,0.4967210590839386,7.427201489917934e-05,-0.2455495297908783,0.00027032801881432533,-0.717110276222229,0.0014395981561392546,-0.4219857156276703,0.00011318572069285437,-1.8557648658752441,1.5709564685821533,0.48999401926994324,-0.3996703028678894,0.4292944669723511
-0.04985034093260765,0.489418089389801,6.0160331486258656e-05,-0.33713001012802124,-0.019615663215517998,-0.7270988821983337,0.00033408106537535787,-0.35588592290878296,-0.00435258774086833,-1.8563357591629028,1.569501519203186,0.5002329349517822,-0.3972671926021576,0.3623610734939575
-0.06088809669017792,0.46804797649383545,4.872986755799502e-05,-0.36449211835861206,-0.03555246815085411,-0.7407681941986084,-0.005812733434140682,-0.3102201223373413,-0.008979628793895245,-1.8570654392242432,1.5674386024475098,0.49932461977005005,-0.3929268717765808,0.32554006576538086
-0.031052878126502037,0.43302121758461,3.9471193304052576e-05,-0.3148978650569916,-0.047660063952207565,-0.7428953051567078,-0.011321206577122211,-0.36914774775505066,-0.0126330042257905,-1.857809066772461,1.5656964778900146,0.48242175579071045,-0.39095792174339294,0.3275151252746582
0.015938686206936836,0.4120127856731415,3.419644053792581e-05,-0.2365003377199173,-0.03169490769505501,-0.7400960922241211,-0.01107926294207573,-0.3008500933647156,-0.008696164935827255,-1.8586429357528687,1.5669764280319214,0.451862633228302,-0.37191852927207947,0.37405264377593994
0.045696716755628586,0.4088090658187866,2.7699115889845416e-05,-0.19377583265304565,-0.0013661730336025357,-0.7097876667976379,-0.007849864661693573,-0.3572162389755249,-0.0022999995853751898,-1.85759699344635,1.5696485042572021,0.42343613505363464,-0.35089021921157837,0.4387068748474121
0.06652814149856567,0.41775384545326233,0.0006014524260535836,-0.13085226714611053,0.02713117189705372,-0.7192423343658447,-0.0040695988573133945,-0.370924174785614,0.0032235023099929094,-1.8578423261642456,1.572019100189209,0.40624508261680603,-0.35622575879096985,0.4585570991039276
0.0811852365732193,0.40838688611984253,0.0004871764685958624,-0.05596282705664635,0.014893579296767712,-0.7099789381027222,-0.0013678219402208924,-0.3417545258998871,0.001954009523615241,-1.8580156564712524,1.5717532634735107,0.40112337470054626,-0.3686533570289612,0.5038265585899353
-0.016404561698436737,-0.10361448675394058,0.0002704657381400466,-0.04720591381192207,0.028638411313295364,-0.7305492758750916,0.008032087236642838,-0.41674715280532837,0.002502929186448455,-1.8553987741470337,1.5731897354125977,-0.12239906191825867,-0.5142574906349182,0.5330374240875244
0.0189357940107584,-0.09896756708621979,0.00021893848315812647,-0.05384669452905655,0.03775440901517868,-0.7492053508758545,0.008743510581552982,-0.4619428515434265,0.0029108235612511635,-1.8571839332580566,1.5734606981277466,-0.1240522712469101,-0.4797992706298828,0.4896102845668793
0.03910189867019653,-0.07687338441610336,0.0001773401745595038,-0.07616622000932693,0.06050859019160271,-0.7326101660728455,0.012736722826957703,-0.3829640746116638,0.004486703779548407,-1.8602960109710693,1.5747402906417847,-0.12151914834976196,-0.44174903631210327,0.48660925030708313
0.06705960631370544,-0.07099561393260956,0.00014364553499035537,-0.04167189076542854,0.042742181569337845,-0.7263363599777222,0.011191776022315025,-0.36553704738616943,0.0032267668284475803,-1.859729528427124,1.5739434957504272,-0.10838287323713303,-0.41098201274871826,0.5106177926063538
0.03295346349477768,-0.017443658784031868,9.424583549844101e-05,-0.14756888151168823,0.06454300135374069,-0.7286971211433411,0.017781473696231842,-0.3013993501663208,0.005493310280144215,-1.8571226596832275,1.5756762027740479,-0.07485265284776688,-0.3824176490306854,0.508433997631073
0.016936440020799637,0.033318210393190384,7.633912900928408e-05,-0.24852900207042694,0.08507397025823593,-0.7238247394561768,0.02271941676735878,-0.3556900918483734,0.00990087166428566,-1.856802225112915,1.5778849124908447,-0.04588671028614044,-0.37019070982933044,0.44513481855392456
-0.003564448794350028,0.06768734008073807,6.183469668030739e-05,-0.3461543917655945,0.06590551137924194,-0.725594162940979,0.021306661888957024,-0.32938405871391296,0.007334104739129543,-1.8574942350387573,1.57664155960083,-0.002580464817583561,-0.3497554659843445,0.36919769644737244
0.0012940802844241261,0.08492313325405121,4.727302075480111e-05,-0.3773195147514343,0.03794340416789055,-0.7415491938591003,0.008772587403655052,-0.3287076950073242,0.0014364896342158318,-1.8583765029907227,1.5732852220535278,0.04191691055893898,-0.3332584798336029,0.3211835026741028
-0.003822905011475086,0.11543188244104385,3.829114939435385e-05,-0.4083089530467987,0.03772512823343277,-0.7250704765319824,0.0005727542447857559,-0.27991482615470886,0.00285326037555933,-1.858444094657898,1.57277250289917,0.07592986524105072,-0.3152690529823303,0.3053893446922302
-0.00496087409555912,0.13568416237831116,3.101582842646167e-05,-0.44800251722335815,0.021608609706163406,-0.7204212546348572,-0.00023705876083113253,-0.25067922472953796,-0.0002451085892971605,-1.8574045896530151,1.5713857412338257,0.10902845859527588,-0.2990606427192688,0.30033984780311584
-0.02535192482173443,0.14086326956748962,2.5122822989942506e-05,-0.5338313579559326,0.005917232483625412,-0.7232412099838257,-0.011925622820854187,-0.24282106757164001,-0.004032062366604805,-1.8553985357284546,1.5688724517822266,0.13490980863571167,-0.2846015691757202,0.25911015272140503
0.08725505322217941,0.04733092710375786,1.4537998140440322e-05,-0.20610164105892181,0.01678459532558918,-0.7596913576126099,0.006985375192016363,-0.29841378331184387,0.005022721365094185,-1.8587291240692139,1.5727685689926147,0.02700689621269703,-0.2815662622451782,0.3723212480545044
0.08684636652469635,0.08081482350826263,1.1775778148148675e-05,-0.12401629984378815,0.03790579363703728,-0.7415878772735596,0.00917179137468338,-0.2889400124549866,0.008170082233846188,-1.8575443029403687,1.574474573135376,0.04223029315471649,-0.309683233499527,0.4660511314868927
-0.02137324959039688,-0.06550397723913193,4.4692016672343016e-05,-0.1613309383392334,0.031475625932216644,-0.7096918821334839,0.011279497295618057,-0.40575283765792847,0.0028341086581349373,-1.8556606769561768,1.5729576349258423,-0.08613479137420654,-0.46456220746040344,0.49112173914909363
-0.02378792129456997,-0.07052315771579742,3.62005339411553e-05,-0.25797900557518005,0.020634625107049942,-0.7128772735595703,0.012278517708182335,-0.34705451130867004,0.0014202902093529701,-1.8562359809875488,1.5726401805877686,-0.08744211494922638,-0.4173508286476135,0.4262617230415344
-0.028200538828969002,-0.09321606159210205,3.042817479581572e-05,-0.3748268485069275,-0.0030642165802419186,-0.7110674977302551,0.007466194219887257,-0.2888195812702179,-0.0034501354675740004,-1.852636456489563,1.5704362392425537,-0.08853402733802795,-0.36750686168670654,0.3734184503555298
-0.026696229353547096,-0.10210788249969482,2.4646822566865012e-05,-0.4550497829914093,0.0033293997403234243,-0.7290087938308716,0.002134599955752492,-0.24866314232349396,-0.0013282409636303782,-1.8534679412841797,1.5707184076309204,-0.09906987845897675,-0.32180139422416687,0.30424994230270386
0.008965450339019299,0.3440686762332916,0.00019693838839884847,-0.4018208980560303,8.412457646045368e-06,-0.7594889998435974,0.009597447700798512,-0.22751373052597046,0.0014124836307018995,-1.8601500988006592,1.5736303329467773,0.3449142873287201,-0.2813362181186676,0.26760202646255493
0.038683220744132996,0.3199089467525482,0.00015952010289765894,-0.28007763624191284,-0.01157437078654766,-0.7344048619270325,0.0032387187238782644,-0.2147858589887619,-0.001933331717737019,-1.8608945608139038,1.5713839530944824,0.33418306708335876,-0.2896811068058014,0.3535931706428528
0.0733364000916481,0.27964892983436584,0.00012975532445125282,-0.14228911697864532,-0.030849836766719818,-0.7292063236236572,-0.005250276532024145,-0.176825612783432,-0.005514934193342924,-1.8576158285140991,1.5686606168746948,0.3150477111339569,-0.30052655935287476,0.4705624580383301
-0.0019093045266345143,0.22969098389148712,-1.0419278169138124e-06,-0.1001967191696167,0.024432674050331116,-0.7095556855201721,0.022487711161375046,-0.3433728516101837,-0.0007868360262364149,-1.8561971187591553,1.5737932920455933,0.1873599737882614,-0.47099801898002625,0.5367816686630249
0.014900978654623032,0.2695021629333496,-1.2884979696536902e-06,-0.16375915706157684,0.014062316156923771,-0.7136162519454956,0.020766614004969597,-0.29045194387435913,-0.0013960617361590266,-1.8573030233383179,1.5732256174087524,0.23123979568481445,-0.4098471999168396,0.49231505393981934
0.04584893211722374,0.29065245389938354,-1.043683255375072e-06,-0.16338381171226501,-0.01419222354888916,-0.7182872295379639,0.013188635930418968,-0.34517160058021545,-0.005149948410689831,-1.857183575630188,1.5706710815429688,0.27650073170661926,-0.3708673417568207,0.47048211097717285
0.07089745998382568,0.2969405949115753,-8.453834539068339e-07,-0.15095926821231842,-0.043680302798748016,-0.696772575378418,0.005863238591700792,-0.3908252418041229,-0.009234483353793621,-1.857482671737671,1.5681434869766235,0.3106424808502197,-0.35724082589149475,0.4647693932056427
0.09670179337263107,0.2895371615886688,-6.847606073279167e-07,-0.09851822257041931,-0.06976445019245148,-0.6893982887268066,0.0002538406115490943,-0.42780801653862,-0.012177965603768826,-1.8580039739608765,1.5662438869476318,0.3284907639026642,-0.35713523626327515,0.4810151755809784
0.11680129915475845,0.2984836995601654,-5.546560828406655e-07,-0.020099075511097908,-0.05268274247646332,-0.7041446566581726,-0.0012705933768302202,-0.36391496658325195,-0.009709134697914124,-1.8613499402999878,1.5670077800750732,0.33147287368774414,-0.3628569543361664,0.5226465463638306
-0.13794386386871338,0.16840766370296478,-0.00029227283084765077,-0.14259719848632812,-0.015663672238588333,-0.7206384539604187,0.02444084733724594,-0.33530372381210327,-0.004675447009503841,-1.8582327365875244,1.5716885328292847,0.16211405396461487,-0.5741252303123474,0.5095047950744629
-0.13390175998210907,0.1607203334569931,-0.001106327399611473,-0.19807398319244385,-0.03375982493162155,-0.7399967908859253,0.016841337084770203,-0.3271169364452362,-0.007532261777669191,-1.8584492206573486,1.5697081089019775,0.17481370270252228,-0.5375681519508362,0.45383596420288086
-0.13307446241378784,0.14135651290416718,-0.0008961252169683576,-0.2858476936817169,-0.053474061191082,-0.7517006397247314,0.009776194579899311,-0.29036763310432434,-0.01132412813603878,-1.8576041460037231,1.5675137042999268,0.17638613283634186,-0.5044836401939392,0.4097287952899933
-0.09658917784690857,0.11032190173864365,-0.0014225301565602422,-0.3188944458961487,-0.06604171544313431,-0.7532533407211304,0.0035384309012442827,-0.3374684751033783,-0.015171840786933899,-1.8580725193023682,1.5655735731124878,0.16426816582679749,-0.46649810671806335,0.35412952303886414
-0.050695788115262985,0.06760139763355255,-0.001901304698549211,-0.3302704095840454,-0.07633128762245178,-0.7303732633590698,0.0016545668477192521,-0.3345986306667328,-0.01858631521463394,-1.8604196310043335,1.564399242401123,0.13637582957744598,-0.4206830561161041,0.34234619140625
-0.005519740749150515,0.03994874656200409,-0.001540056779049337,-0.3002716898918152,-0.05396129935979843,-0.7185279130935669,-0.0003783565480262041,-0.34881141781806946,-0.013161392882466316,-1.8600038290023804,1.5660561323165894,0.09584341943264008,-0.3778979182243347,0.3572427034378052
0.024570371955633163,0.00047502925735898316,-0.0012523712357506156,-0.29317834973335266,-0.05291416496038437,-0.719685971736908,0.0002167068305425346,-0.4072553813457489,-0.012795640155673027,-1.8569880723953247,1.5663748979568481,0.055305711925029755,-0.35766831040382385,0.3702302873134613
0.0481327585875988,-0.05572788044810295,-0.0010144207626581192,-0.28653407096862793,-0.06296428292989731,-0.7039093375205994,-0.00012274045730009675,-0.46257683634757996,-0.014992404729127884,-1.8577734231948853,1.5658812522888184,0.01047311071306467,-0.3457351624965668,0.35861894488334656
0.04948469623923302,-0.12406451255083084,5.0372582336422056e-05,-0.30570393800735474,-0.013024361804127693,-0.6948715448379517,-0.0008189868531189859,-0.4042220711708069,-0.003200778504833579,-1.8568131923675537,1.5690886974334717,-0.09483900666236877,-0.3282451629638672,0.35453376173973083
0.05895344167947769,-0.16484585404396057,4.0801791328703985e-05,-0.2538438141345978,-0.017332224175333977,-0.6894543766975403,0.0033970323856920004,-0.43654733896255493,-0.003910271916538477,-1.8571661710739136,1.5694750547409058,-0.13532911241054535,-0.32432499527931213,0.3791297376155853
0.03708004951477051,-0.22335787117481232,3.304945130366832e-05,-0.24709786474704742,-0.03502896800637245,-0.7081305384635925,0.0014449943555518985,-0.42564857006073,-0.007417845074087381,-1.8541299104690552,1.5683133602142334,-0.17759570479393005,-0.34494537115097046,0.4013182818889618
0.009386179968714714,-0.29677456617355347,2.677005613804795e-05,-0.2813403904438019,-0.05457061529159546,-0.7234224677085876,-0.0018856183160096407,-0.4666880965232849,-0.011567034758627415,-1.8542680740356445,1.5668076276779175,-0.2309613972902298,-0.3732728362083435,0.37634581327438354
-0.05692407861351967,-0.4767310321331024,-8.874451305018738e-05,-0.25186365842819214,0.04695862904191017,-0.7271987199783325,0.003870489541441202,-0.4394442141056061,0.010953285731375217,-1.858532428741455,1.5734683275222778,-0.4991227984428406,-0.448504775762558,0.3616442084312439
-0.11858601123094559,-0.5378243923187256,-0.0007203721324913204,-0.23390494287014008,0.0007457722676917911,-0.7173162698745728,0.007070235442370176,-0.46131378412246704,0.0010421988554298878,-1.8544062376022339,1.571333885192871,-0.528874397277832,-0.5058685541152954,0.38733673095703125
-0.13367529213428497,-0.5606089234352112,-0.0005835014162585139,-0.18727238476276398,0.008392002433538437,-0.7182986736297607,0.00223744660615921,-0.4086434543132782,0.002181070391088724,-1.8559212684631348,1.571216344833374,-0.5538026690483093,-0.538279116153717,0.4037514925003052
-0.12171933799982071,-0.565064013004303,-0.0004731752851512283,-0.07977750897407532,0.03187873214483261,-0.7199731469154358,0.0025380579754710197,-0.36589887738227844,0.005545776803046465,-1.8576536178588867,1.5726287364959717,-0.5770330429077148,-0.5583035945892334,0.4673778712749481
-0.10127116739749908,-0.5538510084152222,-0.00038327198126353323,0.027063028886914253,0.057298414409160614,-0.7321982979774475,0.014363349415361881,-0.37356340885162354,0.006255318410694599,-1.8567790985107422,1.5748436450958252,-0.5904448628425598,-0.5946366190910339,0.5378548502922058
-0.29423603415489197,0.10040157288312912,-1.6844065612531267e-05,-0.23852743208408356,0.03908174857497215,-0.721176266670227,-0.05889448523521423,-0.3657401204109192,0.004868961870670319,-1.8501356840133667,1.5680447816848755,0.11689111590385437,-0.7188100218772888,0.4575974643230438
-0.1662079393863678,0.10265015065670013,-1.2203398000565358e-05,-0.3964729905128479,0.06608022749423981,-0.7137805223464966,-0.02094407007098198,-0.2814919352531433,0.013687102124094963,-1.8534084558486938,1.574258804321289,0.068658746778965,-0.5208979249000549,0.3312574625015259
0.05783406272530556,0.03561537340283394,-6.485386165877571e-06,-0.3366483151912689,0.0018624383956193924,-0.6789983510971069,-0.026475347578525543,-0.3778797388076782,-0.0022919089533388615,-1.8556898832321167,1.5682121515274048,0.057461924850940704,-0.3114387094974518,0.3413478136062622
0.10000340640544891,0.012553393840789795,-5.25316272614873e-06,-0.32694345712661743,0.009721154347062111,-0.692596971988678,-0.0275286752730608,-0.3732284903526306,-0.00015896838158369064,-1.8548625707626343,1.568612813949585,0.030771499499678612,-0.2680508494377136,0.367167592048645
0.07453526556491852,0.19241167604923248,0.00032547645969316363,-0.22635872662067413,-0.0026141509879380465,-0.6931788325309753,0.006902449764311314,-0.3372113108634949,-0.0011502002598717809,-1.9207348823547363,1.5693726539611816,0.16851955652236938,-0.30228787660598755,0.37281447649002075
0.0879427045583725,0.21139587461948395,0.0002636359422467649,-0.020737765356898308,-0.028385097160935402,-0.6981348395347595,0.0006656210753135383,-0.29194125533103943,-0.005022889468818903,-1.9072002172470093,1.567501425743103,0.21138443052768707,-0.35926803946495056,0.509617030620575
-0.07183835655450821,0.5339273810386658,0.0011554358061403036,-0.24227187037467957,0.017116982489824295,-0.7408943176269531,-0.053530748933553696,-0.25522664189338684,0.0063155647367239,-1.8560383319854736,1.5696998834609985,0.548943042755127,-0.4392778277397156,0.4573274850845337
-0.05656660720705986,0.5165449976921082,0.0009359641117043793,-0.3011288642883301,0.004272646736353636,-0.7199626564979553,-0.03624873235821724,-0.2349066287279129,0.0033338074572384357,-1.8577176332473755,1.5697461366653442,0.5327705144882202,-0.40417516231536865,0.4086020290851593
-0.03890099748969078,0.48257532715797424,0.0007581309182569385,-0.3235853314399719,-0.014606201089918613,-0.7015456557273865,-0.03415251150727272,-0.218418687582016,-0.001409705844707787,-1.8579070568084717,1.567697286605835,0.5153983235359192,-0.36590689420700073,0.39776527881622314
-0.024276146665215492,0.43427714705467224,0.0006113731651566923,-0.33564573526382446,-0.02885119430720806,-0.7183886766433716,-0.04190030321478844,-0.304167240858078,-0.005502764135599136,-1.855318546295166,1.5652720928192139,0.4867679178714752,-0.3554684519767761,0.3824560344219208
-0.012430015951395035,0.37193939089775085,0.0004945432301610708,-0.39307478070259094,-0.04206220805644989,-0.7308480739593506,-0.04648410528898239,-0.3734320104122162,-0.009878567419946194,-1.8533397912979126,1.5633784532546997,0.44305410981178284,-0.35311079025268555,0.32797902822494507
-0.14977498352527618,-0.13550181686878204,7.694248779444024e-05,-0.3946058750152588,-0.006983538158237934,-0.7083756327629089,0.0013284053420647979,-0.29213255643844604,-0.0016097496263682842,-1.8601733446121216,1.5707448720932007,-0.12106350064277649,-0.4595256745815277,0.29792320728302
-0.12523874640464783,-0.12962903082370758,6.232341547729447e-05,-0.297674298286438,0.010377544909715652,-0.716084361076355,0.012174287810921669,-0.30199506878852844,0.0033477547112852335,-1.861414909362793,1.5733884572982788,-0.13822585344314575,-0.46237239241600037,0.35416334867477417
-0.13061673939228058,-0.10910052806138992,5.1775707106571645e-05,-0.2715429961681366,0.029812926426529884,-0.6959832906723022,0.019334563985466957,-0.27119433879852295,0.007873504422605038,-1.85897958278656,1.5757337808609009,-0.1399848312139511,-0.4744952321052551,0.4107392132282257
-0.11412599682807922,-0.07860440760850906,0.0004868174437433481,-0.2009514570236206,0.04535164684057236,-0.6979605555534363,0.01984836347401142,-0.23644158244132996,0.010986707173287868,-1.8597296476364136,1.577126383781433,-0.12693215906620026,-0.4797040820121765,0.4510059654712677
-0.11406730860471725,-0.06326058506965637,0.00017643312457948923,-0.1573926955461502,0.028916437178850174,-0.6644912958145142,0.020824043080210686,-0.29553791880607605,0.0077279130928218365,-1.8528213500976562,1.5757582187652588,-0.1024569422006607,-0.49819329380989075,0.5020432472229004
-0.11471518129110336,0.3591391146183014,-4.120787343708798e-05,-0.15312910079956055,-0.04663161560893059,-0.7143760323524475,-0.03464279696345329,-0.36707767844200134,1.4987866052251775e-05,-1.855805516242981,1.5659329891204834,0.41226840019226074,-0.530773937702179,0.4828132390975952
-0.14066332578659058,0.35951513051986694,-3.5586421290645376e-05,-0.22686667740345,-0.011826550588011742,-0.7097940444946289,-0.028404399752616882,-0.4291922450065613,0.004087983164936304,-1.8522017002105713,1.5683238506317139,0.38477060198783875,-0.5399273037910461,0.43879860639572144
-0.17072394490242004,0.34483227133750916,-2.8825001209042966e-05,-0.35764604806900024,-0.015323841944336891,-0.6986470818519592,-0.01980935037136078,-0.42984825372695923,0.0021438640542328358,-1.8523609638214111,1.5688565969467163,0.36765056848526,-0.5357038974761963,0.3673660457134247
-0.05518711358308792,-0.48340681195259094,-0.005837383680045605,-0.37155526876449585,0.01811661757528782,-0.7222092151641846,-0.014671526849269867,-0.29092809557914734,0.004821187350898981,-1.8564037084579468,1.5710657835006714,-0.46708592772483826,-0.3811032176017761,0.3185104727745056
-0.022821631282567978,-0.4995706379413605,-0.0047282809391617775,-0.3199843168258667,0.030575698241591454,-0.7314323782920837,-0.005291652400046587,-0.36627280712127686,0.008351544849574566,-1.8533021211624146,1.573134422302246,-0.5015841722488403,-0.37554723024368286,0.3407536447048187
-0.02624775469303131,-0.5010994076728821,-0.0038259136490523815,-0.3642352819442749,0.044761981815099716,-0.7199714183807373,0.0034072198905050755,-0.3120829164981842,0.01216933038085699,-1.8525009155273438,1.5751456022262573,-0.5232514142990112,-0.3627881407737732,0.3452568054199219
-0.03166569769382477,-0.4892202317714691,-0.0030989900697022676,-0.4466237425804138,0.05315111577510834,-0.7138292789459229,0.016937511041760445,-0.25486665964126587,0.015004510059952736,-1.8530083894729614,1.5773673057556152,-0.5304327607154846,-0.3333735466003418,0.316354900598526
-0.02849390171468258,-0.46418145298957825,-0.0025210969615727663,-0.5002356171607971,0.05615663155913353,-0.7181128263473511,0.027401888743042946,-0.2096484750509262,0.016355372965335846,-1.856357455253601,1.5789166688919067,-0.5209767818450928,-0.29988884925842285,0.27159547805786133
0.059933338314294815,-0.2498118132352829,-0.0006675314507447183,-0.30923500657081604,0.021212786436080933,-0.7248166799545288,0.012075512669980526,-0.34717801213264465,0.0066040134988725185,-1.857308268547058,1.5742137432098389,-0.2921243906021118,-0.2814764380455017,0.3302350342273712
0.05376528576016426,-0.22854749858379364,-0.000538670748937875,-0.26560360193252563,-0.0034776802640408278,-0.716619610786438,0.006153696682304144,-0.338887482881546,0.0003461912274360657,-1.8551141023635864,1.571516513824463,-0.24640125036239624,-0.3030192255973816,0.3839912712574005
0.07010721415281296,-0.22180181741714478,-0.00043632331653498113,-0.20021606981754303,-0.027985790744423866,-0.6967957019805908,-0.0008269856916740537,-0.2813223898410797,-0.005196491256356239,-1.856412410736084,1.568771243095398,-0.2142767310142517,-0.30960869789123535,0.4291996657848358
-0.07713977247476578,-0.025600187480449677,-0.00010320841101929545,-0.18278440833091736,0.03205336257815361,-0.7152315378189087,0.04200007766485214,-0.28682708740234375,0.0012655650498345494,-1.856812834739685,1.5754040479660034,-0.062094200402498245,-0.504375696182251,0.49436840415000916
-0.07289990037679672,0.006170119158923626,-8.359881030628458e-05,-0.32077717781066895,0.05303354188799858,-0.688579797744751,0.04409841075539589,-0.35138410329818726,0.0063641187734901905,-1.8534057140350342,1.577650785446167,-0.05231486260890961,-0.4409627318382263,0.4266006350517273
-0.06213304400444031,0.022530363872647285,-7.287128391908482e-05,-0.4423896074295044,0.04017270356416702,-0.6757920980453491,0.037027984857559204,-0.3058578073978424,0.004390313755720854,-1.855626106262207,1.576267123222351,-0.02789447456598282,-0.38673850893974304,0.33626407384872437
0.038881704211235046,0.11111146211624146,-9.89136315183714e-05,-0.1338702142238617,-0.030282603576779366,-0.6895296573638916,-0.010981237515807152,-0.5084862112998962,-0.0077310483902692795,-1.8574398756027222,1.5680540800094604,0.1427723467350006,-0.39680179953575134,0.41731494665145874
0.006945220287889242,0.06807649880647659,-8.012004400370643e-05,-0.0773836076259613,-0.05683349445462227,-0.6974394917488098,-0.012093046680092812,-0.49290114641189575,-0.009778342209756374,-1.854880690574646,1.5667829513549805,0.12127827852964401,-0.44921138882637024,0.47556808590888977
-0.018087830394506454,0.04103192314505577,-6.471743108704686e-05,-0.005857887677848339,-0.04327598214149475,-0.7070337533950806,-0.009587523527443409,-0.40427491068840027,-0.007871363312005997,-1.8574788570404053,1.567596673965454,0.08847467601299286,-0.49459901452064514,0.5130099058151245
-0.24033255875110626,0.09588418900966644,3.6113019632466603e-06,-0.10539531707763672,-0.0313878133893013,-0.7200489640235901,0.043820641934871674,-0.4291328489780426,-0.0047073643654584885,-1.8491673469543457,1.5728461742401123,0.0667961835861206,-0.7095012068748474,0.5000898241996765
-0.22622743248939514,0.15602821111679077,2.9251546038722154e-06,-0.1614871770143509,-0.01940409652888775,-0.7201634645462036,0.03189222514629364,-0.3588069677352905,-0.0030598400626331568,-1.8512561321258545,1.572231650352478,0.12745986878871918,-0.6624728441238403,0.4653494656085968
-0.17189934849739075,0.20465338230133057,2.3693751245446038e-06,-0.12923678755760193,-0.02911260724067688,-0.7256128787994385,0.026082705706357956,-0.36487045884132385,-0.004491225350648165,-1.8535704612731934,1.5712093114852905,0.18514442443847656,-0.6193096041679382,0.4620719254016876
-0.12765072286128998,0.23534879088401794,4.2384704102005344e-07,-0.13366910815238953,-0.052503202110528946,-0.7388863563537598,0.017518410459160805,-0.3043649196624756,-0.007383465766906738,-1.851447582244873,1.569116473197937,0.23846302926540375,-0.5709059238433838,0.4835411310195923
-0.09178563952445984,0.2813596725463867,-2.1920116068940843e-06,-0.19744209945201874,-0.03890357166528702,-0.7189439535140991,0.008503088727593422,-0.2714828848838806,-0.005520154722034931,-1.850111722946167,1.5690062046051025,0.28210365772247314,-0.5051132440567017,0.4772961437702179
-0.05275150015950203,0.31639620661735535,-1.7755294265953125e-06,-0.22687481343746185,-0.04340757802128792,-0.7248721718788147,0.007952380925416946,-0.256632536649704,-0.006569399032741785,-1.8515506982803345,1.5685267448425293,0.3222269117832184,-0.43802425265312195,0.45104745030403137
-0.021621502935886383,0.3343241214752197,-0.0007437661406584084,-0.2764618992805481,-0.057936109602451324,-0.7416437864303589,0.0026499531231820583,-0.25750064849853516,-0.010202013887465,-1.8505885601043701,1.5665287971496582,0.3570466637611389,-0.38887980580329895,0.42568036913871765
0.008101359941065311,0.36716189980506897,-0.0006024505710229278,-0.3120070993900299,-0.03990308940410614,-0.7508485913276672,-0.0018576050642877817,-0.2860066890716553,-0.006747500039637089,-1.8518115282058716,1.567588210105896,0.38189396262168884,-0.34391677379608154,0.3772881031036377
0.029164129868149757,0.3888111114501953,-0.00048798494390212,-0.3367680311203003,-0.04211888834834099,-0.7445239424705505,0.0017220459412783384,-0.2771867513656616,-0.007802657317370176,-1.8530759811401367,1.5676051378250122,0.4049636721611023,-0.3103978931903839,0.3523294925689697
0.0246087908744812,0.41860154271125793,-0.0001511748123448342,-0.40617096424102783,-0.02707756869494915,-0.7191473841667175,-0.0020245742052793503,-0.3225405812263489,-0.004483627155423164,-1.8527456521987915,1.5685678720474243,0.42536666989326477,-0.2906971871852875,0.3314568102359772
0.06959721446037292,0.038520362228155136,0.0002608013746794313,-0.18653982877731323,0.0039051740895956755,-0.7313713431358337,-0.023274941369891167,-0.26295173168182373,-0.0014428055146709085,-1.8617531061172485,1.5689467191696167,0.06865570694208145,-0.28834933042526245,0.4188973605632782
0.07238135486841202,0.017022373154759407,0.00021124912018422037,-0.01746271923184395,0.02972749061882496,-0.7267134189605713,-0.01319475844502449,-0.3268742561340332,0.002455467591062188,-1.8610998392105103,1.5715566873550415,0.02298000454902649,-0.35583946108818054,0.5079383254051208
0.1002989411354065,-0.20422179996967316,4.818004526896402e-05,-0.15818743407726288,0.02687365747988224,-0.7282784581184387,0.057365819811820984,-0.3793452978134155,-0.003738146973773837,-1.8542691469192505,1.5767830610275269,-0.2687353193759918,-0.32831913232803345,0.4863955080509186
0.07192450016736984,-0.1753649264574051,4.05649007007014e-05,-0.29261142015457153,-0.003990278113633394,-0.740437924861908,0.046668969094753265,-0.36153921484947205,-0.007534579373896122,-1.8522489070892334,1.5740411281585693,-0.21165861189365387,-0.30510377883911133,0.41061246395111084
0.11621998995542526,-0.007081678137183189,0.003303695470094681,-0.3029615581035614,0.016235370188951492,-0.7035110592842102,0.014692360535264015,-0.2618686556816101,0.005365392658859491,-1.9141720533370972,1.5737431049346924,-0.03429937735199928,-0.22002841532230377,0.36736491322517395
0.12096787989139557,0.030954750254750252,0.0032277368009090424,-0.17886802554130554,0.03165276721119881,-0.7090744376182556,0.01613498106598854,-0.25795501470565796,0.008677956648170948,-1.903503179550171,1.5753010511398315,-0.012557648122310638,-0.25319263339042664,0.44034576416015625
0.13544657826423645,0.05332369729876518,0.002614466706290841,-0.05661427229642868,0.015011520124971867,-0.71266108751297,0.0165695883333683,-0.3179755210876465,0.005825801286846399,-1.8939988613128662,1.5742242336273193,0.019659070298075676,-0.30694711208343506,0.5149209499359131
-0.01195637509226799,0.17267198860645294,0.0009115691646002233,-0.07775777578353882,-0.022382307797670364,-0.7590264678001404,-0.005839254707098007,-0.3696630001068115,0.0010950627038255334,-1.8676832914352417,1.569915771484375,0.1755596250295639,-0.4621729552745819,0.513908863067627
-0.05534103885293007,0.16223004460334778,0.0007386840879917145,-0.14059187471866608,-0.05354760214686394,-0.7335425615310669,-0.01099973451346159,-0.4107862412929535,-0.0028809811919927597,-1.866314172744751,1.5676683187484741,0.19324550032615662,-0.4794059097766876,0.4661885201931
-0.06839976459741592,0.13829687237739563,0.0006009292555972934,-0.13470593094825745,-0.0814523920416832,-0.725993812084198,-0.011016063392162323,-0.40936627984046936,-0.007753690239042044,-1.8667949438095093,1.56597101688385,0.19445805251598358,-0.5027397871017456,0.45004990696907043
-0.07513638585805893,0.10046848654747009,0.0004867526877205819,-0.14126591384410858,-0.10531234741210938,-0.7315232157707214,-0.014141093008220196,-0.37621840834617615,-0.011628510430455208,-1.8649598360061646,1.5641428232192993,0.1797429323196411,-0.5109668970108032,0.46416258811950684
-0.080586738884449,0.049346331506967545,0.00039426967850886285,-0.18762357532978058,-0.12464132905006409,-0.715168833732605,-0.01798861101269722,-0.4122432768344879,-0.015336431562900543,-1.86356782913208,1.562339186668396,0.1496252864599228,-0.507342517375946,0.45058006048202515
-0.07388783991336823,-0.014238103292882442,0.0003253141767345369,-0.1854109764099121,-0.13363227248191833,-0.740141749382019,-0.015638824552297592,-0.44662123918533325,-0.018026839941740036,-1.8642444610595703,1.5619086027145386,0.100677490234375,-0.5042764544487,0.4192822277545929
-0.08224156498908997,-0.06198647990822792,0.0002604639157652855,-0.21311017870903015,-0.10536019504070282,-0.7389643788337708,-0.015388728119432926,-0.383084774017334,-0.014086496084928513,-1.8659110069274902,1.5634398460388184,0.03714961186051369,-0.4978674054145813,0.4103567600250244
-0.05773938074707985,-0.09126962721347809,0.00021397498494479805,-0.16875815391540527,-0.06047910451889038,-0.7480337023735046,-0.00986394565552473,-0.3701069951057434,-0.006669983267784119,-1.8650341033935547,1.5667744874954224,-0.02466735430061817,-0.48051124811172485,0.41938087344169617
-0.06089175119996071,-0.12014269083738327,0.0008501518168486655,-0.18577656149864197,-0.03270120173692703,-0.7356935143470764,-0.007496451493352652,-0.3565257489681244,-0.00237290863879025,-1.8612987995147705,1.5687066316604614,-0.07661227881908417,-0.4694281220436096,0.4426882266998291
-0.06922903656959534,-0.13604708015918732,0.0013927350519225001,-0.18148577213287354,0.0013463046634569764,-0.7408998608589172,-0.005805326625704765,-0.362173855304718,0.00332047906704247,-1.8604316711425781,1.5710374116897583,-0.11933201551437378,-0.4684927761554718,0.43298250436782837
-0.08279386162757874,-0.13855886459350586,0.0011281154584139585,-0.15989451110363007,0.03376907855272293,-0.7284002900123596,-0.0014798323391005397,-0.35587969422340393,0.008284017443656921,-1.8600826263427734,1.5734683275222778,-0.15038497745990753,-0.48444730043411255,0.4435323178768158
-0.10060194134712219,-0.12717387080192566,0.0009137734887190163,-0.16948622465133667,0.06327849626541138,-0.7113149166107178,0.004632176365703344,-0.3279690742492676,0.012359289452433586,-1.8592848777770996,1.575879693031311,-0.1663973182439804,-0.502933144569397,0.466702401638031
-0.07836966216564178,-0.13219399750232697,0.0005209737573750317,-0.1060032993555069,0.04875362664461136,-0.7056388854980469,0.008809427730739117,-0.3744894862174988,0.00970168225467205,-1.859788417816162,1.5753976106643677,-0.1675601452589035,-0.5148621201515198,0.4778217673301697
-0.06498773396015167,-0.1421307474374771,0.0002442501427140087,-0.07587385922670364,0.033278919756412506,-0.723515510559082,0.006644647102802992,-0.31168779730796814,0.007086744997650385,-1.8583272695541382,1.5741397142410278,-0.16527706384658813,-0.5174408555030823,0.5153553485870361
-0.048644110560417175,-0.1744050532579422,8.347810216946527e-05,-0.046016402542591095,-0.002644502790644765,-0.6891048550605774,-0.0014895971398800611,-0.38008520007133484,0.0022824308834969997,-1.8556016683578491,1.5711883306503296,-0.1693602055311203,-0.5150773525238037,0.525745689868927
-0.08288345485925674,-0.1734348088502884,5.479394894791767e-05,-0.11191800981760025,0.027437977492809296,-0.6978306770324707,0.005753138568252325,-0.3823188841342926,0.003707724856212735,-1.8524290323257446,1.572939157485962,-0.18987199664115906,-0.5221067667007446,0.524869441986084
-0.0837354063987732,-0.17831341922283173,4.438309770193882e-05,-0.14258918166160583,0.017452720552682877,-0.6855371594429016,0.007170800119638443,-0.3697746694087982,0.0023963451385498047,-1.8543907403945923,1.5726326704025269,-0.19169414043426514,-0.5160412788391113,0.4865993857383728
-0.05746641382575035,-0.20195801556110382,3.5505199775798246e-05,-0.09993326663970947,-0.011531624011695385,-0.6802396774291992,0.00265912851318717,-0.42400550842285156,-0.0014044909039512277,-1.8581948280334473,1.570539951324463,-0.19241370260715485,-0.5087695717811584,0.4932478666305542
-0.06945519149303436,-0.2106432020664215,2.875921200029552e-05,-0.12314732372760773,-0.004118017386645079,-0.6637998819351196,0.000116304203402251,-0.3958725035190582,-0.0005965456366539001,-1.8549964427947998,1.5705004930496216,-0.2022024393081665,-0.5091966986656189,0.504672646522522
-0.08022437244653702,-0.20060479640960693,2.3294962375075556e-05,-0.1071411743760109,0.021986382082104683,-0.6580289006233215,0.0035798244643956423,-0.4123302102088928,0.002520899288356304,-1.8555617332458496,1.5722359418869019,-0.21281282603740692,-0.5180973410606384,0.5062841773033142
-0.08744393289089203,-0.20519539713859558,1.8868919141823426e-05,-0.09555138647556305,0.012678305618464947,-0.6636019349098206,0.004958237521350384,-0.3424280285835266,0.001577557995915413,-1.8569276332855225,1.5720415115356445,-0.21464137732982635,-0.5325230956077576,0.5250879526138306
0.0017450577579438686,0.007110188715159893,-5.359986516850768e-06,-0.15266044437885284,0.07948099821805954,-0.7180214524269104,0.03593536466360092,-0.4073173701763153,0.005382171366363764,-1.8558452129364014,1.5780779123306274,-0.08053389936685562,-0.4428720474243164,0.46433573961257935
0.013824889436364174,0.03234871104359627,-4.3415893742349e-06,-0.1659729927778244,0.03917955607175827,-0.7034553289413452,0.026133039966225624,-0.4068979322910309,0.0004907127586193383,-1.8559954166412354,1.5748933553695679,-0.023673927411437035,-0.4171513020992279,0.45105212926864624
0.029353732243180275,0.04308098927140236,-3.5166872294212226e-06,-0.18460579216480255,-0.00241953507065773,-0.7081435322761536,0.018936887383461,-0.42948001623153687,-0.0049639674834907055,-1.8550848960876465,1.571906328201294,0.02225623093545437,-0.40147995948791504,0.44611281156539917
0.06238706782460213,0.04068085923790932,-2.2924295990378596e-06,-0.17880722880363464,-0.03631764277815819,-0.7194090485572815,0.011963346041738987,-0.3687794506549835,-0.009943450801074505,-1.856859564781189,1.5692249536514282,0.05145263671875,-0.3668794631958008,0.4356900155544281
0.06815120577812195,0.025243906304240227,-2.2894172957421688e-07,-0.22910523414611816,-0.06356308609247208,-0.7093603610992432,0.004535111598670483,-0.302391916513443,-0.01408771239221096,-1.8532330989837646,1.5666617155075073,0.06392114609479904,-0.3236110508441925,0.44626542925834656
0.0799979567527771,-0.002803562209010124,-1.8544280067089858e-07,-0.28588199615478516,-0.08116432279348373,-0.7065712809562683,-0.0061395796947181225,-0.2711844742298126,-0.017684683203697205,-1.851759910583496,1.5640095472335815,0.059942763298749924,-0.28254637122154236,0.4247794449329376
0.08892960101366043,-0.01534093078225851,-9.352267625217792e-06,-0.3659926950931549,-0.059693850576877594,-0.7157561779022217,-0.01641557179391384,-0.26509353518486023,-0.013290444388985634,-1.8501523733139038,1.5647605657577515,0.04011601209640503,-0.24192200601100922,0.3828379511833191
0.10350356996059418,-0.03827378526329994,-7.5753368946607225e-06,-0.4133458137512207,-0.05634916573762894,-0.7375980019569397,-0.012025411240756512,-0.31204551458358765,-0.012887346558272839,-1.851618766784668,1.5652308464050293,0.016431212425231934,-0.21295863389968872,0.31520068645477295
0.1828213483095169,-0.029494522139430046,-2.8135264074080624e-07,-0.4038465917110443,-0.0021260667126625776,-0.7090914249420166,0.020713821053504944,-0.32836994528770447,0.002507232828065753,-1.8574703931808472,1.5732512474060059,-0.039329469203948975,-0.13136619329452515,0.2940181791782379
0.20753802359104156,-0.02538725920021534,-2.2789564013692143e-07,-0.3331061899662018,-0.00918534118682146,-0.6964181065559387,0.02103470452129841,-0.39721497893333435,0.00020704140479210764,-1.8574410676956177,1.572635293006897,-0.03194514662027359,-0.13916242122650146,0.325717955827713
0.23231762647628784,-0.038382600992918015,-1.8459547845850466e-07,-0.218793585896492,-0.02557653933763504,-0.7137282490730286,0.014047197066247463,-0.4280146360397339,-0.004159055184572935,-1.8574790954589844,1.5707240104675293,-0.02660367451608181,-0.1593053638935089,0.376159131526947
0.22852060198783875,-0.06707265228033066,-1.495223358460862e-07,-0.15469084680080414,-0.048448946326971054,-0.7183136940002441,0.010244118049740791,-0.4359928071498871,-0.008278232999145985,-1.849840760231018,1.5689785480499268,-0.033314675092697144,-0.1869080513715744,0.42897140979766846
0.20902018249034882,-0.08057088404893875,-1.1062938938266598e-06,-0.14151953160762787,-0.03387395665049553,-0.725551426410675,0.005130393896251917,-0.41081780195236206,-0.006065803114324808,-1.8497047424316406,1.5691288709640503,-0.05198442190885544,-0.2154189646244049,0.4528160095214844
0.1839432418346405,-0.10579683631658554,-8.960980721894884e-07,-0.17859964072704315,-0.041928015649318695,-0.7336025834083557,0.0049317460507154465,-0.34918978810310364,-0.007013809867203236,-1.850176453590393,1.5687569379806519,-0.07131882011890411,-0.22199852764606476,0.45324453711509705
0.1591039001941681,-0.11797842383384705,-7.258394134623813e-07,-0.20083604753017426,-0.022820275276899338,-0.7308245897293091,0.0019173467298969626,-0.31824609637260437,-0.0037884176708757877,-1.8515695333480835,1.5696296691894531,-0.09346572309732437,-0.21980777382850647,0.4398089349269867
0.14457270503044128,-0.1424982249736786,-5.879299465050281e-07,-0.1566123217344284,-0.028672579675912857,-0.7476668953895569,0.004599155858159065,-0.38001957535743713,-0.004735794849693775,-1.8527281284332275,1.5695550441741943,-0.11524999886751175,-0.24877262115478516,0.4382290542125702
0.1259322315454483,-0.1548963487148285,-4.7622324927942827e-07,-0.14375720918178558,-0.010970027185976505,-0.7562592029571533,0.0017208013450726867,-0.4279252588748932,-0.0021088251378387213,-1.8530715703964233,1.5701727867126465,-0.13836614787578583,-0.2951159179210663,0.4399280250072479
0.11331764608621597,-0.1801023930311203,3.1828187729843194e-07,-0.11705764383077621,-0.020335569977760315,-0.7606533169746399,0.003355031367391348,-0.43150556087493896,-0.0032193022780120373,-1.8570199012756348,1.5700141191482544,-0.15861272811889648,-0.3227159082889557,0.43540850281715393
0.08429745584726334,-0.19282343983650208,2.433580732486007e-07,-0.13507983088493347,-0.005017556715756655,-0.7397116422653198,0.001590723404660821,-0.3528110086917877,-0.0011756436433643103,-1.857107400894165,1.570554494857788,-0.18009011447429657,-0.3379984498023987,0.45641303062438965
0.08266905695199966,-0.21811485290527344,2.6323945689910033e-07,-0.08746388554573059,-0.01520473975688219,-0.7174845933914185,0.0025198939256370068,-0.379675030708313,-0.002272173063829541,-1.8576406240463257,1.5702157020568848,-0.19973240792751312,-0.35221320390701294,0.48192718625068665
0.08224216103553772,-0.23092052340507507,2.1322397003586957e-07,-0.0019468126120045781,-0.0009702169918455184,-0.7070615291595459,0.0035306515637785196,-0.3843995928764343,-0.0011191262165084481,-1.8577938079833984,1.5708616971969604,-0.22089946269989014,-0.3895508050918579,0.5258902907371521
0.06565474718809128,0.37877264618873596,-9.047648745763581e-06,-0.0737714022397995,0.010535326786339283,-0.6800355315208435,-0.027826819568872452,-0.35725855827331543,0.00016522366786375642,-1.8562517166137695,1.569676399230957,0.38118109107017517,-0.42927518486976624,0.5441492795944214
0.12105289101600647,0.3880364000797272,0.00014006663695909083,-0.05849245935678482,0.018224284052848816,-0.7056407928466797,-0.022186709567904472,-0.3956049680709839,0.0010197239462286234,-1.8564108610153198,1.5703139305114746,0.3839922249317169,-0.3674244284629822,0.5260376930236816
0.16722705960273743,0.40843164920806885,0.00046971847768872976,-0.04208310320973396,0.03395911306142807,-0.7020737528800964,-0.014159610494971275,-0.4392682611942291,0.002483813092112541,-1.8599954843521118,1.5716166496276855,0.388916552066803,-0.33397015929222107,0.5183860063552856
0.2031492441892624,0.41053712368011475,0.0003804719599429518,-0.012182734906673431,0.016236107796430588,-0.7142085433006287,-0.014187581837177277,-0.3796018958091736,0.001566392253153026,-1.8606072664260864,1.5708467960357666,0.40041929483413696,-0.3021639287471771,0.5299528241157532
0.17309676110744476,0.38172221183776855,0.00016374033293686807,-0.05528126657009125,-0.05088432878255844,-0.7293378114700317,-0.030947891995310783,-0.4023782014846802,-0.002223811112344265,-1.8577669858932495,1.566024661064148,0.4283345937728882,-0.2847837209701538,0.5296856164932251
0.1572444587945938,0.33757761120796204,0.0001330018712906167,-0.041150473058223724,-0.07810699939727783,-0.7491803765296936,-0.035429831594228745,-0.4521353840827942,-0.004128071945160627,-1.8598681688308716,1.5643230676651,0.409980446100235,-0.3169272541999817,0.49494341015815735
0.11509231477975845,0.31022316217422485,0.00010747608030214906,-0.08741382509469986,-0.06423399597406387,-0.750044047832489,-0.031820762902498245,-0.49232175946235657,-0.0033573382534086704,-1.8579423427581787,1.5649977922439575,0.3754212260246277,-0.3527817726135254,0.4738779664039612
0.06463781744241714,0.30237460136413574,8.705562504474074e-05,-0.20095857977867126,-0.029377324506640434,-0.7211744785308838,-0.026050584390759468,-0.511443018913269,-8.492210326949134e-05,-1.8567320108413696,1.5670045614242554,0.340830534696579,-0.3704163730144501,0.42699551582336426
0.052214641124010086,-0.016419587656855583,-0.00230047176592052,-0.3020767867565155,0.008830688893795013,-0.7457764744758606,-0.01782628893852234,-0.33328449726104736,0.0011351776774972677,-1.8564175367355347,1.5697340965270996,-0.0077702878043055534,-0.30639195442199707,0.320622056722641
0.0692494586110115,-0.0006613775622099638,-0.0018633821746334434,-0.25561854243278503,0.029298240318894386,-0.7347751259803772,-0.009248368442058563,-0.32882317900657654,0.006314979400485754,-1.8552844524383545,1.5723177194595337,-0.015999209135770798,-0.2975282371044159,0.3848475217819214
0.05862057954072952,7.925256068119779e-05,-0.0019347078632563353,-0.254549115896225,0.01555673498660326,-0.7189594507217407,-0.0010785351041704416,-0.3668363690376282,0.0033806716091930866,-1.850386619567871,1.5721173286437988,-0.011227060109376907,-0.30448707938194275,0.3998444974422455
0.028449470177292824,0.01260125357657671,-0.0010598294902592897,-0.2964310944080353,0.024314463138580322,-0.728196382522583,-0.0037590903230011463,-0.3539063632488251,0.005468228366225958,-1.8500089645385742,1.5724291801452637,-0.0048711770214140415,-0.32348427176475525,0.3857932984828949
-0.003967775497585535,0.041274528950452805,-0.0008584618917666376,-0.32945379614830017,0.03971343860030174,-0.7327355742454529,0.0003075099957641214,-0.3547748625278473,0.009437300264835358,-1.8553600311279297,1.574079990386963,0.006221011746674776,-0.33903267979621887,0.35300421714782715
-0.014903656207025051,0.05606153979897499,-0.0006953541305847466,-0.3163980543613434,0.02553974650800228,-0.7347651124000549,0.0026477619539946318,-0.3409048914909363,0.006044281646609306,-1.8563849925994873,1.5732028484344482,0.028333790600299835,-0.3598807454109192,0.34174734354019165
0.005832319613546133,0.07830211520195007,-0.00038492551539093256,-0.2480301707983017,0.02701120264828205,-0.7505655884742737,-0.00040661467937752604,-0.35005176067352295,0.006401191931217909,-1.8600058555603027,1.5729941129684448,0.05031770467758179,-0.3707844614982605,0.37026989459991455
0.016897788271307945,0.08573968708515167,-0.000311093230266124,-0.2438305765390396,0.007439190987497568,-0.7300692796707153,0.0012166764354333282,-0.3260108530521393,0.0021838899701833725,-1.8584734201431274,1.5716826915740967,0.07195539772510529,-0.3648740351200104,0.40278497338294983
0.03216324374079704,0.0770028606057167,-0.0002519855333957821,-0.2086026519536972,-0.018751656636595726,-0.7224711775779724,-0.002053328324109316,-0.3780214786529541,-0.0033736685290932655,-1.859374761581421,1.5693395137786865,0.08674515038728714,-0.3590449094772339,0.4162212312221527
0.036454278975725174,0.08322323858737946,-0.00020410827710293233,-0.22320622205734253,-0.009160126559436321,-0.7006311416625977,-0.006305959541350603,-0.35055533051490784,-0.0017612763913348317,-1.8577942848205566,1.5694283246994019,0.09024674445390701,-0.359022319316864,0.42910411953926086
0.04998667910695076,0.09512006491422653,0.0002504989970475435,-0.18594656884670258,0.0007385953795164824,-0.7169798016548157,-0.004460756666958332,-0.35035476088523865,0.00034857421997003257,-1.8576889038085938,1.5703849792480469,0.09317666292190552,-0.3474886119365692,0.438400000333786
0.0761299878358841,0.09038861840963364,0.0002029669558396563,-0.10308118909597397,-0.015398908406496048,-0.7245494723320007,-0.002468697726726532,-0.3778116703033447,-0.0021161194890737534,-1.858830213546753,1.5696635246276855,0.09888811409473419,-0.3576931357383728,0.46598243713378906
0.10219117999076843,0.09898163378238678,0.00016457124729640782,0.011717460118234158,-0.0027015693485736847,-0.7449947595596313,-0.0013760909205302596,-0.3402235507965088,-0.0010996063938364387,-1.8591898679733276,1.5702400207519531,0.10068731755018234,-0.37695422768592834,0.5196234583854675
0.047751691192388535,0.3979213237762451,-9.098533337237313e-05,-0.17583496868610382,-0.013073227368295193,-0.6899935007095337,0.037437018007040024,-0.34454473853111267,-0.006120424252003431,-1.8519974946975708,1.5730788707733154,0.36793091893196106,-0.3634229600429535,0.49962398409843445
0.05918969213962555,0.4152469336986542,-7.323815225390717e-05,-0.1976248025894165,-0.04184115305542946,-0.7008360624313354,0.023799849674105644,-0.3730855882167816,-0.010318012908101082,-1.8540337085723877,1.569840669631958,0.41558244824409485,-0.3457057476043701,0.4552372694015503
0.06531563401222229,0.4192313849925995,-5.9322905144654214e-05,-0.19971863925457,-0.06543450802564621,-0.7051254510879517,0.014567278325557709,-0.3708992004394531,-0.014116051606833935,-1.8550060987472534,1.5673991441726685,0.44613420963287354,-0.335601270198822,0.4397365152835846
0.061247311532497406,0.41756290197372437,-0.0011520413681864738,-0.194719597697258,-0.07589872926473618,-0.6967382431030273,0.011110460385680199,-0.30113351345062256,-0.016104301437735558,-1.8559798002243042,1.5662860870361328,0.46000632643699646,-0.32739660143852234,0.4525100290775299
0.08478865027427673,0.40418899059295654,-0.0009307610453106463,-0.10831017792224884,-0.08593804389238358,-0.7053014039993286,0.004691270180046558,-0.3289629817008972,-0.01697881892323494,-1.859710454940796,1.5650261640548706,0.461029052734375,-0.33510497212409973,0.48857536911964417
0.046167753636837006,0.42427298426628113,-0.0006106723449192941,-0.09855341911315918,-0.02463315986096859,-0.7391170263290405,0.006131522357463837,-0.3549303710460663,-0.008244089782238007,-1.8569767475128174,1.5687264204025269,0.44041359424591064,-0.3831324577331543,0.509706437587738
0.045925501734018326,0.4280303716659546,-0.0004946445696987212,-0.08834996074438095,-0.024479780346155167,-0.7613634467124939,0.007949002087116241,-0.37368497252464294,-0.0070665813982486725,-1.8627667427062988,1.5693660974502563,0.4398023188114166,-0.40251946449279785,0.48155349493026733
0.04746713861823082,0.419435977935791,-0.0008317001047544181,-0.07540831714868546,-0.036227185279130936,-0.7584363222122192,0.005445281509310007,-0.3093199133872986,-0.0076661785133183,-1.8636225461959839,1.5687100887298584,0.44188496470451355,-0.39868539571762085,0.48948055505752563
0.04617985337972641,0.42841649055480957,-0.0006738685769960284,-0.08479905873537064,-0.017042553052306175,-0.7311649918556213,0.004873283673077822,-0.3408120572566986,-0.005196220241487026,-1.8606815338134766,1.569627046585083,0.439202219247818,-0.399955153465271,0.5099025368690491
0.05409752577543259,0.42454877495765686,-0.0005458335508592427,-0.0417008139193058,-0.023173537105321884,-0.7491731643676758,0.00423148088157177,-0.4029850661754608,-0.004915338009595871,-1.8600772619247437,1.5695712566375732,0.4381565451622009,-0.41044846177101135,0.502293050289154
0.04669911041855812,0.40204840898513794,-0.00044212519424036145,-0.06366981565952301,-0.04622495919466019,-0.7348747849464417,-0.005012950394302607,-0.3836236894130707,-0.005467310547828674,-1.859285593032837,1.5678619146347046,0.43577390909194946,-0.4236639142036438,0.5071771740913391
0.0692615807056427,0.38794034719467163,-0.00045052802306599915,-0.024271000176668167,-0.042879872024059296,-0.7445834875106812,-0.006935193669050932,-0.3677056133747101,-0.004931496921926737,-1.8603414297103882,1.567786693572998,0.4243195950984955,-0.41352516412734985,0.5120684504508972
0.06894348561763763,0.22546160221099854,-1.6728032278479077e-05,-0.04184962064027786,-0.05888986587524414,-0.743449330329895,-0.03274661302566528,-0.4402311146259308,-0.0009245758410543203,-1.8538340330123901,1.5652520656585693,0.29232221841812134,-0.4145394563674927,0.5118440985679626
0.02619951404631138,0.18814653158187866,-1.3549706636695191e-05,-0.11530040204524994,-0.042231760919094086,-0.755183219909668,-0.027875015512108803,-0.3861638009548187,-0.00020884950936306268,-1.8543907403945923,1.566292405128479,0.24596372246742249,-0.41362491250038147,0.47907474637031555
-0.020313583314418793,0.16955269873142242,-1.0975262739520986e-05,-0.22714674472808838,-0.007752296514809132,-0.7413113713264465,-0.021771030500531197,-0.35458022356033325,0.0036521772854030132,-1.8539948463439941,1.5687209367752075,0.19978785514831543,-0.41053587198257446,0.43804237246513367
-0.02754856087267399,0.16481639444828033,-8.889962373359594e-06,-0.26707467436790466,0.022790752351284027,-0.7550492286682129,-0.013048794120550156,-0.3535673916339874,0.009282506071031094,-1.855474591255188,1.571797490119934,0.16506141424179077,-0.40286970138549805,0.38367393612861633
-0.02855330891907215,0.14418162405490875,-7.200869731605053e-06,-0.3338925242424011,0.013828977942466736,-0.7484378814697266,-0.004235355649143457,-0.3456410765647888,0.006633738521486521,-1.8551433086395264,1.5719928741455078,0.14488834142684937,-0.3877873122692108,0.3555634319782257
0.030144598335027695,0.05361786484718323,-4.724490736407461e-06,-0.341609388589859,-0.024250485002994537,-0.7540194988250732,-0.009812401607632637,-0.32560381293296814,-0.004889808129519224,-1.8567404747009277,1.56812584400177,0.09372416883707047,-0.3286634683609009,0.3174455165863037
0.03859078139066696,0.015557636506855488,-3.826837200904265e-06,-0.36546584963798523,-0.01103181578218937,-0.7440252900123596,-0.014287199825048447,-0.38351619243621826,-0.0019388006767258048,-1.8556230068206787,1.5686414241790771,0.0495198629796505,-0.306998610496521,0.3217955231666565
0.09793032705783844,-0.09845185279846191,-0.0002699826145544648,-0.19308041036128998,-0.004558993503451347,-0.7425965070724487,0.000737238849978894,-0.37751486897468567,-0.0001156469588750042,-1.8623872995376587,1.570719838142395,-0.08138822764158249,-0.31072837114334106,0.3783242106437683
0.11842279881238937,-0.1507343053817749,-0.00021985627245157957,-0.13758772611618042,-0.02996549755334854,-0.7272367477416992,-0.0008892439655028284,-0.3208097219467163,-0.0044591729529201984,-1.8562556505203247,1.568922519683838,-0.11268290877342224,-0.30353406071662903,0.45613038539886475
0.1508542001247406,-0.1875041276216507,-0.00017808358825277537,-0.027339663356542587,-0.017130428925156593,-0.7444438338279724,-0.003217702731490135,-0.34741586446762085,-0.0030242144130170345,-1.8564989566802979,1.5692477226257324,-0.15367242693901062,-0.3075510859489441,0.5047093629837036
-0.0721617043018341,-0.09195543080568314,0.0002805429103318602,-0.08259128779172897,-0.03093974106013775,-0.7081350684165955,-0.05171140283346176,-0.40962815284729004,0.0021496478002518415,-1.8556666374206543,1.5651323795318604,-0.0428747721016407,-0.5716357231140137,0.532691478729248
-0.05011572316288948,-0.14612741768360138,0.00022723976871930063,-0.17258892953395844,-0.05821762606501579,-0.7165703177452087,-0.04702203720808029,-0.4117446541786194,-0.0019339536083862185,-1.8586009740829468,1.5640251636505127,-0.07482397556304932,-0.5014616847038269,0.4699908196926117
-0.0065137408673763275,-0.18378512561321259,0.00018486124463379383,-0.20964601635932922,-0.04325141757726669,-0.7196990847587585,-0.03977052867412567,-0.42492997646331787,-0.0008870945894159377,-1.859019160270691,1.565306544303894,-0.12115292996168137,-0.4443027675151825,0.42367905378341675
0.00615724129602313,-0.20271751284599304,0.00014973760698921978,-0.2983892560005188,-0.009860070422291756,-0.7095335125923157,-0.03413054719567299,-0.3857212960720062,0.004184821620583534,-1.854479193687439,1.567671298980713,-0.16716687381267548,-0.3848578631877899,0.39154163002967834
0.02221512608230114,-0.20817267894744873,0.00012128745584050193,-0.3455536365509033,0.016632121056318283,-0.7036309242248535,-0.020987702533602715,-0.41295257210731506,0.009563940577208996,-1.8547301292419434,1.5707675218582153,-0.2017412781715393,-0.34447339177131653,0.3476395606994629
0.054824620485305786,-0.20084360241889954,9.639494237489998e-05,-0.3490249216556549,0.03423277288675308,-0.718270480632782,-0.008720148354768753,-0.33935225009918213,0.013448298908770084,-1.8570364713668823,1.573216438293457,-0.219111829996109,-0.3082573711872101,0.33113372325897217
0.09957455098628998,-0.18034052848815918,7.807990186847746e-05,-0.3017565906047821,0.04719153046607971,-0.715919017791748,0.0003561385383363813,-0.38086748123168945,0.01618826761841774,-1.857176661491394,1.5751441717147827,-0.21859601140022278,-0.2717477083206177,0.3491591215133667
0.11291773617267609,-0.1741531491279602,6.324471905827522e-05,-0.3130650222301483,0.02870529145002365,-0.6931197643280029,0.0068816617131233215,-0.4307401776313782,0.011199330911040306,-1.8547518253326416,1.5744324922561646,-0.203347310423851,-0.2603233754634857,0.3664155602455139
-0.04503655433654785,-0.06509220600128174,1.9201155737391673e-05,-0.37917014956474304,0.0074982126243412495,-0.7173948287963867,0.0046613095328211784,-0.2651677131652832,0.003353301202878356,-1.8899286985397339,1.5708414316177368,-0.0678643211722374,-0.35334256291389465,0.3154544234275818
-0.06541921198368073,-0.05379515886306763,1.5552936019957997e-05,-0.35428813099861145,0.020743807777762413,-0.7333660125732422,0.012346750125288963,-0.22032548487186432,0.006816969718784094,-1.8833088874816895,1.57315194606781,-0.07358971983194351,-0.3719748556613922,0.35118651390075684
-0.059215839952230453,-0.031019145622849464,0.0004592292825691402,-0.2988099157810211,0.032287441194057465,-0.7232406139373779,0.01701521687209606,-0.2354729324579239,0.009614700451493263,-1.8827677965164185,1.5750863552093506,-0.06684382259845734,-0.38750001788139343,0.37515655159950256
-0.06404728442430496,-0.024594087153673172,0.00037459254963323474,-0.2768358290195465,0.015623919665813446,-0.7139779925346375,0.018747977912425995,-0.23955385386943817,0.005683159455657005,-1.875974416732788,1.5737069845199585,-0.04984872415661812,-0.4030141234397888,0.4136413633823395
-0.043682582676410675,-0.03466520830988884,0.0003034199762623757,-0.22170422971248627,-0.006886158604174852,-0.7072429656982422,0.007579600438475609,-0.20720823109149933,0.0005023126723244786,-1.872677206993103,1.5706520080566406,-0.03638790547847748,-0.4050188660621643,0.44021737575531006
-0.037865135818719864,-0.059710174798965454,0.000245770177571103,-0.19084958732128143,-0.03214973956346512,-0.7004638314247131,-0.003976112697273493,-0.24799343943595886,-0.004111115355044603,-1.8689119815826416,1.5675921440124512,-0.03443288803100586,-0.4091116487979889,0.48513126373291016
-0.06812656670808792,-0.09888849407434464,0.00019584402616601437,-0.2230077087879181,-0.05517924576997757,-0.7074369788169861,-0.014424175024032593,-0.3133811950683594,-0.00845176912844181,-1.8639506101608276,1.564874529838562,-0.04745488241314888,-0.4328841269016266,0.46775272488594055
-0.0885714441537857,-0.12242379039525986,0.00016178931400645524,-0.24990521371364594,-0.04204589128494263,-0.7133103013038635,-0.015766693279147148,-0.2557174265384674,-0.006417011376470327,-1.8638302087783813,1.565756916999817,-0.07539168745279312,-0.44645214080810547,0.4315178096294403
-0.091130830347538,-0.15669162571430206,0.00013104935351293534,-0.26687341928482056,-0.045724693685770035,-0.7126044034957886,-0.013750850223004818,-0.31230831146240234,-0.0076149823144078255,-1.8620706796646118,1.5656324625015259,-0.10677889734506607,-0.4492599666118622,0.4244565963745117
-0.07142852991819382,-0.17890198528766632,0.0001061499715433456,-0.2605239450931549,-0.02815597876906395,-0.6993407607078552,-0.01128743588924408,-0.3287980258464813,-0.004224337637424469,-1.8616092205047607,1.5673000812530518,-0.1413181722164154,-0.4458991289138794,0.4055868983268738
-0.03696031868457794,-0.2071428745985031,9.768025483936071e-05,-0.21114738285541534,-0.026491302996873856,-0.7015132904052734,-0.004897627513855696,-0.27209246158599854,-0.0040400391444563866,-1.8623977899551392,1.5681546926498413,-0.1735168695449829,-0.42170843482017517,0.4365805387496948
-0.026485875248908997,-0.2193533033132553,7.912100409157574e-05,-0.19504840672016144,-0.002323844935745001,-0.6970148086547852,-0.003475786419585347,-0.3136994242668152,3.0962481105234474e-05,-1.8603132963180542,1.570122480392456,-0.2040521502494812,-0.4121677875518799,0.470672607421875
-0.027836281806230545,-0.21582898497581482,6.408801709767431e-05,-0.17593351006507874,0.026121992617845535,-0.6921152472496033,0.0022508336696773767,-0.3578345775604248,0.004939628299325705,-1.8601553440093994,1.572746753692627,-0.22665727138519287,-0.42362266778945923,0.4631417989730835
-0.0009737580548971891,-0.22179853916168213,0.0001916319306474179,-0.09519905596971512,0.024944167584180832,-0.7048189640045166,0.005025502294301987,-0.3385702669620514,0.004728118423372507,-1.8616944551467896,1.5730397701263428,-0.23640546202659607,-0.4392666816711426,0.48576053977012634
0.006277426145970821,-0.21285133063793182,0.00015522186004091054,-0.04827200993895531,0.040950216352939606,-0.7226378917694092,0.009612607769668102,-0.3567514419555664,0.005519429221749306,-1.859743595123291,1.574110507965088,-0.24094590544700623,-0.4517230689525604,0.5289822816848755
0.003471770789474249,-0.09950418770313263,0.00011320975318085402,-0.1436975747346878,0.08656627684831619,-0.7188984155654907,0.04632985591888428,-0.3707733452320099,0.0041869208216667175,-1.8578771352767944,1.5789417028427124,-0.18557408452033997,-0.443433552980423,0.5003439784049988
-0.0025077119935303926,-0.03588239476084709,9.169989789370447e-05,-0.22249868512153625,0.10524054616689682,-0.7044851779937744,0.04025200009346008,-0.3867039680480957,0.008838272653520107,-1.862884283065796,1.5798434019088745,-0.1406690776348114,-0.4110819101333618,0.4439955949783325
-0.020982366055250168,0.011292136274278164,8.222485485021025e-05,-0.32949090003967285,0.07939745485782623,-0.6858181953430176,0.0403546467423439,-0.41575661301612854,0.006275724619626999,-1.8573719263076782,1.5786906480789185,-0.07949259132146835,-0.3952964246273041,0.3906392753124237
0.03744104504585266,0.3113546073436737,2.867003422579728e-05,-0.28404468297958374,0.0351710245013237,-0.6936167478561401,0.008589457720518112,-0.3904964327812195,0.004067589063197374,-1.858160376548767,1.573447823524475,0.2508257329463959,-0.3219054937362671,0.3594662845134735
0.034860167652368546,0.35646146535873413,2.4782011678325944e-05,-0.24513323605060577,0.006840552669018507,-0.6979837417602539,0.004446177743375301,-0.36556410789489746,-0.00147353729698807,-1.8565760850906372,1.5711545944213867,0.32123440504074097,-0.3404105007648468,0.4043748378753662
0.03570977598428726,0.3868710398674011,2.0073428458999842e-05,-0.23730608820915222,-0.021213337779045105,-0.6999314427375793,-0.0007201249245554209,-0.38161221146583557,-0.006728561129420996,-1.8531893491744995,1.568732738494873,0.3781721591949463,-0.3493120074272156,0.4185395836830139
0.036631990224123,0.4033801257610321,1.6259476979030296e-05,-0.26885300874710083,-0.045691609382629395,-0.6984941363334656,-0.006153394468128681,-0.4065362513065338,-0.011425120756030083,-1.8533735275268555,1.5665462017059326,0.4196881949901581,-0.34849196672439575,0.4058015048503876
0.038865137845277786,0.4065428078174591,1.3170176316634752e-05,-0.33180704712867737,-0.06330841034650803,-0.7175361514091492,-0.01227685809135437,-0.40946534276008606,-0.01541763637214899,-1.8535079956054688,1.5647348165512085,0.44457316398620605,-0.3350175619125366,0.3658197224140167
-0.016625242307782173,0.08901485800743103,0.00019361173326615244,-0.3016990125179291,0.013367211446166039,-0.7147114276885986,0.014241614378988743,-0.3009994626045227,0.0047434354200959206,-1.8538768291473389,1.573172926902771,0.058084744960069656,-0.36124640703201294,0.36166051030158997
0.0016449950635433197,0.1133125051856041,0.00015682551020290703,-0.21652287244796753,-0.00017775114974938333,-0.713617742061615,0.013034550473093987,-0.3098251521587372,0.0014740580227226019,-1.8547706604003906,1.5719693899154663,0.09199584275484085,-0.3644644618034363,0.41106685996055603
-0.007838456891477108,0.14988361299037933,0.00012716803757939488,-0.1846826672554016,0.011122679337859154,-0.713019847869873,0.008489036001265049,-0.28020307421684265,0.0031078471802175045,-1.8533262014389038,1.5723185539245605,0.12347012758255005,-0.3842220902442932,0.46191099286079407
-0.022056331858038902,0.2038341909646988,0.0001030061102937907,-0.19434675574302673,0.034061580896377563,-0.7142776250839233,0.011944524012506008,-0.2561018168926239,0.0067054457031190395,-1.8533778190612793,1.5743849277496338,0.15729832649230957,-0.3962412178516388,0.4758777618408203
-0.03716275468468666,0.24297375977039337,8.343494846485555e-05,-0.2475351095199585,0.02188856154680252,-0.6946714520454407,0.016774892807006836,-0.2674274444580078,0.004584745038300753,-1.853516697883606,1.5739870071411133,0.20043690502643585,-0.3959725797176361,0.46180737018585205
-0.043227262794971466,0.26448023319244385,6.758231029380113e-05,-0.31175726652145386,-0.0021052586380392313,-0.6871397495269775,0.01039209496229887,-0.3195032775402069,-0.00046836244291625917,-1.8496254682540894,1.5713597536087036,0.24398359656333923,-0.3870709538459778,0.4170953929424286
-0.018330730497837067,0.2717464566230774,5.474167119245976e-05,-0.3195180594921112,-0.022113647311925888,-0.7164470553398132,-0.0013183323899284005,-0.3161747455596924,-0.005627665668725967,-1.8566348552703857,1.5684847831726074,0.2763203978538513,-0.37050923705101013,0.37329283356666565
-0.0030333646573126316,0.2652468681335449,4.325804184190929e-05,-0.3589474856853485,-0.0382409542798996,-0.7310154438018799,-0.011599293909966946,-0.35926565527915955,-0.010084528475999832,-1.8548835515975952,1.5660710334777832,0.2923245429992676,-0.3518332839012146,0.34763890504837036
-0.030926719307899475,-0.06195122376084328,-3.805127562372945e-05,-0.2170437127351761,0.0001945630501722917,-0.7106629610061646,0.007551595102995634,-0.4261793792247772,0.0011575693497434258,-1.8614563941955566,1.571681261062622,-0.06673876196146011,-0.41341033577919006,0.3712187707424164
-0.022277744486927986,-0.0535685159265995,-3.082153489231132e-05,-0.07534927129745483,0.012418101541697979,-0.692582905292511,0.0036868208553642035,-0.39643749594688416,0.002729593776166439,-1.861499547958374,1.571852207183838,-0.06426484882831573,-0.45875462889671326,0.4623524844646454
-0.17687951028347015,-0.1321963220834732,-3.183823693575505e-08,-0.22974883019924164,0.014881014823913574,-0.720389723777771,0.06398779153823853,-0.3202246427536011,-0.0031717868987470865,-1.8541003465652466,1.5766552686691284,-0.1819084882736206,-0.5622761845588684,0.4689720869064331
-0.16618482768535614,-0.12209983915090561,-2.5788970958728896e-08,-0.2955380380153656,-0.008563435636460781,-0.701722264289856,0.045205239206552505,-0.3653774559497833,-0.007148812059313059,-1.8548685312271118,1.5732154846191406,-0.1453237682580948,-0.5400316119194031,0.3973137438297272
-0.15278063714504242,-0.09793934971094131,-2.0889066476570406e-08,-0.38857173919677734,-0.00016214906645473093,-0.6960856318473816,0.03226514905691147,-0.30168724060058594,-0.004296514205634594,-1.8549724817276,1.5728042125701904,-0.11997344344854355,-0.4956016540527344,0.3600130081176758
-0.13270458579063416,-0.057431839406490326,-1.692014350851423e-08,-0.5107415318489075,0.01215465646237135,-0.691393256187439,0.035834576934576035,-0.2500287592411041,0.0002893203345593065,-1.8549103736877441,1.5745736360549927,-0.0940796509385109,-0.4298093020915985,0.2973746359348297
0.14868497848510742,0.4143364131450653,3.263247208451503e-06,-0.44739773869514465,0.00722870696336031,-0.6485453844070435,0.03909946605563164,-0.2774776220321655,0.0036073108203709126,-1.8553272485733032,1.5749434232711792,0.3566018044948578,-0.13336530327796936,0.30483394861221313
0.14565445482730865,0.4682515263557434,2.6432301183376694e-06,-0.43542224168777466,-0.006540228612720966,-0.6784356236457825,0.023481320589780807,-0.25884130597114563,-0.000662167789414525,-1.8543641567230225,1.572134017944336,0.43122076988220215,-0.13310003280639648,0.3260646164417267
0.136983722448349,0.5077568292617798,2.1410164663393516e-06,-0.4733581840991974,-0.01803843304514885,-0.6772118806838989,0.004429884720593691,-0.2984183430671692,-0.004583943169564009,-1.8542578220367432,1.5691924095153809,0.4928479492664337,-0.14306823909282684,0.30235961079597473
0.11877743899822235,0.5332208871841431,-0.00029589905170723796,-0.27775144577026367,-0.053006816655397415,-0.737847626209259,-0.026387160643935204,-0.3448130488395691,-0.016245434060692787,-1.8569270372390747,1.563155174255371,0.5879892110824585,-0.23408789932727814,0.3529481887817383
0.12419046461582184,0.49413058161735535,-0.0002396782219875604,-0.22531954944133759,-0.06598486006259918,-0.7296562194824219,-0.027988987043499947,-0.41168951988220215,-0.01848428137600422,-1.8564519882202148,1.562138319015503,0.5638347864151001,-0.2645779550075531,0.3922061324119568
0.14076223969459534,0.4695468842983246,-0.0001883781369542703,-0.14932452142238617,-0.04796730354428291,-0.7460402846336365,-0.023451613262295723,-0.3589869439601898,-0.014033511281013489,-1.858968734741211,1.563969612121582,0.5277841091156006,-0.2773222029209137,0.4240606129169464
0.12582793831825256,0.43332943320274353,-0.00015258628991432488,-0.12836478650569916,-0.050424724817276,-0.7559274435043335,-0.01940292865037918,-0.3284624218940735,-0.01292785070836544,-1.857695460319519,1.5645917654037476,0.49149438738822937,-0.28693142533302307,0.4685732126235962
0.09570978581905365,0.3795355260372162,-0.00012359488755464554,-0.12180529534816742,-0.06761344522237778,-0.7356759905815125,-0.01779094710946083,-0.3105652630329132,-0.01399273332208395,-1.8581386804580688,1.564023733139038,0.45224884152412415,-0.3094584047794342,0.4779956042766571
0.09219400584697723,0.3103983700275421,-0.00010011186532210559,-0.060767099261283875,-0.08705634623765945,-0.7322179675102234,-0.02192058600485325,-0.35570207238197327,-0.014900035224854946,-1.8588581085205078,1.5628095865249634,0.4015582501888275,-0.35120972990989685,0.5037987232208252
