gmarotta2107/reinforcementLearning/datasets/Mid_position_dataset_test.csv
joint_0,joint_1,joint_2,joint_3,joint_4,joint_5,joint_6,joint_7,joint_8,joint_9,joint_10,paddle_x,paddle_y,paddle_z
0.1229021295993733,0.6036308370454184,0,-0.5435619019555249,0,-0.32128859949384936,0,-0.665921747214562,0,-1.8561944901923448,1.5707963267948966,-0.07262665033340454,-0.42216581106185913,0.4660818576812744
0.11268905331366974,-0.5697672261691734,0,-1.2578967237572247,0,-0.21949750149724556,0,-0.5881989093519975,0,-1.8561944901923448,1.5707963267948966,-0.06013983115553856,-0.3887771666049957,0.3779788017272949
0.06639691530953284,-0.10196080774111882,0,0.1771225404948289,0,-0.3626292319052679,0,-0.5002877632687008,0,-1.8561944901923448,1.5707963267948966,-0.04913852736353874,-0.3339120149612427,0.3241730332374573
-0.27970336692638736,0.6634314230561593,0,-1.55544766223106,0,-0.09276032307296833,0,-0.366651264918503,0,-1.8561944901923448,1.5707963267948966,-0.0343155600130558,-0.05173803120851517,0.26342564821243286
-0.00830762929852541,-0.7302179759961581,0,0.04988704511415998,0,-0.12582690606608382,0,-0.5095339175840403,0,-1.8561944901923448,1.5707963267948966,0.01337762176990509,-0.04434962570667267,0.30020350217819214
0.15086989536137319,0.10433918783175533,0,-0.3539692612177179,0,-0.049633631290300295,0,-0.0026839798641953294,0,-1.8561944901923448,1.5707963267948966,0.07348448783159256,-0.0634075179696083,0.30169495940208435
-0.28616926794389963,-0.37731681096707564,0,-0.6097020229960717,0,-0.37293719608429154,0,-0.683425398546482,0,-1.8561944901923448,1.5707963267948966,0.13251425325870514,-0.07986624538898468,0.33051246404647827
0.09619763267788306,-0.18534986650410656,0,1.5674443554867503,0,-0.21734605212828395,0,-0.5105011253923716,0,-1.8561944901923448,1.5707963267948966,0.17970943450927734,-0.10017573088407516,0.37196090817451477
0.1390672396657549,0.3027369527456363,0,0.6110303961302428,0,-0.1394961905285218,0,-0.37210382302995076,0,-1.8561944901923448,1.5707963267948966,0.2107481211423874,-0.13894756138324738,0.38163283467292786
0.22771499254282096,0.05050781608056654,0,1.246911799759432,0,-0.7969383430441138,0,-0.07831118289012196,0,-1.8561944901923448,1.5707963267948966,0.22582297027111053,-0.16084523499011993,0.43487516045570374
-0.06973382081538254,-0.15012331452167482,0,0.9661209586845771,0,-0.7189209692188325,0,-0.2996736317589672,0,-1.8561944901923448,1.5707963267948966,-0.113242968916893,-0.3154642879962921,0.5243043899536133
-0.11992605734848957,-0.5032188268036226,0,0.09812932601055357,0,-0.11455472350033868,0,-0.3736786207226213,0,-1.8561944901923448,1.5707963267948966,-0.11596301943063736,-0.2960372567176819,0.5200082063674927
-0.18295863081174774,0.12489243606037692,0,0.9142205289590906,0,-0.6910474036818711,0,-0.12463669116207032,0,-1.8561944901923448,1.5707963267948966,0.09960079938173294,-0.4286699593067169,0.424176424741745
0.023511705856848697,0.3947835726640805,0,1.1054690240283294,0,-0.7437979489974568,0,-0.39737641092420783,0,-1.8561944901923448,1.5707963267948966,0.11980455368757248,-0.3924841284751892,0.3680620491504669
-0.2713954219218465,0.2137204805002877,0,0.6886297536278185,0,-0.29138166962118583,0,-0.3108012398595438,0,-1.8561944901923448,1.5707963267948966,0.12954455614089966,-0.37569671869277954,0.3321585953235626
0.2842187563334599,0.2665614888101613,0,-1.0377420170109732,0,-0.21028592994772788,0,-0.5133382508312454,0,-1.8561944901923448,1.5707963267948966,0.14186358451843262,-0.3565310835838318,0.3301437795162201
-0.20667701864343546,0.29532460912546976,0,-0.575470622930331,0,-0.7406602650415848,0,-0.5526997706544898,0,-1.8561944901923448,1.5707963267948966,0.15716035664081573,-0.33848807215690613,0.340475469827652
-0.26256693259361613,-0.3774821412612777,0,-0.7684773672570892,0,-0.39213838381101634,0,-0.5691642766998397,0,-1.8561944901923448,1.5707963267948966,0.17664439976215363,-0.3221266567707062,0.31825169920921326
0.0059296452696628865,0.2209619525764679,0,-0.898660053524079,0,-0.1636833095345842,0,-0.46487819459793966,0,-1.8561944901923448,1.5707963267948966,0.19806115329265594,-0.3253421485424042,0.2803478538990021
-0.09559637698459902,0.6404008833833481,0,1.1642065460843454,0,-0.6869073546220286,0,-0.06438659766811172,0,-1.8561944901923448,1.5707963267948966,0.2057243436574936,-0.28410375118255615,0.25896069407463074
-0.05168536695750678,0.14034402675012747,0,0.49464174939986094,0,-0.12127059909578208,0,-0.053028738989471025,0,-1.8561944901923448,1.5707963267948966,0.19237326085567474,-0.2738536298274994,0.24189889430999756
-0.27012162781880955,0.5657194831465828,0,-1.4480541615900147,0,-0.472209772553659,0,-0.5146698767870316,0,-1.8561944901923448,1.5707963267948966,0.1803041398525238,-0.2637213170528412,0.254055380821228
-0.07935924105642414,0.6211529489538732,0,-0.7443613406642361,0,-0.2674661835584926,0,-0.6553050149948682,0,-1.8561944901923448,1.5707963267948966,0.1715797781944275,-0.2616426944732666,0.2779259979724884
-0.0503243531199519,0.23753557406940518,0,1.074216120094369,0,-0.4201954306982796,0,-0.007710662620954656,0,-1.8561944901923448,1.5707963267948966,0.17282314598560333,-0.2831345498561859,0.2619785964488983
-0.2543890609852224,0.5357504984707109,0,1.3217107967860584,0,-0.01126330370087536,0,-0.11320178671360992,0,-1.8561944901923448,1.5707963267948966,0.1866431087255478,-0.27859386801719666,0.26110953092575073
-0.07870212675198565,-0.416519270766959,0,0.39323730276837354,0,-0.5910483170152104,0,-0.08226209141397745,0,-1.8561944901923448,1.5707963267948966,0.20258131623268127,-0.26144495606422424,0.29224538803100586
-0.14514254682584773,-0.2842756339753363,0,-1.320895706314628,0,-0.31437746134364447,0,-0.6101719974741207,0,-1.8561944901923448,1.5707963267948966,0.22237958014011383,-0.2664845883846283,0.3402095139026642
-0.00436766092920815,-0.3726016427502963,0,-0.18465715533717808,0,-0.474795503130687,0,-0.6058097702024173,0,-1.8561944901923448,1.5707963267948966,0.23767653107643127,-0.30193859338760376,0.3825052082538605
0.16181527160224474,0.09229724123572325,0,-0.9734110089621207,0,-0.6168778139043731,0,-0.47611509060470936,0,-1.8561944901923448,1.5707963267948966,0.24015270173549652,-0.3419053256511688,0.4002546966075897
0.24647630739097864,0.6707696645251491,0,-0.24482747436385366,0,-0.10639408063895606,0,-0.11088642715825048,0,-1.8561944901923448,1.5707963267948966,0.22805540263652802,-0.3653360903263092,0.4192769527435303
0.07033323778460826,0.4367513838652006,0,0.7180924148018577,0,-0.18727860085949755,0,-0.41320277827578933,0,-1.8561944901923448,1.5707963267948966,0.2081184983253479,-0.35730576515197754,0.43935415148735046
0.1526662171045272,-0.4454558307839396,0,1.2048770134002473,0,-0.2190342519709415,0,-0.24528318893576317,0,-1.8561944901923448,1.5707963267948966,0.19237850606441498,-0.3446213901042938,0.5010066628456116
-0.014637588588722272,0.48078323770689213,0,0.9216643022651589,0,-0.16403687638584696,0,-0.45266926228689663,0,-1.8561944901923448,1.5707963267948966,-0.12187084555625916,-0.38931211829185486,0.42513924837112427
0.2619492832231029,0.529779327809643,0,-0.3200600724677263,0,-0.04325600014442266,0,-0.39741741869430147,0,-1.8561944901923448,1.5707963267948966,-0.1327792853116989,-0.38629576563835144,0.4309382438659668
0.13057673648329127,-0.41073643421406364,0,1.4640860857478284,0,-0.36185651063424074,0,-0.35167704994259236,0,-1.8561944901923448,1.5707963267948966,-0.13089127838611603,-0.3779480457305908,0.46980535984039307
-0.23936174829423817,0.13833823354714347,0,-0.3405951080026577,0,-0.4856353318429347,0,-0.1737744853730162,0,-1.8561944901923448,1.5707963267948966,-0.03703725337982178,-0.4301323890686035,0.5040199160575867
0.21726992035663123,0.4496530802436296,0,-0.9460366988589716,0,-0.4150331076482284,0,-0.37654465555769606,0,-1.8561944901923448,1.5707963267948966,-0.03358214348554611,-0.374551922082901,0.49694985151290894
-0.16714331066129667,-0.392699285051601,0,0.04598498030496989,0,-0.7285052972439584,0,-0.261455015627658,0,-1.8561944901923448,1.5707963267948966,-0.018346445634961128,-0.3318089246749878,0.4976658523082733
0.2860082229198489,0.7842488229130222,0,0.3902383022669007,0,-0.5835895569903986,0,-0.6744908750616213,0,-1.8561944901923448,1.5707963267948966,0.028222771361470222,-0.31158387660980225,0.47537970542907715
-0.12666047442770595,0.7610177572857075,0,0.3908077102298819,0,-0.1827982276106872,0,-0.3081406487726492,0,-1.8561944901923448,1.5707963267948966,0.03245047852396965,-0.30016443133354187,0.4484056234359741
0.16632776319883458,0.17863111341409876,0,0.37768698044715254,0,-0.08595317540137548,0,-0.6379548440360443,0,-1.8561944901923448,1.5707963267948966,0.052791696041822433,-0.2730064392089844,0.4673008918762207
-0.057209356155253716,-0.260060892216994,0,-0.006213699989242816,0,-0.08046423507124933,0,-0.014079368204796272,0,-1.8561944901923448,1.5707963267948966,0.08798453956842422,-0.25516045093536377,0.5103504657745361
-0.15005916819970036,0.14689281432391632,0,0.7152595002170563,0,-0.6584432108217256,0,-0.5703406257429958,0,-1.8561944901923448,1.5707963267948966,-0.17514067888259888,-0.3101412355899811,0.5506802797317505
-0.1858384982837,0.5346246577392904,0,1.5306811786104388,0,-0.3450792616172025,0,-0.33748899400732546,0,-1.8561944901923448,1.5707963267948966,-0.2162230908870697,-0.3073980510234833,0.49860328435897827
0.26675132564345577,0.03369460743753305,0,0.4228723685180549,0,-0.2914598138617366,0,-0.4248404895102935,0,-1.8561944901923448,1.5707963267948966,-0.23893466591835022,-0.3277139663696289,0.4625651240348816
0.06618172102309261,-0.729852766079517,0,-0.78993886561824,0,-0.656605566788929,0,-0.35255139465086516,0,-1.8561944901923448,1.5707963267948966,-0.24388377368450165,-0.34779587388038635,0.461363822221756
-0.1594582066076402,-0.6762085315198996,0,-0.5837154613222314,0,-0.663937454935218,0,-0.6272171699448531,0,-1.8561944901923448,1.5707963267948966,-0.23424291610717773,-0.36211174726486206,0.4833751618862152
-0.016776091369320567,-0.01566978889014492,0,1.159760731394973,0,-0.2150878238728885,0,-0.03091387991961947,0,-1.8561944901923448,1.5707963267948966,-0.22576135396957397,-0.37399163842201233,0.4663853943347931
-0.2464972347294355,-0.19529296726202272,0,-0.4811293621545085,0,-0.5348292532556918,0,-0.2554415182304518,0,-1.8561944901923448,1.5707963267948966,-0.2279302030801773,-0.3746322691440582,0.432963490486145
-0.13414604411178208,-0.7205156764182288,0,-1.4090364114747256,0,-0.2152325662904383,0,-0.5170570154367412,0,-1.8561944901923448,1.5707963267948966,-0.22972527146339417,-0.3590690791606903,0.4388549327850342
0.15213510494898946,0.22534712483546682,0,0.23600553933321944,0,-0.7569596599552253,0,-0.23332772819917486,0,-1.8561944901923448,1.5707963267948966,-0.2277042418718338,-0.3642473518848419,0.42103928327560425
-0.0597663254811574,-0.2383517182206909,0,-0.4823780136738107,0,-0.04350022337869075,0,-0.025803455733252934,0,-1.8561944901923448,1.5707963267948966,-0.23037973046302795,-0.3592873215675354,0.3913828134536743
-0.05711670142234343,0.7634703921054284,0,-0.4193604814163776,0,-0.2590864044162545,0,-0.6184242635297759,0,-1.8561944901923448,1.5707963267948966,-0.2312443107366562,-0.3365689814090729,0.4068771004676819
0.15851574134138874,0.42015377184399916,0,1.0020856018304145,0,-0.6341572978731014,0,-0.28272583830543013,0,-1.8561944901923448,1.5707963267948966,-0.23051799833774567,-0.3301948010921478,0.43623965978622437
0.07410545308051825,0.25126984041371947,0,0.6324890064929742,0,-0.4629461087523945,0,-0.17833727525652243,0,-1.8561944901923448,1.5707963267948966,-0.22238965332508087,-0.3468795418739319,0.4447355270385742
0.29602177773138466,-0.7785452018190204,0,-1.1934883894580945,0,-0.018778325368317583,0,-0.6245920963516572,0,-1.8561944901923448,1.5707963267948966,-0.2012784630060196,-0.3522287905216217,0.46394026279449463
-0.040501961320055235,-0.6049884466012891,0,-0.45263002933419827,0,-0.13351853915438505,0,-0.5785543655025326,0,-1.8561944901923448,1.5707963267948966,-0.166374072432518,-0.3506911098957062,0.50658118724823
-0.19446052972071093,0.07548219889491181,0,-0.9062961359738037,0,-0.34241213024827455,0,-0.2679069687844193,0,-1.8561944901923448,1.5707963267948966,-0.10682889074087143,-0.34910428524017334,0.524865984916687
-0.09182512548699298,-0.3452924688354882,0,1.2649967134573852,0,-0.7823318454063518,0,-0.055737805886397096,0,-1.8561944901923448,1.5707963267948966,0.07217512279748917,-0.3739261031150818,0.5003066658973694
-0.02102162405996666,0.30484933734390784,0,0.6985240000194577,0,-0.6708404292147556,0,-0.6340417795418981,0,-1.8561944901923448,1.5707963267948966,0.1066627949476242,-0.3911893665790558,0.501847505569458
-0.28832847461459826,-0.25687020900458113,0,0.3487297876155695,0,-0.6119342772758825,0,-0.1996776737892546,0,-1.8561944901923448,1.5707963267948966,0.13062933087348938,-0.42545199394226074,0.5233340263366699
-0.27564821474009266,0.5863324206984897,0,-0.077749636102308,0,-0.001218344260174531,0,-0.609536735903383,0,-1.8561944901923448,1.5707963267948966,0.15999183058738708,-0.4029887318611145,0.4767915904521942
-0.270508661468215,0.08031832799785654,0,-1.1789925347645915,0,-0.09390986949983282,0,-0.24464317421048298,0,-1.8561944901923448,1.5707963267948966,0.14164811372756958,-0.34501105546951294,0.39778125286102295
-0.18227144470102696,-0.7674037894582426,0,0.7268793649525769,0,-0.7784142435031791,0,-0.4693266565445915,0,-1.8561944901923448,1.5707963267948966,0.12543508410453796,-0.29557356238365173,0.33534714579582214
0.26947614467251285,-0.23388259915224308,0,0.21507484353311512,0,-0.4469275616555448,0,-0.27578986708253644,0,-1.8561944901923448,1.5707963267948966,0.1119154617190361,-0.27252402901649475,0.2720297873020172
0.20433346432653127,-0.4225804021625603,0,1.314410156180351,0,-0.18793950854601027,0,-0.5793884942844675,0,-1.8561944901923448,1.5707963267948966,-0.040369465947151184,-0.1549057960510254,0.20481519401073456
-0.006873027854571723,-0.4237826814556247,0,-0.02333190165128407,0,-0.24364795547725904,0,-0.6383838682855314,0,-1.8561944901923448,1.5707963267948966,-0.08763841539621353,-0.13032598793506622,0.23715481162071228
0.19594077616901634,0.740146806764511,0,0.8724359425654726,0,-0.6895155344303705,0,-0.3116704586412113,0,-1.8561944901923448,1.5707963267948966,-0.13572056591510773,-0.1277160346508026,0.2886356711387634
0.1982557990347798,0.10841732210046673,0,1.3334175766093384,0,-0.1787876155491468,0,-0.06202430009775228,0,-1.8561944901923448,1.5707963267948966,-0.18894317746162415,-0.13793344795703888,0.3568659722805023
-0.03929017400425683,0.32470364901611637,0,-1.4589132885205234,0,-0.6506673610888312,0,-0.10496376399438923,0,-1.8561944901923448,1.5707963267948966,-0.23613308370113373,-0.1507863998413086,0.45133131742477417
0.09627983458012174,0.6988662378112789,0,-0.250467771616788,0,-0.48188248577844695,0,-0.07068548297878452,0,-1.8561944901923448,1.5707963267948966,-0.17010237276554108,-0.43510541319847107,0.5059000253677368
-0.10428878395303098,0.17392510835529895,0,1.2263297937792559,0,-0.5491061894966858,0,-0.12491681504903185,0,-1.8561944901923448,1.5707963267948966,-0.10997744649648666,-0.3635575771331787,0.47724953293800354
-0.2699543047120298,0.49023102097953863,0,1.1569820903295214,0,-0.5584857755016688,0,-0.4840619397455106,0,-1.8561944901923448,1.5707963267948966,-0.035492390394210815,-0.3044937551021576,0.4700683355331421
-0.1619319423995684,0.5282805506125781,0,0.36272174494877607,0,-0.31377028394927964,0,-0.28551287759875205,0,-1.8561944901923448,1.5707963267948966,0.04039951041340828,-0.27222493290901184,0.474642813205719
0.17391096354200153,0.07811899606999284,0,-0.35830783847513104,0,-0.42394710233362415,0,-0.6381681939617049,0,-1.8561944901923448,1.5707963267948966,0.11849229782819748,-0.2568809688091278,0.5001550912857056
-0.2713457092117783,-0.6026649102525159,0,0.24863952482226725,0,-0.0649985853080628,0,-0.27723099881475743,0,-1.8561944901923448,1.5707963267948966,0.39485833048820496,-0.16110630333423615,0.45755061507225037
-0.04248027855599512,-0.06694252038787118,0,-1.0905017513067656,0,-0.39511414671173317,0,-0.15255595628798257,0,-1.8561944901923448,1.5707963267948966,0.4014788866043091,-0.13869322836399078,0.43393418192863464
-0.12518531991038653,-0.21432589526919255,0,-0.19450170774851294,0,-0.1279506745487622,0,-0.5699137339136097,0,-1.8561944901923448,1.5707963267948966,0.3909701108932495,-0.12226308882236481,0.4344591498374939
-0.2861032634645202,0.1262464596310009,0,-1.1451964883777328,0,-0.7688561620693459,0,-0.15475852945045732,0,-1.8561944901923448,1.5707963267948966,0.36400002241134644,-0.13001783192157745,0.44809284806251526
0.19258502892962887,0.6379596067682682,0,-1.394113095188222,0,-0.041173702400999934,0,-0.02365609240878641,0,-1.8561944901923448,1.5707963267948966,0.3248017728328705,-0.15525974333286285,0.45719707012176514
0.25518552668545186,0.1536045787675645,0,-1.0389307979798028,0,-0.19529324950074622,0,-0.1663630366491653,0,-1.8561944901923448,1.5707963267948966,0.2871413230895996,-0.16849260032176971,0.42969295382499695
-0.0049392502257676885,0.24355018903177905,0,1.0501627325726655,0,-0.0001896220054729003,0,-0.5188019087532343,0,-1.8561944901923448,1.5707963267948966,0.25740504264831543,-0.16337068378925323,0.38457438349723816
-0.06813708337188373,-0.6464439434941096,0,0.08180723964110226,0,-0.7365012204452629,0,-0.6788788899153215,0,-1.8561944901923448,1.5707963267948966,0.23258724808692932,-0.16101795434951782,0.34029725193977356
-0.29452730756937695,-0.1349545455372254,0,1.0863359353763573,0,-0.29980895531519847,0,-0.18792547327601372,0,-1.8561944901923448,1.5707963267948966,0.2163214087486267,-0.17868384718894958,0.31632551550865173
0.23889017284756192,0.6939168873217043,0,-1.4790692790804019,0,-0.07999661820465398,0,-0.01442038298211612,0,-1.8561944901923448,1.5707963267948966,0.20073173940181732,-0.20172429084777832,0.3152138292789459
-0.11592188183267843,-0.4702099736480978,0,-0.20578933580472736,0,-0.3951652052295762,0,-0.469200187365296,0,-1.8561944901923448,1.5707963267948966,0.17686687409877777,-0.2065715491771698,0.333997517824173
0.07075597508187581,0.4718217625853196,0,0.6985735462964633,0,-0.29735639167466343,0,-0.4417171056254954,0,-1.8561944901923448,1.5707963267948966,0.1528443843126297,-0.2159375697374344,0.33211156725883484
0.040359036659330605,-0.49499271631575326,0,-1.4288722417498656,0,-0.7367959788758188,0,-0.004784781638781266,0,-1.8561944901923448,1.5707963267948966,0.125371053814888,-0.24466601014137268,0.348783403635025
0.2342563007144995,0.7697148116655537,0,1.4579121004750144,0,-0.7366315470012136,0,-0.6593228245896644,0,-1.8561944901923448,1.5707963267948966,0.10022751986980438,-0.2531713545322418,0.3904641568660736
-0.06666679391827007,-0.47669186046307677,0,-0.38432226403616343,0,-0.7494954062193084,0,-0.43594000661471277,0,-1.8561944901923448,1.5707963267948966,0.07189825922250748,-0.24648433923721313,0.40381914377212524
0.2507237689273049,0.1690420024949313,0,-1.5279531556796624,0,-0.29930520079282896,0,-0.18887554052169886,0,-1.8561944901923448,1.5707963267948966,0.03128507733345032,-0.24508872628211975,0.38850831985473633
-0.2840491796021703,-0.16510097037902904,0,-0.9707461784926235,0,-0.7661600970606757,0,-0.42769700661138543,0,-1.8561944901923448,1.5707963267948966,-0.0226287879049778,-0.24760667979717255,0.36495089530944824
0.25041497413672115,-0.05261626671930686,0,1.2653238843956327,0,-0.5685862333969512,0,-0.01672093022430987,0,-1.8561944901923448,1.5707963267948966,-0.07426667213439941,-0.24264465272426605,0.30896058678627014
-0.2502697245241072,0.5140382444773455,0,0.5157128150207533,0,-0.33395135274343873,0,-0.38592496170641294,0,-1.8561944901923448,1.5707963267948966,-0.11393431574106216,-0.24500036239624023,0.23104225099086761
-0.2746406160662604,0.017447564456703146,0,-1.1570614577426015,0,-0.3947705025428861,0,-0.6780422594006822,0,-1.8561944901923448,1.5707963267948966,0.09911926090717316,-0.20765215158462524,0.274086594581604
-0.0020616868136179023,0.13050122778514017,0,-0.6738217541705651,0,-0.04033518267580083,0,-0.477551552837166,0,-1.8561944901923448,1.5707963267948966,0.13264751434326172,-0.24236413836479187,0.3607965409755707
-0.2581443658719284,0.09525403651259179,0,0.9776712027460421,0,-0.3098923968003809,0,-0.12012352534076631,0,-1.8561944901923448,1.5707963267948966,0.15296317636966705,-0.28467079997062683,0.4062976539134979
-0.17292830293896164,-0.22136481417937048,0,-0.837073069016729,0,-0.6230729399473456,0,-0.17885752886541773,0,-1.8561944901923448,1.5707963267948966,0.16015443205833435,-0.30655336380004883,0.4433790445327759
0.29448526509490486,0.6322339822066374,0,-0.22659968125308416,0,-0.5869072376455823,0,-0.07446441636526901,0,-1.8561944901923448,1.5707963267948966,0.15538087487220764,-0.34309202432632446,0.4803561568260193
-0.03796968863079747,0.3889768370851725,0,1.1341914232219183,0,-0.6383384975698622,0,-0.4319160598008743,0,-1.8561944901923448,1.5707963267948966,0.3003614842891693,-0.38833922147750854,0.47733017802238464
-0.12339342438035142,-0.1748835562650759,0,-0.5741368352099265,0,-0.513202658906079,0,-0.5709254056635881,0,-1.8561944901923448,1.5707963267948966,0.2852974236011505,-0.35332268476486206,0.4069892168045044
0.14303077765803313,-0.47330263349822044,0,0.3925909627043054,0,-0.7492386058866063,0,-0.1802013087056179,0,-1.8561944901923448,1.5707963267948966,0.25165849924087524,-0.33613118529319763,0.34751081466674805
0.27903319669112175,-0.4094134919536805,0,-1.0546062326359351,0,-0.051229584032655096,0,-0.5468779530527912,0,-1.8561944901923448,1.5707963267948966,0.20072472095489502,-0.32239654660224915,0.31506282091140747
-0.25166282624319253,0.30731477039612587,0,0.16278963863674734,0,-0.7803834898236635,0,-0.3756485742864161,0,-1.8561944901923448,1.5707963267948966,0.1344021111726761,-0.28756481409072876,0.31091946363449097
-0.1922813974000257,-0.4511672003227936,0,0.39578783729657063,0,-0.155068858998192,0,-0.5670721861996072,0,-1.8561944901923448,1.5707963267948966,-0.1316150277853012,-0.22267597913742065,0.32165250182151794
-0.15545953584128586,-0.6362295189782599,0,-1.4434988381911753,0,-0.6313391479489938,0,-0.08638112501054329,0,-1.8561944901923448,1.5707963267948966,-0.18000057339668274,-0.22970691323280334,0.3167969882488251
0.20300785080459188,0.6782413364254865,0,-0.1291129445723671,0,-0.41725067062536464,0,-0.06595791648210458,0,-1.8561944901923448,1.5707963267948966,-0.23380057513713837,-0.2511717975139618,0.3141787350177765
0.12472832886260793,0.44271572454302244,0,0.6891024048228136,0,-0.4771530606872849,0,-0.10652181417904827,0,-1.8561944901923448,1.5707963267948966,-0.2949117422103882,-0.25723996758461,0.29904451966285706
0.1415172678465212,-0.6212876630938745,0,-0.7671362278089315,0,-0.07911565211070237,0,-0.35675477929083754,0,-1.8561944901923448,1.5707963267948966,-0.35276612639427185,-0.2505250573158264,0.32437634468078613
0.16311845964153288,-0.5155007442801343,0,-0.8893797412429912,0,-0.44330047315677307,0,-0.5641277883071569,0,-1.8561944901923448,1.5707963267948966,-0.4000365138053894,-0.23597636818885803,0.3735376298427582
0.20161483951894127,-0.40780228363496196,0,-0.03787143232188184,0,-0.5193022142181434,0,-0.20291181247127815,0,-1.8561944901923448,1.5707963267948966,-0.4440010190010071,-0.21996982395648956,0.38916295766830444
0.2023617076288154,0.602013080388982,0,-1.0298827472265444,0,-0.11576072314830899,0,-0.5932182204577736,0,-1.8561944901923448,1.5707963267948966,-0.47921308875083923,-0.1989363431930542,0.38711798191070557
-0.22430322630477428,0.4309703857459295,0,0.6321997344514068,0,-0.7940059798863949,0,-0.1364164348911011,0,-1.8561944901923448,1.5707963267948966,-0.5001505017280579,-0.17715418338775635,0.3996599614620209
0.2783458008299918,-0.02145466434992882,0,0.7869806289267496,0,-0.23440134595858486,0,-0.2662581672340227,0,-1.8561944901923448,1.5707963267948966,-0.5068213939666748,-0.1482902467250824,0.3816373348236084
0.05707488161355634,-0.7969816602841926,0,-1.1759834043212019,0,-0.5275677903745228,0,-0.08038597460485308,0,-1.8561944901923448,1.5707963267948966,-0.4979637563228607,-0.10426391661167145,0.35238829255104065
0.0022602363652386437,0.7535062029276591,0,0.4935677706774473,0,-0.4466556701696305,0,-0.06193821995090487,0,-1.8561944901923448,1.5707963267948966,-0.47421368956565857,-0.061146125197410583,0.3311971127986908
-0.1538585485587655,-0.7036204819066687,0,0.6346164357091739,0,-0.2614626385261477,0,-0.5419898594290351,0,-1.8561944901923448,1.5707963267948966,-0.44965171813964844,-0.031444210559129715,0.27755752205848694
0.2274674685979033,0.7223288612412011,0,-0.11413414891073148,0,-0.4064756570702267,0,-0.5280791988041276,0,-1.8561944901923448,1.5707963267948966,-0.4198129177093506,-0.025672977790236473,0.24184370040893555
0.021348816920224833,0.2644447544169357,0,0.2941545231403184,0,-0.6766844676814348,0,-0.16005697512813866,0,-1.8561944901923448,1.5707963267948966,-0.3934026062488556,-0.03574776276946068,0.22777201235294342
-0.18230598488227578,-0.7062051763727878,0,1.0254783178523779,0,-0.34845224926946633,0,-0.06732977747290825,0,-1.8561944901923448,1.5707963267948966,-0.3646767735481262,-0.03741614893078804,0.24366232752799988
0.2142065015860008,0.11098618518841386,0,1.3581411022249221,0,-0.09173447060940687,0,-0.5406422144696643,0,-1.8561944901923448,1.5707963267948966,-0.3245166838169098,-0.046003106981515884,0.2802749574184418
0.24859397490808438,0.5848985799833266,0,0.6025797957607817,0,-0.7797668723822374,0,-0.3587468089711666,0,-1.8561944901923448,1.5707963267948966,-0.26914387941360474,-0.06454680860042572,0.343453973531723
-0.22287339832525221,-0.6141945612556038,0,1.0690560733375394,0,-0.5210261336158644,0,-0.17674934090585248,0,-1.8561944901923448,1.5707963267948966,-0.2006586343050003,-0.09953375905752182,0.4258568584918976
-0.18722804449574065,0.4620595553730582,0,1.4526140863207906,0,-0.45106567471734443,0,-0.6043637378867778,0,-1.8561944901923448,1.5707963267948966,-0.13492435216903687,-0.32028403878211975,0.4493866264820099
0.16939630683902168,0.3661328990106387,0,-0.8358217474837396,0,-0.15472232100348537,0,-0.5599080412913209,0,-1.8561944901923448,1.5707963267948966,-0.14895318448543549,-0.2986045181751251,0.4311502277851105
-0.19932232861985497,0.0505376072510042,0,-0.06935688480907598,0,-0.09868672554767877,0,-0.21433466456662664,0,-1.8561944901923448,1.5707963267948966,-0.14850714802742004,-0.28238481283187866,0.4228982627391815
-0.29572357436541746,-0.11075611888094572,0,1.4331890396842555,0,-0.4187811964643262,0,-0.30961143062188795,0,-1.8561944901923448,1.5707963267948966,-0.13405781984329224,-0.24389664828777313,0.40839916467666626
0.02836448663822916,-0.11741796480633349,0,1.2434785409568305,0,-0.19211971831720864,0,-0.18205849486137904,0,-1.8561944901923448,1.5707963267948966,-0.10605650395154953,-0.21884341537952423,0.411087304353714
0.10990703631341076,-0.1965966528673606,0,1.2475540962573008,0,-0.26845878487558017,0,-0.4215076987682907,0,-1.8561944901923448,1.5707963267948966,-0.08038129657506943,-0.20915600657463074,0.43180522322654724
-0.15822035615978375,0.4287246776185927,0,-1.4291497226711678,0,-0.7706956305921027,0,-0.28834893903852954,0,-1.8561944901923448,1.5707963267948966,-0.06759878247976303,-0.21679529547691345,0.4726715087890625
-0.1738988936268987,0.33089161169850034,0,-1.5577844260319416,0,-0.5007311902979514,0,-0.6637262371274182,0,-1.8561944901923448,1.5707963267948966,-0.07746239751577377,-0.2910701632499695,0.5038539171218872
-0.14937139827029802,0.39860630546112086,0,-0.793671242365976,0,-0.5339781112997191,0,-0.4062833442331664,0,-1.8561944901923448,1.5707963267948966,-0.08917388319969177,-0.34716692566871643,0.4968823194503784
0.07026883836917597,0.7469549843109831,0,-0.682179373003314,0,-0.3797704675513046,0,-0.0972622181053473,0,-1.8561944901923448,1.5707963267948966,-0.09731394797563553,-0.3840503692626953,0.4656403362751007
0.11726177173266977,0.5727181024163079,0,0.7640849658361129,0,-0.7523592783479102,0,-0.3075264809726095,0,-1.8561944901923448,1.5707963267948966,-0.09297072142362595,-0.3942515254020691,0.42782294750213623
0.09694408965510959,0.7542905759432792,0,0.8670335767533475,0,-0.016333494326352893,0,-0.16917338273763882,0,-1.8561944901923448,1.5707963267948966,-0.07276804745197296,-0.3951736092567444,0.41132882237434387
0.172566929703996,-0.3095782579509706,0,1.288770754951138,0,-0.5053219276682748,0,-0.38921315719980143,0,-1.8561944901923448,1.5707963267948966,-0.03565169498324394,-0.3856693506240845,0.43990281224250793
-0.08696504250664405,-0.07255826218461525,0,1.3820107686444958,0,-0.4350831547943642,0,-0.2732231056672944,0,-1.8561944901923448,1.5707963267948966,-0.09991112351417542,-0.31021326780319214,0.4247220754623413
-0.027075490507290023,0.6458303108232128,0,-0.6468680418843787,0,-0.6510487797241855,0,-0.43329153352172933,0,-1.8561944901923448,1.5707963267948966,-0.09420205652713776,-0.25169751048088074,0.34127938747406006
0.22366987450614378,-0.07077447299402095,0,-0.9285448597460548,0,-0.4109704508187553,0,-0.32531149254096564,0,-1.8561944901923448,1.5707963267948966,-0.08804068714380264,-0.20957507193088531,0.27911949157714844
-0.21915973505210223,-0.23393219241841112,0,-0.9345548985306834,0,-0.18513849877056165,0,-0.4680404923782493,0,-1.8561944901923448,1.5707963267948966,-0.12306960672140121,-1.0667166861821897e-05,0.26612624526023865
-0.12617765324917635,-0.386386305280165,0,1.0367872769618662,0,-0.652386674045563,0,-0.21880364928009205,0,-1.8561944901923448,1.5707963267948966,-0.14223358035087585,0.0010731203947216272,0.27313485741615295
-0.08549761662094837,-0.6734631490337861,0,-1.311839903391661,0,-0.15640415038788813,0,-0.12455312438506416,0,-1.8561944901923448,1.5707963267948966,-0.16148191690444946,-0.018020518124103546,0.2566896975040436
0.20136225552687775,0.7106424922224008,0,1.5117142473441563,0,-0.7738670901286223,0,-0.21699914075697174,0,-1.8561944901923448,1.5707963267948966,-0.18934430181980133,-0.043383050709962845,0.24649463593959808
0.259318320401182,0.20209242861013554,0,-0.36986537831873867,0,-0.1670825514107721,0,-0.49567217699067395,0,-1.8561944901923448,1.5707963267948966,-0.22796370089054108,-0.0666343942284584,0.21838900446891785
0.0008299729269575229,0.6684877776751077,0,-1.097528484424813,0,-0.7194130885244029,0,-0.15002802136686189,0,-1.8561944901923448,1.5707963267948966,-0.2650739550590515,-0.08302433043718338,0.22421851754188538
0.1962681319922281,-0.4225032788418888,0,0.9606513245946986,0,-0.7688798853972483,0,-0.009128320553317026,0,-1.8561944901923448,1.5707963267948966,-0.28936970233917236,-0.08832751959562302,0.24739858508110046
0.1529969708475477,-0.7942945620702115,0,-0.14909824490300383,0,-0.688730556052681,0,-0.03837885028274568,0,-1.8561944901923448,1.5707963267948966,-0.2997106611728668,-0.09796153753995895,0.24536854028701782
0.29956825990707,-0.22611927127590958,0,-0.28616706300016204,0,-0.39575934376867167,0,-0.6319178430670043,0,-1.8561944901923448,1.5707963267948966,-0.3112719655036926,-0.0965203270316124,0.27853643894195557
-0.28002589395991145,-0.30912915093830073,0,-0.05592456073940233,0,-0.5057651430892334,0,-0.17990469741703985,0,-1.8561944901923448,1.5707963267948966,-0.3324233293533325,-0.10943340510129929,0.3259406089782715
-0.17090868472823892,0.42325795078970807,0,1.344027898754732,0,-0.34787813968123427,0,-0.09455133748851163,0,-1.8561944901923448,1.5707963267948966,-0.35047680139541626,-0.11518014222383499,0.373148649930954
0.0723168533179322,-0.1722120358968301,0,-0.11321363584814104,0,-0.39067762262916556,0,-0.000942983355755822,0,-1.8561944901923448,1.5707963267948966,-0.3564625680446625,-0.12701068818569183,0.44527047872543335
0.004761361656374918,0.4379406887683006,0,0.6318394142217776,0,-0.22933267318493245,0,-0.0012496753283193218,0,-1.8561944901923448,1.5707963267948966,-0.07132100313901901,-0.44098031520843506,0.5246298909187317
-0.09663096260995277,-0.5957443668931868,0,1.0323992304544642,0,-0.08162279039215681,0,-0.46071561223378166,0,-1.8561944901923448,1.5707963267948966,-0.021170850843191147,-0.42869672179222107,0.4975808560848236
-0.12492478200348114,-0.3223614352273867,0,0.02561314536093806,0,-0.5067511345208869,0,-0.2242969503557542,0,-1.8561944901923448,1.5707963267948966,-0.27598100900650024,-0.21999594569206238,0.4328044652938843
0.10674580283834834,-0.3004092163188663,0,-1.1973010618464324,0,-0.6095525746820822,0,-0.01508710053683493,0,-1.8561944901923448,1.5707963267948966,-0.28818970918655396,-0.23068679869174957,0.40216243267059326
0.2635940762327696,-0.6194954869934896,0,-0.8638492647384268,0,-0.3717174662221625,0,-0.3927420928134909,0,-1.8561944901923448,1.5707963267948966,-0.2957911789417267,-0.24558375775814056,0.38111796975135803
0.2817316185008874,0.5011032881840931,0,1.2128615479783154,0,-0.3777409257645492,0,-0.14288640285352616,0,-1.8561944901923448,1.5707963267948966,-0.3017324209213257,-0.2494591921567917,0.33754587173461914
0.10536366791413881,0.6430099187511344,0,0.13708736671826705,0,-0.12396454344471253,0,-0.15531206152109556,0,-1.8561944901923448,1.5707963267948966,-0.31207308173179626,-0.2417517900466919,0.30326297879219055
0.22579264404490446,0.4804335384209031,0,1.2856370830922335,0,-0.13694711522988545,0,-0.6006077074087044,0,-1.8561944901923448,1.5707963267948966,-0.3183914124965668,-0.2127971649169922,0.3127525746822357
0.19373868607184264,-0.7422128834185799,0,-1.4683468870141523,0,-0.42020361749899726,0,-0.19946926720837554,0,-1.8561944901923448,1.5707963267948966,-0.31268224120140076,-0.18879549205303192,0.35273000597953796
0.12289679372663043,-0.41963651375134003,0,1.3182773360443285,0,-0.08666141511563985,0,-0.5441254893971824,0,-1.8561944901923448,1.5707963267948966,-0.2925052344799042,-0.18328562378883362,0.41153207421302795
-0.1748485484145556,-0.34530774239983786,0,0.6314179059908969,0,-0.7584407546631018,0,-0.26051427894701623,0,-1.8561944901923448,1.5707963267948966,-0.2571406364440918,-0.19448794424533844,0.48752719163894653
-0.14949940671792586,0.24673084613472573,0,-0.2562441416488974,0,-0.26563150190203255,0,-0.6302282358981914,0,-1.8561944901923448,1.5707963267948966,-0.10472238808870316,-0.6285877823829651,0.47853952646255493
-0.02864449650995543,-0.26655265023616825,0,-0.9824232479357202,0,-0.3684768182732927,0,-0.16074239685080083,0,-1.8561944901923448,1.5707963267948966,-0.08540257066488266,-0.5341779589653015,0.3734980523586273
-0.21279852255820536,-0.6545527378474434,0,-1.0191434185316268,0,-0.6433450677591992,0,-0.37235034644804543,0,-1.8561944901923448,1.5707963267948966,0.23829500377178192,-0.21332865953445435,0.3156086206436157
-0.04828593600706815,0.3909361716111399,0,1.2999358978757836,0,-0.6976055256974739,0,-0.2820581284540877,0,-1.8561944901923448,1.5707963267948966,0.2690831422805786,-0.21070995926856995,0.3954438269138336
-0.03515993347999896,0.07084945672187482,0,1.4170061564082328,0,-0.13407233955832087,0,-0.33990760696880074,0,-1.8561944901923448,1.5707963267948966,0.2852340638637543,-0.22715531289577484,0.4395514726638794
-0.02153255142516619,-0.568003727056288,0,1.0342381497364626,0,-0.7891985522087809,0,-0.55156304300936,0,-1.8561944901923448,1.5707963267948966,0.2985188364982605,-0.2535785436630249,0.5087195634841919
-0.1936011373084211,0.37074498021928504,0,-0.5180401586097176,0,-0.3132421948152324,0,-0.246744723980592,0,-1.8561944901923448,1.5707963267948966,0.2938714027404785,-0.37912264466285706,0.4492453634738922
-0.22271164402203847,-0.10369741761206919,0,0.4740662520255392,0,-0.03640285626386952,0,-0.06836486994555402,0,-1.8561944901923448,1.5707963267948966,0.266060471534729,-0.36535266041755676,0.3746999502182007
-0.29209124618126275,-0.2877135223421551,0,-1.087735428109475,0,-0.07253234097789585,0,-0.25551865801096374,0,-1.8561944901923448,1.5707963267948966,0.22080738842487335,-0.34397244453430176,0.3172729015350342
0.036104601959109694,-0.33615135861634243,0,1.4381794839982343,0,-0.7930637805311687,0,-0.63879491239636,0,-1.8561944901923448,1.5707963267948966,0.16305337846279144,-0.3171035647392273,0.2878592312335968
-0.26284787039238094,-0.24454927843875562,0,-1.42057233964247,0,-0.03471630572646345,0,-0.6342976583785274,0,-1.8561944901923448,1.5707963267948966,0.10201767832040787,-0.3217882812023163,0.27234041690826416
0.1952876396938062,-0.7810006182242571,0,1.1509387858539122,0,-0.20177240864691182,0,-0.25699366087025294,0,-1.8561944901923448,1.5707963267948966,0.03583267703652382,-0.3406011760234833,0.2826211452484131
0.2953049190990999,-0.737765806942673,0,0.09255314235248191,0,-0.7742822998581054,0,-0.18599352829080062,0,-1.8561944901923448,1.5707963267948966,-0.03706557676196098,-0.34434404969215393,0.32614803314208984
-0.2877039201497519,0.19862603598942774,0,1.2199269682667424,0,-0.05824402608892221,0,-0.10425809512520867,0,-1.8561944901923448,1.5707963267948966,-0.11953802406787872,-0.3202041685581207,0.4201229214668274
0.22040659066847618,-0.33053788913809434,0,-1.3018044870693672,0,-0.36166074834770623,0,-0.24209232602097946,0,-1.8561944901923448,1.5707963267948966,-0.1555999219417572,-0.3980565369129181,0.49377068877220154
-0.16673599127026745,0.19651948668136332,0,0.8201631342485056,0,-0.23099030986855373,0,-0.5221834185005145,0,-1.8561944901923448,1.5707963267948966,-0.16137616336345673,-0.37246114015579224,0.44385820627212524
-0.12132648021705111,-0.7663305152117555,0,0.46358824507932406,0,-0.7042686058952256,0,-0.13405966334063613,0,-1.8561944901923448,1.5707963267948966,-0.16622677445411682,-0.3515046238899231,0.37281960248947144
0.1532773755001931,0.16082990517896023,0,0.08574692547897156,0,-0.7161752011757063,0,-0.2525888990987166,0,-1.8561944901923448,1.5707963267948966,-0.16755473613739014,-0.3428714871406555,0.3241801857948303
0.05079033746269457,0.6031707061921083,0,1.2958677371685763,0,-0.1324531918977334,0,-0.21210641734938807,0,-1.8561944901923448,1.5707963267948966,-0.17083194851875305,-0.3358667492866516,0.3031471371650696
0.08356660629254242,0.3448722733684688,0,1.0650726878333634,0,-0.4079458618696026,0,-0.24734176006915493,0,-1.8561944901923448,1.5707963267948966,-0.1699218600988388,-0.3095174729824066,0.32658013701438904
0.29562624761332007,-0.3640701248226288,0,-1.3755280267332362,0,-0.7246796243642457,0,-0.0765151118410462,0,-1.8561944901923448,1.5707963267948966,-0.1566687524318695,-0.2877379357814789,0.37713778018951416
-0.2193079971528205,0.08163348743722276,0,0.023435020550272023,0,-0.24789343658237672,0,-0.18073167747040142,0,-1.8561944901923448,1.5707963267948966,-0.13086038827896118,-0.2804074287414551,0.4304898977279663
0.03370774047709829,0.2390959189982398,0,1.2880344100466123,0,-0.23834526818458313,0,-0.07916621272609325,0,-1.8561944901923448,1.5707963267948966,0.30568036437034607,-0.2475174069404602,0.4775317311286926
-0.24347283193421843,0.38703952204720093,0,0.5178951324247651,0,-0.3019272968607458,0,-0.6633794925549356,0,-1.8561944901923448,1.5707963267948966,0.31000715494155884,-0.18960830569267273,0.41124585270881653
-0.002130221011549638,0.6903173607554227,0,-1.1275072031372981,0,-0.1679418174488222,0,-0.1593850739667575,0,-1.8561944901923448,1.5707963267948966,0.3031393587589264,-0.15735138952732086,0.35947394371032715
-0.22467416914607274,-0.5383825000803746,0,0.22667288849252043,0,-0.1987371078031399,0,-0.5152332172555973,0,-1.8561944901923448,1.5707963267948966,0.3008042275905609,-0.13773441314697266,0.31341874599456787
0.15410616863360932,0.11595214827860334,0,-0.7274889067394271,0,-0.3154354669584068,0,-0.5395804641523658,0,-1.8561944901923448,1.5707963267948966,0.30983904004096985,-0.1275089830160141,0.263241171836853
0.2652166145002179,0.7811923885551888,0,1.4228215664996835,0,-0.442209301043333,0,-0.6994925608542499,0,-1.8561944901923448,1.5707963267948966,0.3186846375465393,-0.1368652880191803,0.23344559967517853
-0.07371200360480715,0.6239217993891406,0,-0.02913500175404482,0,-0.08344336317184553,0,-0.47301630020423324,0,-1.8561944901923448,1.5707963267948966,0.3134367763996124,-0.1218433529138565,0.3050202429294586
-0.2646568250012081,-0.6916356525805848,0,0.3319789674692537,0,-0.2200560143730862,0,-0.4332193175734352,0,-1.8561944901923448,1.5707963267948966,0.2972509562969208,-0.1314392238855362,0.3738080859184265
0.22191862012817992,-0.5022218622828158,0,-0.9354017528377552,0,-0.17515905364988493,0,-0.5049834249008666,0,-1.8561944901923448,1.5707963267948966,0.2811870872974396,-0.15231701731681824,0.46480369567871094
0.23152333359918215,-0.7201507048387376,0,1.2616091546455062,0,-0.7021765580665593,0,-0.5554455336673373,0,-1.8561944901923448,1.5707963267948966,-0.2688387632369995,-0.49192383885383606,0.5177560448646545
-0.04406071263418393,-0.4292377824058667,0,0.8515822273687101,0,-0.7479129942212466,0,-0.18521723458428385,0,-1.8561944901923448,1.5707963267948966,-0.24249367415905,-0.4572591781616211,0.4795464873313904
-0.15443368399954352,0.7236157443510527,0,1.2130473476321484,0,-0.44238633219302526,0,-0.016126647923724535,0,-1.8561944901923448,1.5707963267948966,-0.21695765852928162,-0.4204968214035034,0.48217612504959106
0.07652412675174863,-0.2635602914385279,0,-0.7775200624521281,0,-0.7835648340829079,0,-0.4415196090974928,0,-1.8561944901923448,1.5707963267948966,-0.20189321041107178,-0.38458746671676636,0.5163038372993469
-0.07474492119968898,-0.758495779818677,0,-0.7079987809659508,0,-0.7954804153477063,0,-0.5156127438576225,0,-1.8561944901923448,1.5707963267948966,0.054838962852954865,-0.4992659389972687,0.5119032263755798
-0.09435739816754918,0.5726154312124507,0,-0.6289995177132784,0,-0.5883333017074053,0,-0.0032392260444332743,0,-1.8561944901923448,1.5707963267948966,0.035546839237213135,-0.46134305000305176,0.4566965699195862
-0.08812146938224569,0.22576024569080344,0,-0.04474569247981375,0,-0.011377407490629987,0,-0.30776660282020984,0,-1.8561944901923448,1.5707963267948966,0.013828828930854797,-0.41582152247428894,0.3883782625198364
-0.27738567977720496,-0.14272782252076,0,-1.5318918271102644,0,-0.3066252860686336,0,-0.30921995947451436,0,-1.8561944901923448,1.5707963267948966,-0.003589075291529298,-0.36792898178100586,0.35263606905937195
-0.18666462491528252,0.585369401242773,0,-1.156139182594974,0,-0.3180322060228016,0,-0.6341371532863024,0,-1.8561944901923448,1.5707963267948966,-0.01014027651399374,-0.3364616334438324,0.3207733631134033
0.08520969202050882,0.42728199769369124,0,0.7671934219766312,0,-0.7237345664004091,0,-0.14311583906241632,0,-1.8561944901923448,1.5707963267948966,-0.016132531687617302,-0.32998335361480713,0.24388787150382996
0.22214702302426986,-0.3560556841805962,0,1.511308751447174,0,-0.7274117176536459,0,-0.5881653021679243,0,-1.8561944901923448,1.5707963267948966,-0.032211583107709885,-0.20546872913837433,0.2621202766895294
-0.12547937625033864,0.49103101573538055,0,-1.5553269128570792,0,-0.13159439708938336,0,-0.06067112295302057,0,-1.8561944901923448,1.5707963267948966,-0.0386519618332386,-0.2187652438879013,0.34380605816841125
-0.0707636328849883,-0.14235600440884466,0,-0.04442504479946563,0,-0.4114708548901215,0,-0.12666484024711544,0,-1.8561944901923448,1.5707963267948966,-0.04431765154004097,-0.23682840168476105,0.4357113540172577
0.16980002996600468,0.041820881057173076,0,0.041546251949295065,0,-0.07760130103027552,0,-0.6069426217324687,0,-1.8561944901923448,1.5707963267948966,-0.007910935208201408,-0.26411738991737366,0.504240095615387
-0.17724354138674758,-0.2655716181995764,0,0.8634179093628771,0,-0.063890855895534,0,-0.1186877054797586,0,-1.8561944901923448,1.5707963267948966,0.00712162721902132,-0.24346418678760529,0.48146530985832214
0.01966273174303179,-0.007887007535906876,0,1.0028688734436044,0,-0.3747342567666748,0,-0.6575064151119818,0,-1.8561944901923448,1.5707963267948966,0.023826701566576958,-0.21749596297740936,0.49339956045150757
-0.1207168907545583,0.7662380610269268,0,1.448941018881118,0,-0.11001977288998555,0,-0.336940050885189,0,-1.8561944901923448,1.5707963267948966,-0.25393474102020264,-0.2697276473045349,0.45883604884147644
0.2821032356632332,-0.13820632315574133,0,0.4109216663409052,0,-0.3331767278228166,0,-0.3556525167052043,0,-1.8561944901923448,1.5707963267948966,-0.21771647036075592,-0.25332748889923096,0.4063599705696106
-0.22206596208129054,-0.27299445688514756,0,-1.3098979433012414,0,-0.3062592843542044,0,-0.15254851246497148,0,-1.8561944901923448,1.5707963267948966,-0.17925161123275757,-0.23967649042606354,0.3818541169166565
-0.20485424433767652,-0.3076430487722842,0,-1.4356010017052692,0,-0.5285190456535309,0,-0.5114111310475682,0,-1.8561944901923448,1.5707963267948966,-0.14612163603305817,-0.21838082373142242,0.3762142062187195
0.11222315388830151,-0.03222969739110104,0,0.34496961410854965,0,-0.7581854766020206,0,-0.5731228540082886,0,-1.8561944901923448,1.5707963267948966,-0.1265522539615631,-0.2179260104894638,0.3184031546115875
-0.2553247474260892,-0.06729435767390068,0,0.3986809634464963,0,-0.3013384344966504,0,-0.07191350599982316,0,-1.8561944901923448,1.5707963267948966,-0.0977245569229126,-0.21061015129089355,0.2419087141752243
0.08924466148254317,-0.4405506421321512,0,-0.3867586273211654,0,-0.14147061470684252,0,-0.5743990525049175,0,-1.8561944901923448,1.5707963267948966,-0.11545304954051971,-0.23009584844112396,0.34557729959487915
0.0993454914547765,-0.5490592674093047,0,0.7234530667045322,0,-0.5514626849522017,0,-0.04649035127836387,0,-1.8561944901923448,1.5707963267948966,-0.13199368119239807,-0.2669064700603485,0.4578273892402649
0.004997987945439875,0.33192490895985416,0,0.3861871932879366,0,-0.33600301156982637,0,-0.5921842174265902,0,-1.8561944901923448,1.5707963267948966,-0.18259121477603912,-0.38961413502693176,0.47054779529571533
0.2316487699204866,0.5748793815358082,0,-0.31627923557872095,0,-0.5556081764892385,0,-0.3250100747142646,0,-1.8561944901923448,1.5707963267948966,-0.22963543236255646,-0.35851380228996277,0.43539974093437195
0.09161991073159759,-0.16002495135416572,0,0.9665410961120369,0,-0.41670380084111774,0,-0.1342848925340434,0,-1.8561944901923448,1.5707963267948966,-0.2638997435569763,-0.3412248194217682,0.4208992123603821
0.08348164323425467,0.17670350764616516,0,-1.4328806504516935,0,-0.42293344726279447,0,-0.4635033379012482,0,-1.8561944901923448,1.5707963267948966,-0.2799023687839508,-0.3065441846847534,0.4328421950340271
-0.16997946599133965,-0.7685414191200387,0,-0.6464907874769438,0,-0.1052335927604271,0,-0.2054073794463352,0,-1.8561944901923448,1.5707963267948966,-0.27832064032554626,-0.2864590883255005,0.4468165338039398
0.15954148013013197,0.5852922917653538,0,-1.341079476410816,0,-0.441974718291513,0,-0.3421333383712321,0,-1.8561944901923448,1.5707963267948966,-0.26162245869636536,-0.26667433977127075,0.437056303024292
-0.1337785330717494,0.509160655092251,0,-1.0658173102952495,0,-0.331070549655312,0,-0.04006498157170557,0,-1.8561944901923448,1.5707963267948966,-0.24260997772216797,-0.2506287097930908,0.4296239912509918
-0.2787762498998388,-0.19615093028265806,0,0.7831580040298509,0,-0.7728688587014984,0,-0.4943658101835262,0,-1.8561944901923448,1.5707963267948966,-0.21998128294944763,-0.22382426261901855,0.3904927968978882
-0.29004028784713737,-0.1718583679376351,0,0.12130195919645059,0,-0.314648498833917,0,-0.3400093942932082,0,-1.8561944901923448,1.5707963267948966,-0.18612301349639893,-0.22088637948036194,0.32760950922966003
0.15458493406228174,-0.732056842693131,0,1.0418943103132845,0,-0.433599885825595,0,-0.26792082259070854,0,-1.8561944901923448,1.5707963267948966,-0.15334011614322662,-0.23891040682792664,0.2824512720108032
-0.1062505221577166,0.7295053797931466,0,-0.6557161085068212,0,-0.7941667378082689,0,-0.07472682459089797,0,-1.8561944901923448,1.5707963267948966,-0.13349764049053192,-0.25254249572753906,0.2673410475254059
-0.21082753803024995,-0.2619013063775818,0,0.10666159304267753,0,-0.3111178286063269,0,-0.6262635859511263,0,-1.8561944901923448,1.5707963267948966,-0.12783530354499817,-0.25652647018432617,0.2685014307498932
0.2682283590717765,-0.5667508915203637,0,-0.17421639065910033,0,-0.2575949816207619,0,-0.0165331803974188,0,-1.8561944901923448,1.5707963267948966,-0.12381956726312637,-0.27185121178627014,0.25169864296913147
0.1877059793014667,0.709615668101067,0,0.6045479135541094,0,-0.15469352903265565,0,-0.22103079355217253,0,-1.8561944901923448,1.5707963267948966,-0.12643727660179138,-0.2840728461742401,0.26423490047454834
0.10923771933503273,-0.30936356956380995,0,0.34241948356959484,0,-0.06500940288254231,0,-0.24014042022560877,0,-1.8561944901923448,1.5707963267948966,-0.1400354653596878,-0.27304086089134216,0.31885021924972534
-0.003365135186721324,0.2807973616113357,0,0.8887712806627417,0,-0.3691261546632427,0,-0.09891844420062745,0,-1.8561944901923448,1.5707963267948966,-0.15364688634872437,-0.2626423239707947,0.408627986907959
-0.019727228658091123,0.20199854327788724,0,0.3545694116227429,0,-0.6743453736466912,0,-0.0005458626933723121,0,-1.8561944901923448,1.5707963267948966,-0.20487172901630402,-0.5986059308052063,0.5076824426651001
-0.13055529934416296,-0.5519850709051822,0,0.8992375251464257,0,-0.4949947198929032,0,-0.1870694598222148,0,-1.8561944901923448,1.5707963267948966,-0.19562700390815735,-0.5356183648109436,0.4769797623157501
-0.016879561659516484,0.5963848171690935,0,-0.025636268405581975,0,-0.4537963575351328,0,-0.33115412071706524,0,-1.8561944901923448,1.5707963267948966,-0.17191657423973083,-0.4802548289299011,0.47024285793304443
0.18505556263941203,0.15536410807884027,0,-1.3929958948973922,0,-0.6357521422505923,0,-0.2665114894937962,0,-1.8561944901923448,1.5707963267948966,-0.14595937728881836,-0.44747841358184814,0.47982168197631836
-0.03631197934882452,-0.01335835798506313,0,-1.0548021749471226,0,-0.1388976167916658,0,-0.6885223876597608,0,-1.8561944901923448,1.5707963267948966,-0.11587604880332947,-0.4273654520511627,0.49425259232521057
0.22514069244491236,-0.3152453363643615,0,0.08944183174013576,0,-0.0613726431729551,0,-0.08161904019407729,0,-1.8561944901923448,1.5707963267948966,-0.07666666805744171,-0.39979830384254456,0.4762968420982361
-0.18315634965507166,0.1379991128539544,0,0.15180105203856353,0,-0.5195005730904376,0,-0.12173765501783818,0,-1.8561944901923448,1.5707963267948966,-0.03870084136724472,-0.35296356678009033,0.451156884431839
-0.08626765756557167,0.443418743401899,0,-1.5475739748775983,0,-0.7071711888257489,0,-0.39970013862318116,0,-1.8561944901923448,1.5707963267948966,-0.010046623647212982,-0.29911455512046814,0.4652876555919647
0.24409241726626468,-0.40687033701681286,0,1.0202744930948673,0,-0.29002587972649196,0,-0.20559028290253833,0,-1.8561944901923448,1.5707963267948966,0.01767600327730179,-0.27594098448753357,0.468302458524704
0.11499328957036026,-0.5586693012735146,0,-0.23912117201383198,0,-0.6652217912792919,0,-0.6930390566600508,0,-1.8561944901923448,1.5707963267948966,0.053089678287506104,-0.25472986698150635,0.4462648034095764
-0.29496093712563304,0.7886677226663561,0,0.11357644228829877,0,-0.7923898093083862,0,-0.16565051186172863,0,-1.8561944901923448,1.5707963267948966,0.08676063269376755,-0.2337108850479126,0.4513475298881531
0.09082387876105774,0.014224619850580877,0,0.7089062246678828,0,-0.5097534632985379,0,-0.47772945932110766,0,-1.8561944901923448,1.5707963267948966,0.10974239557981491,-0.23084890842437744,0.4447290599346161
-0.12290686429115294,0.570447510486229,0,-1.5311446714634036,0,-0.4911935099647227,0,-0.5722429882894442,0,-1.8561944901923448,1.5707963267948966,0.13180947303771973,-0.23597438633441925,0.46233120560646057
0.05239337130490962,-0.31983502187572643,0,-1.3371777366490283,0,-0.20869484269840988,0,-0.26764249792405387,0,-1.8561944901923448,1.5707963267948966,0.1508180946111679,-0.25912612676620483,0.48000767827033997
-0.08040394846718035,-0.4576889582891287,0,-0.12984627205667687,0,-0.5370233200726346,0,-0.490522787698896,0,-1.8561944901923448,1.5707963267948966,0.17188791930675507,-0.27335312962532043,0.45879510045051575
-0.03337108576698705,-0.6211173775388605,0,0.21320406642844358,0,-0.5698541244061479,0,-0.006445305846952354,0,-1.8561944901923448,1.5707963267948966,0.18904894590377808,-0.27961885929107666,0.42337846755981445
0.019983624689484114,0.39224510154491044,0,0.047858724053286394,0,-0.7324872152633404,0,-0.3943510394243958,0,-1.8561944901923448,1.5707963267948966,0.19305410981178284,-0.3062276244163513,0.40678834915161133
-0.06785941405534685,-0.6732714629911248,0,0.9860404034485133,0,-0.1011065880953691,0,-0.5134802464217609,0,-1.8561944901923448,1.5707963267948966,0.18294493854045868,-0.3366232216358185,0.4190385043621063
-0.16990259789498155,-0.11038928610927878,0,0.7360226740361671,0,-0.32576032934371624,0,-0.6924348232988281,0,-1.8561944901923448,1.5707963267948966,0.1726057380437851,-0.3645429313182831,0.4593133330345154
-0.10754230440355225,-0.7077473349179546,0,-1.1703591514870728,0,-0.26218946983606906,0,-0.6245158352796906,0,-1.8561944901923448,1.5707963267948966,0.1576276570558548,-0.4112703800201416,0.518773078918457
-0.06804708610787477,0.5909441658622914,0,1.1696655289652682,0,-0.7565417239728567,0,-0.34056630072541305,0,-1.8561944901923448,1.5707963267948966,0.26164305210113525,-0.46145346760749817,0.5297688245773315
0.24624047690062018,-0.44751997187644454,0,-0.6528837285898138,0,-0.534474488945445,0,-0.19820903789125566,0,-1.8561944901923448,1.5707963267948966,0.2800758183002472,-0.4218847453594208,0.5161065459251404
-0.045600448301573726,0.7376612128876421,0,-0.2090510261243259,0,-0.053763429882781155,0,-0.4065234672161134,0,-1.8561944901923448,1.5707963267948966,0.29594144225120544,-0.3909447193145752,0.5083716511726379
-0.24152216837363702,0.03703837060161397,0,-1.094822037906472,0,-0.23753083435092226,0,-0.4964153311230812,0,-1.8561944901923448,1.5707963267948966,0.3096291422843933,-0.3457823693752289,0.4939672350883484
-0.09694170975444846,-0.7478602194570345,0,1.514393066286377,0,-0.5479431994067459,0,-0.4137256598184618,0,-1.8561944901923448,1.5707963267948966,0.32428014278411865,-0.31915703415870667,0.4783194661140442
-0.26222966412277565,-0.09270896220811198,0,-0.4029698061901812,0,-0.3995581249085646,0,-0.6925777521377623,0,-1.8561944901923448,1.5707963267948966,0.3355029821395874,-0.3107278645038605,0.42132657766342163
0.18602272242088408,-0.7960577256517859,0,-1.5668120182396719,0,-0.09367774482453117,0,-0.3185565266706472,0,-1.8561944901923448,1.5707963267948966,0.3340901732444763,-0.32436424493789673,0.3820938766002655
0.06968816616275253,0.4846779089177946,0,0.4143530220697742,0,-0.008048142087430987,0,-0.4124645704937702,0,-1.8561944901923448,1.5707963267948966,0.3183751702308655,-0.3349047303199768,0.3571850061416626
0.017909840926356058,-0.3987908333754808,0,-1.2082869589685925,0,-0.4811997020936465,0,-0.05515029634810642,0,-1.8561944901923448,1.5707963267948966,0.2897813320159912,-0.32108792662620544,0.326823353767395
-0.1582642186484859,0.16120926932420176,0,0.17488515426891782,0,-0.15161168477203102,0,-0.5477196203077334,0,-1.8561944901923448,1.5707963267948966,0.2593986988067627,-0.29449743032455444,0.3171854317188263
0.02992262450310529,-0.06621604080495158,0,0.5307600849191023,0,-0.11568235226357859,0,-0.5757609480936642,0,-1.8561944901923448,1.5707963267948966,0.22702299058437347,-0.2697339355945587,0.289292573928833
-0.05756781086851184,0.3495577210898133,0,-0.8761967664404777,0,-0.5504853966374634,0,-0.34564537852116095,0,-1.8561944901923448,1.5707963267948966,0.19604608416557312,-0.2602360248565674,0.28355419635772705
-0.20913927604194898,0.10199206923320836,0,0.4002197062069921,0,-0.7974764162159783,0,-0.677026830526754,0,-1.8561944901923448,1.5707963267948966,0.16437554359436035,-0.25569531321525574,0.2849240303039551
0.1900227792479448,-0.3462175026482413,0,-0.20320650594814826,0,-0.23148974216284957,0,-0.32455233660485405,0,-1.8561944901923448,1.5707963267948966,0.1179637536406517,-0.27741992473602295,0.3567456007003784
-0.27283299078263334,0.39753599713377286,0,-1.0521325075693482,0,-0.5558514535776427,0,-0.4536469546759977,0,-1.8561944901923448,1.5707963267948966,0.11590453237295151,-0.2687949240207672,0.4396945536136627
0.22603456654735893,0.37053970179812246,0,-0.7461974230859194,0,-0.5629830098802204,0,-0.06579279751768541,0,-1.8561944901923448,1.5707963267948966,0.1081586703658104,-0.2650972604751587,0.48660123348236084
-0.017678090830569426,0.011325342014142925,0,-0.9158975679478154,0,-0.751680216832886,0,-0.5759682900213586,0,-1.8561944901923448,1.5707963267948966,0.10304777324199677,-0.2634858191013336,0.48632264137268066
0.05955512106025007,0.35139274555553235,0,0.7193435653205884,0,-0.4166015067560527,0,-0.5615819895429968,0,-1.8561944901923448,1.5707963267948966,0.10818031430244446,-0.25845572352409363,0.4492695927619934
-0.17245056250399451,0.375135344721921,0,-1.154383706253312,0,-0.49989940958267925,0,-0.45790288490108166,0,-1.8561944901923448,1.5707963267948966,0.11424142122268677,-0.2587044835090637,0.39092063903808594
-0.09702688648303492,0.030144567908170883,0,0.2536069883789145,0,-0.6281073013625499,0,-0.5935413179640885,0,-1.8561944901923448,1.5707963267948966,0.12547408044338226,-0.2540203630924225,0.35220447182655334
0.29254379829372873,0.022290631602025934,0,1.2516201018889395,0,-0.2458454924416985,0,-0.409905781094302,0,-1.8561944901923448,1.5707963267948966,0.22846446931362152,-0.344817578792572,0.3386267423629761
0.1731858701545375,-0.586360423094448,0,-0.35365952523087874,0,-0.4828135892211754,0,-0.6064127594122822,0,-1.8561944901923448,1.5707963267948966,0.23070551455020905,-0.39230260252952576,0.41788890957832336
0.15914714722547352,0.4384750325971829,0,0.632493318730313,0,-0.31048333268048006,0,-0.02870825746125638,0,-1.8561944901923448,1.5707963267948966,0.2205461859703064,-0.4381694197654724,0.5169200301170349
-0.12483622767623673,0.05992248386679022,0,1.2950209294630297,0,-0.5111720634159723,0,-0.03195889238650218,0,-1.8561944901923448,1.5707963267948966,-0.22043563425540924,-0.1530553698539734,0.45398589968681335
0.008963399890584534,-0.11847421916099543,0,-0.03564359221492741,0,-0.3024103136028477,0,-0.3495337762476291,0,-1.8561944901923448,1.5707963267948966,-0.21711663901805878,-0.12384233623743057,0.4001607894897461
0.1968859767301906,-0.07265857933840625,0,0.9523760424611845,0,-0.6832057984149341,0,-0.6074267405733753,0,-1.8561944901923448,1.5707963267948966,-0.20831821858882904,-0.11827939748764038,0.3608885407447815
-0.16736589535964122,0.3451526140365391,0,0.6296671288888431,0,-0.43790751735740874,0,-0.5585425345028588,0,-1.8561944901923448,1.5707963267948966,-0.1927431970834732,-0.1355213224887848,0.339543879032135
0.268582414987589,-0.7776928274562986,0,1.3041308624480337,0,-0.20002218584530895,0,-0.45760518857744026,0,-1.8561944901923448,1.5707963267948966,-0.17081275582313538,-0.15125760436058044,0.35138562321662903
0.29840152179623963,-0.12015978617552925,0,1.0425437436063283,0,-0.39955745954827426,0,-0.5969812649529607,0,-1.8561944901923448,1.5707963267948966,-0.14053553342819214,-0.1614832580089569,0.3951232135295868
-0.10001258183202408,0.278154564256772,0,1.1467449994110543,0,-0.5160607097854397,0,-0.5054550927809078,0,-1.8561944901923448,1.5707963267948966,-0.1128828376531601,-0.17406271398067474,0.4691462218761444
0.26886971053376746,-0.34878736560422363,0,0.40700680657447363,0,-0.39209428951517905,0,-0.18478076236686336,0,-1.8561944901923448,1.5707963267948966,0.32419562339782715,-0.3285461962223053,0.49535438418388367
-0.22488661627206696,0.5877197588012442,0,-0.37224661280151383,0,-0.5434301791115961,0,-0.07056443413126079,0,-1.8561944901923448,1.5707963267948966,0.33356010913848877,-0.2941701412200928,0.41923412680625916
-0.1587637725800541,0.058216455603728234,0,0.3715905936223849,0,-0.28224798399111684,0,-0.04210428340515482,0,-1.8561944901923448,1.5707963267948966,0.3320123851299286,-0.25241267681121826,0.38284096121788025
-0.026256089521771886,0.2617260400618002,0,0.8931271476465543,0,-0.10828245387749902,0,-0.028776633424074993,0,-1.8561944901923448,1.5707963267948966,0.3299081325531006,-0.22192442417144775,0.36739858984947205
0.1341520998103296,-0.05970458554695168,0,-0.8582376303461837,0,-0.2060420926605534,0,-0.33141303090559626,0,-1.8561944901923448,1.5707963267948966,0.32379111647605896,-0.2019565999507904,0.37537598609924316
0.1698155630781089,-0.3595807906400101,0,-0.7091699439951559,0,-0.7856563086799184,0,-0.6916478596083682,0,-1.8561944901923448,1.5707963267948966,0.3124055564403534,-0.19568076729774475,0.3888963758945465
0.06657993326478784,0.48425947735966113,0,-0.5975222337523736,0,-0.0576262173075619,0,-0.683519532569608,0,-1.8561944901923448,1.5707963267948966,0.2926079034805298,-0.19860078394412994,0.36150211095809937
0.1753833209835498,-0.729799671908931,0,-0.10508565658653168,0,-0.38580471121219784,0,-0.11842588652194985,0,-1.8561944901923448,1.5707963267948966,0.26050907373428345,-0.19812911748886108,0.32080087065696716
0.07092479442646005,-0.43984861235300876,0,-0.9789234581365709,0,-0.5045771047923917,0,-0.026625082350770102,0,-1.8561944901923448,1.5707963267948966,0.22694474458694458,-0.17901913821697235,0.31665652990341187
0.18297990880491027,0.5628201553487098,0,0.7443962036203211,0,-0.5622882457553442,0,-0.15151927381554997,0,-1.8561944901923448,1.5707963267948966,0.18927977979183197,-0.15002547204494476,0.3284797966480255
-0.06051324622861359,-0.024412091449328543,0,1.4295816283163498,0,-0.32632288466012044,0,-0.6596602917790173,0,-1.8561944901923448,1.5707963267948966,0.1420440971851349,-0.128041073679924,0.31535083055496216
0.15968234276312304,0.6027522495289532,0,-0.8679337845973905,0,-0.7750787779659145,0,-0.09666686150880832,0,-1.8561944901923448,1.5707963267948966,0.09557604789733887,-0.12198018282651901,0.3252030313014984
-0.11971540990137328,-0.09785026028726418,0,0.330955700457056,0,-0.06180715659225078,0,-0.055922171174404456,0,-1.8561944901923448,1.5707963267948966,0.06119132786989212,-0.12492555379867554,0.34010621905326843
0.045620505798422306,-0.4908337500212765,0,-0.5621389274348665,0,-0.5341045858381724,0,-0.07776958942253476,0,-1.8561944901923448,1.5707963267948966,0.041026417165994644,-0.10833491384983063,0.34439918398857117
0.16456746369877595,0.7350282934033323,0,0.369958888665163,0,-0.3390675508409075,0,-0.699952889489518,0,-1.8561944901923448,1.5707963267948966,0.020615968853235245,-0.10319416970014572,0.36176127195358276
-0.22961195010245322,0.3182064848771011,0,0.4398037939405959,0,-0.259580625985546,0,-0.51576763792176,0,-1.8561944901923448,1.5707963267948966,-0.009125112555921078,-0.11936844885349274,0.369393527507782
-0.058777588607681175,0.4561767957287619,0,-0.6481814217694095,0,-0.4097419651968481,0,-0.17081672493509814,0,-1.8561944901923448,1.5707963267948966,-0.03710256144404411,-0.14435897767543793,0.40360456705093384
0.2193234697774749,-0.025699452576583903,0,1.1879342473331995,0,-0.13686046318030398,0,-0.0670883130914619,0,-1.8561944901923448,1.5707963267948966,-0.05372224375605583,-0.17014534771442413,0.44544103741645813
0.09851952736786157,-0.47001749074901655,0,1.103944798710923,0,-0.2617432922719116,0,-0.5548740010858366,0,-1.8561944901923448,1.5707963267948966,0.2730843424797058,-0.36045706272125244,0.5201812386512756
0.10114577526170421,-0.7198065841865999,0,0.46121897473570694,0,-0.23437000237284267,0,-0.6520539951737454,0,-1.8561944901923448,1.5707963267948966,0.2741539478302002,-0.37182262539863586,0.5219838619232178
0.27786671451232686,-0.7426696378819021,0,1.4446874286368896,0,-0.4146973859179913,0,-0.3410917758154593,0,-1.8561944901923448,1.5707963267948966,0.18135826289653778,-0.39705777168273926,0.5012834072113037
-0.11824784468349156,0.6206208031521199,0,-0.14010969904446857,0,-0.6722681339688069,0,-0.11023020153366037,0,-1.8561944901923448,1.5707963267948966,0.202052041888237,-0.35946711897850037,0.4392966330051422
-0.11484065012033837,-0.17455835459672753,0,0.7236949079540334,0,-0.0633804380134888,0,-0.1857780931417914,0,-1.8561944901923448,1.5707963267948966,0.22087736427783966,-0.3087453842163086,0.42194515466690063
-0.23700124476538276,0.38986590684186107,0,0.37862301767341555,0,-0.27488286865166534,0,-0.29420951130896306,0,-1.8561944901923448,1.5707963267948966,0.2418164163827896,-0.2669696509838104,0.4290120005607605
0.01120952896894456,-0.7149883257044367,0,-0.20706936179393964,0,-0.26922637659865567,0,-0.3624814958099323,0,-1.8561944901923448,1.5707963267948966,0.2602614164352417,-0.24335651099681854,0.4559447467327118
0.2755967500865471,-0.30752839633973506,0,0.9635817184753184,0,-0.6439377929365082,0,-0.09068719806271885,0,-1.8561944901923448,1.5707963267948966,0.2804029583930969,-0.24381208419799805,0.49690333008766174
-0.11668914181708748,0.783086048204781,0,1.0786195984327427,0,-0.5394830627009194,0,-0.500767778104292,0,-1.8561944901923448,1.5707963267948966,-0.10297045111656189,-0.2549510598182678,0.47271427512168884
0.19924900138839036,-0.7746035245367704,0,0.588071750399402,0,-0.2627380440446214,0,-0.2204150814066188,0,-1.8561944901923448,1.5707963267948966,-0.1488027572631836,-0.22640040516853333,0.39963099360466003
-0.23544955463850742,0.5766527737840621,0,-0.5987576914003677,0,-0.21230797295411574,0,-0.48005619181516945,0,-1.8561944901923448,1.5707963267948966,-0.18417102098464966,-0.19775927066802979,0.3591291904449463
-0.04998988811679067,-0.4879434030733725,0,0.8075303295060228,0,-0.793947800912946,0,-0.0011052252775161087,0,-1.8561944901923448,1.5707963267948966,-0.21835127472877502,-0.16184677183628082,0.3568952679634094
-0.20562857930392087,0.13885554480742512,0,-0.1269086982190828,0,-0.44353530203879815,0,-0.36489633807078337,0,-1.8561944901923448,1.5707963267948966,-0.24860453605651855,-0.1407591998577118,0.36361297965049744
-0.15776371204201903,0.6685108958402535,0,-0.25243734808272755,0,-0.06398783353015491,0,-0.5608260523214821,0,-1.8561944901923448,1.5707963267948966,-0.2805510461330414,-0.13429459929466248,0.38917237520217896
-0.055467142920473056,0.3473382643766745,0,1.3082782420398948,0,-0.047402126385448606,0,-0.24277752025272714,0,-1.8561944901923448,1.5707963267948966,-0.3077511489391327,-0.14965854585170746,0.4339863657951355
-0.27984102464553245,0.5032628130244103,0,-0.44097608596193916,0,-0.770142770329996,0,-0.2621642001411112,0,-1.8561944901923448,1.5707963267948966,-0.32233572006225586,-0.1712481528520584,0.49545496702194214
-0.010441415310754099,0.7012743891795703,0,-0.3804556428780841,0,-0.5889837848371017,0,-0.45047111362853187,0,-1.8561944901923448,1.5707963267948966,0.12881061434745789,-0.35714882612228394,0.46427589654922485
-0.10137175289251177,0.05646365758576233,0,-0.3369690738299165,0,-0.16704076228488351,0,-0.012415387536769962,0,-1.8561944901923448,1.5707963267948966,0.10547251999378204,-0.32406023144721985,0.4065038561820984
0.20950818799319332,-0.6832346645031251,0,1.4604924972918156,0,-0.3919654022144228,0,-0.5401231697928593,0,-1.8561944901923448,1.5707963267948966,0.08804458379745483,-0.29919663071632385,0.37410253286361694
-0.25993336379196663,-0.1522105939538665,0,0.8435931796576797,0,-0.14287675581506476,0,-0.05015007609320443,0,-1.8561944901923448,1.5707963267948966,0.07556955516338348,-0.2836070656776428,0.36690226197242737
0.2035491816882407,0.20374250229116075,0,-0.5443520929132724,0,-0.003325368446974619,0,-0.1343074027703366,0,-1.8561944901923448,1.5707963267948966,0.05821319296956062,-0.26259902119636536,0.3958519697189331
0.2610749859473413,-0.13547301246998644,0,0.4191789167954054,0,-0.4598974106781369,0,-0.5874148932297714,0,-1.8561944901923448,1.5707963267948966,-0.08133740723133087,-0.4158558249473572,0.5096006393432617
0.28181964404321763,-0.3416349534150511,0,0.1283911428569151,0,-0.461628722335837,0,-0.6233659229655906,0,-1.8561944901923448,1.5707963267948966,0.13079464435577393,-0.22647956013679504,0.5183082818984985
-0.042822908419334005,-0.49181224028055903,0,0.1314203899010733,0,-0.11623632171640874,0,-0.15714343611770465,0,-1.8561944901923448,1.5707963267948966,0.1383768916130066,-0.22538667917251587,0.4923214018344879
0.10610858824873487,-0.2896874079165205,0,-1.1303591859015174,0,-0.12740511068364269,0,-0.08807479745642421,0,-1.8561944901923448,1.5707963267948966,0.1331726759672165,-0.2108398675918579,0.5148861408233643
-0.053196484233929336,-0.756306315466712,0,-1.2210324350219257,0,-0.0674142901705117,0,-0.48661734508289745,0,-1.8561944901923448,1.5707963267948966,0.05953795090317726,-0.2962729334831238,0.5007302165031433
0.16365965461727933,0.5321458758641096,0,-0.16503800261899326,0,-0.6828332879454857,0,-0.07145167041763778,0,-1.8561944901923448,1.5707963267948966,0.06507643312215805,-0.25818637013435364,0.41578245162963867
0.03621424257989814,-0.46124767839986963,0,0.38080242957373867,0,-0.2429558114208844,0,-0.1895467762100539,0,-1.8561944901923448,1.5707963267948966,0.059241849929094315,-0.21892333030700684,0.3365623354911804
0.2116409828896671,-0.7866922516258659,0,0.3321754712625906,0,-0.14894503802942172,0,-0.14811210935041785,0,-1.8561944901923448,1.5707963267948966,0.05148489028215408,-0.17144110798835754,0.2934931218624115
0.1050445984958584,-0.494025419860942,0,-0.7119566214298696,0,-0.11082790147051502,0,-0.017195538007693023,0,-1.8561944901923448,1.5707963267948966,0.038401007652282715,-0.12738823890686035,0.2777906060218811
0.23896958425385256,-0.37971569603809674,0,-1.408567719217854,0,-0.46499838146025435,0,-0.3032532012728349,0,-1.8561944901923448,1.5707963267948966,0.012847045436501503,-0.08111883699893951,0.2924906015396118
-0.24622124678463506,-0.29074539836675495,0,1.211194480909639,0,-0.08727161215132861,0,-0.4221037294323238,0,-1.8561944901923448,1.5707963267948966,-0.027136998251080513,-0.05621861293911934,0.3074042499065399
0.05115167032764861,0.20052955748571977,0,-0.529970710672212,0,-0.004629678814524363,0,-0.4420751119332456,0,-1.8561944901923448,1.5707963267948966,-0.08009666204452515,-0.03797003626823425,0.2992078959941864
-0.20435079569093156,-0.3408085961768246,0,0.8871456298837495,0,-0.4067487559934051,0,-0.29271371333989454,0,-1.8561944901923448,1.5707963267948966,-0.13502760231494904,-0.029415857046842575,0.31216877698898315
-0.08611079484025186,0.3455778585591436,0,-1.0805398872073417,0,-0.21788911712286718,0,-0.5423956951762752,0,-1.8561944901923448,1.5707963267948966,-0.18041276931762695,-0.035943470895290375,0.3429630696773529
0.28644657717909533,0.6547740843191601,0,1.056478609323416,0,-0.4330341038898379,0,-0.023545220195944405,0,-1.8561944901923448,1.5707963267948966,-0.21852755546569824,-0.06079909950494766,0.37361940741539
-0.29379439279693403,0.34324245798402786,0,0.3751675914879231,0,-0.4453277890644059,0,-0.5124585120165148,0,-1.8561944901923448,1.5707963267948966,-0.24520933628082275,-0.09937676787376404,0.35639479756355286
0.23074981992431937,0.04383982379967488,0,-1.3985855728801075,0,-0.5220354005210195,0,-0.48683107344322046,0,-1.8561944901923448,1.5707963267948966,-0.2568555772304535,-0.13961699604988098,0.31830570101737976
0.07760034983241221,0.08136022071030635,0,1.2400298483091197,0,-0.7055523913807629,0,-0.595597166463997,0,-1.8561944901923448,1.5707963267948966,-0.25138166546821594,-0.18840233981609344,0.28764694929122925
0.19375145701277507,-0.5803152608800517,0,0.3559002398570177,0,-0.07745112735751847,0,-0.2550605959978303,0,-1.8561944901923448,1.5707963267948966,-0.09535691142082214,-0.2585728168487549,0.31283965706825256
0.0344588567877413,0.03876973256397087,0,-0.5689142475259006,0,-0.21259191831709778,0,-0.6669002561860147,0,-1.8561944901923448,1.5707963267948966,-0.05234891548752785,-0.2437071055173874,0.3483985960483551
0.00042555984898884347,0.02395628902389879,0,1.3695932894685017,0,-0.5262212632605621,0,-0.016275122896169836,0,-1.8561944901923448,1.5707963267948966,-0.014476330950856209,-0.2345379739999771,0.39959684014320374
-0.2143995890818382,0.5932128677913164,0,-0.03923145789306903,0,-0.23857601038976384,0,-0.6303112640139685,0,-1.8561944901923448,1.5707963267948966,0.010160272009670734,-0.23573127388954163,0.41770613193511963
0.26695718972535093,-0.26781483819428853,0,-0.14715358249194233,0,-0.4934249284480626,0,-0.07235542625916502,0,-1.8561944901923448,1.5707963267948966,0.023729627951979637,-0.2573757469654083,0.4529659152030945
-0.10727772883220754,0.6138729755545347,0,-1.330266670155894,0,-0.6081639276243109,0,-0.4026955521031794,0,-1.8561944901923448,1.5707963267948966,0.03772447258234024,-0.2876540720462799,0.49887675046920776
0.07225343346570856,-0.23180204576993213,0,-0.5238551663615327,0,-0.3601469394592487,0,-0.1559515898750483,0,-1.8561944901923448,1.5707963267948966,0.0644664391875267,-0.34751251339912415,0.5088587999343872
0.07030372402000695,0.5461901615365445,0,-0.4016208835525181,0,-0.3481948664075761,0,-0.3516023302229969,0,-1.8561944901923448,1.5707963267948966,0.08996180444955826,-0.3833998143672943,0.5109623670578003
-0.04428928225350737,0.611193960904588,0,0.7579931016416239,0,-0.21716895181053852,0,-0.49968454982226923,0,-1.8561944901923448,1.5707963267948966,0.14694653451442719,-0.40467360615730286,0.5008589625358582
-0.2835242631836669,-0.03790717442455216,0,-0.6416256913165531,0,-0.37901936109629664,0,-0.05857848806423782,0,-1.8561944901923448,1.5707963267948966,0.18045306205749512,-0.39964425563812256,0.4845864772796631
0.16959449752562655,0.1050292059942105,0,0.6616141465503929,0,-0.677134630051067,0,-0.4516135151735269,0,-1.8561944901923448,1.5707963267948966,0.21988648176193237,-0.3894899785518646,0.486685574054718
0.03072351928303707,-0.12386760427489862,0,-1.5649123642096812,0,-0.5945182258842441,0,-0.004443830095520962,0,-1.8561944901923448,1.5707963267948966,0.2572110891342163,-0.39338919520378113,0.4743066728115082
0.2330334722675958,0.7363841752121174,0,1.1166800960730825,0,-0.5317692861669387,0,-0.46417559822651056,0,-1.8561944901923448,1.5707963267948966,0.28223058581352234,-0.388508141040802,0.4882884919643402
-0.21017375112466846,-0.7673018300429334,0,0.9548420094994894,0,-0.5447302737766593,0,-0.6485262891313444,0,-1.8561944901923448,1.5707963267948966,0.004762773402035236,-0.28021836280822754,0.46547919511795044
-0.08675004236268499,0.17058544628402306,0,-0.7247296735317665,0,-0.6867060011742692,0,-0.26533292731588437,0,-1.8561944901923448,1.5707963267948966,-0.031640131026506424,-0.2933782637119293,0.4280124306678772
-0.157248590685676,-0.2806564023640279,0,-0.08457056780714933,0,-0.4608658309657985,0,-0.27581765079743076,0,-1.8561944901923448,1.5707963267948966,-0.06434723734855652,-0.3073485791683197,0.40091174840927124
0.11395850692169857,0.5063604268935558,0,-1.1017008939324515,0,-0.16998826118893917,0,-0.01876889959822725,0,-1.8561944901923448,1.5707963267948966,-0.09234140813350677,-0.3061245083808899,0.36236125230789185
0.08164224744328769,0.462966389803696,0,1.1474132904297427,0,-0.47496954937368296,0,-0.0933949464066316,0,-1.8561944901923448,1.5707963267948966,-0.12155727297067642,-0.3003021776676178,0.3383476138114929
0.11975391920917855,0.02162076676749325,0,-0.9702690435487326,0,-0.026002942409715568,0,-0.4814722308641371,0,-1.8561944901923448,1.5707963267948966,-0.14618481695652008,-0.2801285684108734,0.30935803055763245
-0.18148871489498147,-0.681473260477508,0,1.4141228562694987,0,-0.6549061046731586,0,-0.11871161572640399,0,-1.8561944901923448,1.5707963267948966,-0.15832577645778656,-0.2579347491264343,0.3002469539642334
0.14165697700948265,-0.0960284235503559,0,-1.44753949812331,0,-0.4915700999995104,0,-0.10366236031539389,0,-1.8561944901923448,1.5707963267948966,-0.15757250785827637,-0.2340291291475296,0.2836196720600128
-0.29686074418939656,-0.14371981032880732,0,-1.2201764503388999,0,-0.08075634402979248,0,-0.4735709940337645,0,-1.8561944901923448,1.5707963267948966,-0.15551333129405975,-0.21450012922286987,0.27379482984542847
0.2241536138506341,-0.5582391322726905,0,0.8230942457901329,0,-0.00989710819020051,0,-0.6430200868605201,0,-1.8561944901923448,1.5707963267948966,-0.15169459581375122,-0.18782049417495728,0.23452945053577423
0.2545047697712271,-0.16366747051031683,0,0.8832255962083493,0,-0.6326964439171359,0,-0.25291903173045593,0,-1.8561944901923448,1.5707963267948966,-0.149191215634346,-0.17876869440078735,0.18639929592609406
0.21958769008230267,-0.2200548509151451,0,0.5883284427399955,0,-0.4570686705601612,0,-0.058750409159359585,0,-1.8561944901923448,1.5707963267948966,0.029727034270763397,-0.020174207165837288,0.2431393712759018
-0.0767855109482109,-0.3803491676639958,0,0.16514853513154026,0,-0.061265381229921534,0,-0.6824153035410455,0,-1.8561944901923448,1.5707963267948966,0.03334330767393112,-0.025635570287704468,0.31978097558021545
-0.15665261724406246,-0.2877471169620959,0,1.5406591777188687,0,-0.3232257825356589,0,-0.23018816957158295,0,-1.8561944901923448,1.5707963267948966,0.0210566446185112,-0.05762775242328644,0.41507992148399353
0.013391438145949508,0.24553362875376172,0,1.082526978875038,0,-0.7949410093095748,0,-0.09549071789175789,0,-1.8561944901923448,1.5707963267948966,-0.45863041281700134,-0.219119593501091,0.462974488735199
0.06235257790126586,0.5362337911608976,0,-0.4778703449436077,0,-0.40574274343888217,0,-0.25779576116935937,0,-1.8561944901923448,1.5707963267948966,-0.4173658788204193,-0.19344179332256317,0.4075046181678772
0.16131605101424246,-0.5082842574442623,0,-1.1246448886109595,0,-0.31820247880760394,0,-0.6460205901987427,0,-1.8561944901923448,1.5707963267948966,-0.28858205676078796,-0.17570574581623077,0.36455869674682617
-0.017039881795331446,-0.3161119113183377,0,-1.3405886871936428,0,-0.5276651210545422,0,-0.6761046507270373,0,-1.8561944901923448,1.5707963267948966,-0.20099838078022003,-0.18136759102344513,0.37263941764831543
-0.18831754472677198,0.15591385439101446,0,0.8436584482946574,0,-0.27879158767526235,0,-0.3674538955414341,0,-1.8561944901923448,1.5707963267948966,-0.10204585641622543,-0.19789482653141022,0.36648324131965637
-0.22163520102562334,0.3755018969572683,0,-0.6712106520281834,0,-0.1740025169259345,0,-0.03158176792444645,0,-1.8561944901923448,1.5707963267948966,-0.006938303355127573,-0.21597164869308472,0.3365173637866974
-0.13463098433532053,-0.2004385528217253,0,-0.5737345802752051,0,-0.2679537537500236,0,-0.08148068396833386,0,-1.8561944901923448,1.5707963267948966,0.07658334076404572,-0.2284424751996994,0.3354545831680298
-0.23937233569667993,0.6048219623033579,0,-0.9237893086191058,0,-0.6716837989832116,0,-0.5174988286296774,0,-1.8561944901923448,1.5707963267948966,0.14735844731330872,-0.24646827578544617,0.3556056022644043
-0.2721064570222375,0.7988176281000976,0,-0.9588856645470374,0,-0.08918914733112682,0,-0.49319434414954466,0,-1.8561944901923448,1.5707963267948966,0.20427978038787842,-0.2776855528354645,0.360843300819397
-0.10910126189791267,0.5419032164853959,0,-1.0036525440512936,0,-0.29900051715440534,0,-0.6432555327734524,0,-1.8561944901923448,1.5707963267948966,0.2616944909095764,-0.3177555203437805,0.32475897669792175
0.1377062345221428,0.40287143632284894,0,0.7592787676160007,0,-0.5807264593293213,0,-0.44522514853394396,0,-1.8561944901923448,1.5707963267948966,0.3277180790901184,-0.3417484760284424,0.2819194793701172
0.1411981500970766,0.4489473981624248,0,-0.6341801905210613,0,-0.3869051428127396,0,-0.43785553169515007,0,-1.8561944901923448,1.5707963267948966,0.5139709711074829,-0.3177254796028137,0.2746662199497223
-0.16628285882071622,-0.5312794658626272,0,1.0831418569828695,0,-0.07311130681057654,0,-0.39739151701830294,0,-1.8561944901923448,1.5707963267948966,0.5096357464790344,-0.2815055847167969,0.28768306970596313
-0.12755953823020919,-0.421026567512868,0,-0.17684790877000944,0,-0.6173556384458849,0,-0.4114481092829317,0,-1.8561944901923448,1.5707963267948966,0.49906715750694275,-0.24746018648147583,0.2976537346839905
-0.18414124674530563,0.3458006172133241,0,-0.9472322573295135,0,-0.6240921865000071,0,-0.4024515651607272,0,-1.8561944901923448,1.5707963267948966,0.4785340130329132,-0.2310722917318344,0.32472217082977295
0.12007280238520368,0.7612948532906247,0,0.6817276597366835,0,-0.25556441346834613,0,-0.27956515274498367,0,-1.8561944901923448,1.5707963267948966,0.4475177824497223,-0.2358473837375641,0.34680408239364624
-0.02068662964120005,-0.5550813831689116,0,-1.156647578244654,0,-0.3284430562251934,0,-0.3788358720422955,0,-1.8561944901923448,1.5707963267948966,0.41983336210250854,-0.2343011349439621,0.34920355677604675
0.26029232562575294,-0.25242226552111546,0,1.0962696507963132,0,-0.24243543400163625,0,-0.2891676409011408,0,-1.8561944901923448,1.5707963267948966,0.4020862579345703,-0.22337475419044495,0.37298694252967834
0.23713924416321447,-0.48370169378220657,0,1.5189246637077893,0,-0.2002947392535317,0,-0.16585292013703856,0,-1.8561944901923448,1.5707963267948966,0.38411426544189453,-0.2183588445186615,0.37121954560279846
0.04224489273026155,-0.7662145756550807,0,1.5658906685484095,0,-0.28875354420783894,0,-0.07911008462949998,0,-1.8561944901923448,1.5707963267948966,0.35494670271873474,-0.19770526885986328,0.41399458050727844
-0.03415100739710886,0.5423043110447432,0,0.33972601725649776,0,-0.06198056075010472,0,-0.4927311651409319,0,-1.8561944901923448,1.5707963267948966,0.2193893939256668,-0.40348246693611145,0.4973421096801758
-0.19170275185455038,0.600571208306536,0,-1.2472144462113715,0,-0.4934729841324808,0,-0.21875813720148124,0,-1.8561944901923448,1.5707963267948966,0.18848556280136108,-0.3571547567844391,0.4799792766571045
0.18225605182417115,-0.3136263344829292,0,-0.3980139554303772,0,-0.6430665162289569,0,-0.4955225657999427,0,-1.8561944901923448,1.5707963267948966,0.163782000541687,-0.3274194598197937,0.4601086974143982
0.12088660212025043,0.1306174791184198,0,0.5605877493116922,0,-0.087701295132949,0,-0.49623738082888574,0,-1.8561944901923448,1.5707963267948966,0.15216878056526184,-0.3130354881286621,0.404526948928833
-0.15271458868985832,0.3421566123930244,0,1.2789636107647007,0,-0.33461981589085854,0,-0.6437139297465333,0,-1.8561944901923448,1.5707963267948966,0.14283987879753113,-0.292462557554245,0.3885444104671478
0.1090034050796338,0.6827421318418123,0,-0.5964876918475654,0,-0.019990585469456756,0,-0.6166049149590567,0,-1.8561944901923448,1.5707963267948966,0.13690786063671112,-0.2730151414871216,0.4033013582229614
-0.26764955216197117,-0.24644714379505894,0,0.04341161725793663,0,-0.4987555069139042,0,-0.4920413847144699,0,-1.8561944901923448,1.5707963267948966,0.1416744440793991,-0.2624531090259552,0.4246032238006592
-0.014904246578030023,0.7844384267171927,0,1.161755074621722,0,-0.06772571922858028,0,-0.2506353792373927,0,-1.8561944901923448,1.5707963267948966,0.15932026505470276,-0.2543296813964844,0.4364805817604065
0.25270467721618034,-0.7542249603358142,0,-0.16752812050401622,0,-0.7016751594448906,0,-0.5027226724940764,0,-1.8561944901923448,1.5707963267948966,0.17850059270858765,-0.2535127103328705,0.47108328342437744
-0.2627597140191551,0.21218932311108452,0,-0.15867714275687317,0,-0.2508966534420999,0,-0.029379265837929158,0,-1.8561944901923448,1.5707963267948966,0.20026955008506775,-0.2658092975616455,0.5096786022186279
-0.0065681476803090555,0.6666802836466519,0,-0.08168567236988844,0,-0.7813619386544626,0,-0.4871333704900751,0,-1.8561944901923448,1.5707963267948966,-0.052711121737957,-0.4161941111087799,0.4985216557979584
-0.2432422955334098,0.6173289021866635,0,1.0441007421565067,0,-0.3930559171684205,0,-0.5231083495401989,0,-1.8561944901923448,1.5707963267948966,-0.08024146407842636,-0.39687761664390564,0.4596409499645233
-0.036556497145476985,-0.6017845549667243,0,0.6036971451645776,0,-0.46792173398427234,0,-0.640692246649518,0,-1.8561944901923448,1.5707963267948966,-0.09057467430830002,-0.39721161127090454,0.4406793713569641
-0.08863354147766955,-0.7842995272730159,0,-0.9318000680245638,0,-0.14455356545199372,0,-0.17129450862759366,0,-1.8561944901923448,1.5707963267948966,-0.0852564126253128,-0.4091065526008606,0.4450399875640869
0.08118835059133289,-0.555178132324402,0,-1.0618093684553371,0,-0.302189444944639,0,-0.2421460323981109,0,-1.8561944901923448,1.5707963267948966,-0.08142802119255066,-0.41236284375190735,0.4676149785518646
-0.16047639077892123,0.030212906942801987,0,0.3513938408161228,0,-0.17943815524074513,0,-0.4787736735403711,0,-1.8561944901923448,1.5707963267948966,-0.0898192822933197,-0.39081093668937683,0.47025448083877563
0.10079394541855302,0.08660866642173948,0,1.478734397402953,0,-0.5489834794986953,0,-0.09014143050689871,0,-1.8561944901923448,1.5707963267948966,-0.11159668862819672,-0.37196967005729675,0.45194941759109497
0.1818695073888199,-0.6950032430967433,0,1.2128986093989509,0,-0.45382371206728006,0,-0.5533674048515822,0,-1.8561944901923448,1.5707963267948966,-0.13415291905403137,-0.3623940348625183,0.45751112699508667
0.10632145288023986,-0.2609533613708387,0,-0.3422266757595789,0,-0.5983037988666396,0,-0.6103405065963201,0,-1.8561944901923448,1.5707963267948966,-0.1470566689968109,-0.3544490337371826,0.49929168820381165
-0.2888990673756107,-0.035226449400051485,0,-0.04846908470908029,0,-0.2735606569744943,0,-0.5344324764060391,0,-1.8561944901923448,1.5707963267948966,-0.26633206009864807,-0.2852588891983032,0.427791029214859
-0.156782825899559,-0.7312608259543256,0,1.4918022922814855,0,-0.19784564907695246,0,-0.31645281446807494,0,-1.8561944901923448,1.5707963267948966,-0.26349401473999023,-0.24856321513652802,0.38028618693351746
0.09661502776514663,0.2919094841358585,0,0.49812953329109977,0,-0.6876598947079383,0,-0.605001101534764,0,-1.8561944901923448,1.5707963267948966,-0.24649454653263092,-0.21441364288330078,0.35730957984924316
0.012809094110944885,0.5498164651080188,0,-1.0451890080816446,0,-0.3741519183023674,0,-0.37115702990023575,0,-1.8561944901923448,1.5707963267948966,-0.22825022041797638,-0.2029336839914322,0.34834009408950806
0.273633692111287,-0.7996762388962397,0,0.5930681896391916,0,-0.21916820398956538,0,-0.3654910816529324,0,-1.8561944901923448,1.5707963267948966,-0.20561622083187103,-0.207026407122612,0.3409756124019623
-0.2211344673272087,0.23652447329546922,0,0.7803861539059143,0,-0.1728779257625399,0,-0.5684232031268697,0,-1.8561944901923448,1.5707963267948966,-0.1730542927980423,-0.19313184916973114,0.3230246901512146
0.08630671736378392,0.1361619899595059,0,-1.3611206480597322,0,-0.09130304291695368,0,-0.533327829623725,0,-1.8561944901923448,1.5707963267948966,-0.14005279541015625,-0.1765180081129074,0.33926552534103394
-0.2823795213401791,-0.05286836917934001,0,-1.0079219598775242,0,-0.5222751022059711,0,-0.6839492171745645,0,-1.8561944901923448,1.5707963267948966,-0.10265182703733444,-0.17912960052490234,0.3731659948825836
0.18596277252519677,-0.7804668026630734,0,-0.8103301000527661,0,-0.3134764625065171,0,-0.5088313550034884,0,-1.8561944901923448,1.5707963267948966,-0.05540308356285095,-0.20289844274520874,0.4039406180381775
-0.00877573123126485,0.6647643210460272,0,0.6090831584274197,0,-0.09813818937789187,0,-0.25570266028310934,0,-1.8561944901923448,1.5707963267948966,-0.011000208556652069,-0.22881759703159332,0.39155009388923645
0.25050980804674255,-0.5038172856988852,0,-0.6493449862262874,0,-0.5950425886948406,0,-0.6568417420831234,0,-1.8561944901923448,1.5707963267948966,0.022858425974845886,-0.22479106485843658,0.37855497002601624
-0.2969179075171016,0.2790632359072407,0,-1.4275785047282583,0,-0.4959670229854452,0,-0.24786928612969023,0,-1.8561944901923448,1.5707963267948966,0.056205496191978455,-0.22855234146118164,0.3763425052165985
-0.25389708025817614,-0.7855438159648035,0,-0.2927744011440421,0,-0.14297303709875053,0,-0.478015801640389,0,-1.8561944901923448,1.5707963267948966,0.08609870076179504,-0.22899191081523895,0.3395625054836273
-0.17048743797662103,-0.14546828253215072,0,1.3398847026124523,0,-0.042361333105729204,0,-0.5025020149213042,0,-1.8561944901923448,1.5707963267948966,0.17386047542095184,-0.2547338306903839,0.2498270571231842
0.25478202630676167,-0.7623774348419086,0,-1.1979272715443399,0,-0.39242109070334225,0,-0.3886545732712487,0,-1.8561944901923448,1.5707963267948966,0.18366767466068268,-0.26296353340148926,0.3002622425556183
0.1950832437417323,-0.6186602220695003,0,-0.7789856438859964,0,-0.7337405369531864,0,-0.6575025177941812,0,-1.8561944901923448,1.5707963267948966,0.18229983747005463,-0.2825235426425934,0.3561411201953888
0.22722042835744322,-0.6327573722194724,0,0.1267541439685118,0,-0.5264744062661948,0,-0.5263721684942826,0,-1.8561944901923448,1.5707963267948966,0.16758431494235992,-0.3015267252922058,0.3777424395084381
0.14082540027943613,-0.7307789986251075,0,0.32556933528561616,0,-0.2268549037290044,0,-0.4943230972292567,0,-1.8561944901923448,1.5707963267948966,0.1357574760913849,-0.3095576763153076,0.38898101449012756
-0.2126195110873264,0.38073763508735636,0,0.2111216882481175,0,-0.18404171827134885,0,-0.11889360501115098,0,-1.8561944901923448,1.5707963267948966,0.08504292368888855,-0.30141040682792664,0.44286441802978516
0.26176978738867457,-0.628991728897995,0,-1.2983627729665042,0,-0.7906364318128164,0,-0.5431488624356196,0,-1.8561944901923448,1.5707963267948966,-0.060880955308675766,-0.3918849527835846,0.48306968808174133
0.2909738424976857,-0.5719698607952877,0,-0.7587582300641883,0,-0.1369476606861484,0,-0.5606910417750424,0,-1.8561944901923448,1.5707963267948966,-0.02436976134777069,-0.34086307883262634,0.40655961632728577
0.26897252807280997,-0.193792765824208,0,-0.9821385259277947,0,-0.5814530597190264,0,-0.6311479551094492,0,-1.8561944901923448,1.5707963267948966,0.01245449110865593,-0.2848548889160156,0.3213547468185425
0.19323161518159582,-0.07416301361427213,0,-0.4027037456702631,0,-0.5363108028581685,0,-0.5841029856997111,0,-1.8561944901923448,1.5707963267948966,0.02031095325946808,-0.04253869876265526,0.2975856065750122
0.18082411992422648,-0.5591212810828083,0,0.725984426146193,0,-0.5775816012183979,0,-0.4498025922657951,0,-1.8561944901923448,1.5707963267948966,-0.017069973051548004,-0.054352886974811554,0.3147605359554291
-0.007275296672526688,-0.12618892622946232,0,-1.387628939233886,0,-0.018667102208068442,0,-0.20538669271209709,0,-1.8561944901923448,1.5707963267948966,-0.056594543159008026,-0.07671817392110825,0.3297942876815796
0.1521360364037989,0.17494088695239274,0,-1.148825599706924,0,-0.7416887809719599,0,-0.036619033906649445,0,-1.8561944901923448,1.5707963267948966,-0.09928721189498901,-0.09259795397520065,0.3579634428024292
-0.01669132348683061,0.6302098234128108,0,-0.5258248862361883,0,-0.7301054626080045,0,-0.33387801781786836,0,-1.8561944901923448,1.5707963267948966,-0.13654322922229767,-0.09836837649345398,0.35283970832824707
0.09994733134596451,-0.3485521096145252,0,-0.9279455455683403,0,-0.3584366591525166,0,-0.3926809624805538,0,-1.8561944901923448,1.5707963267948966,-0.16117550432682037,-0.11387798935174942,0.32186856865882874
0.019467901787285802,-0.2854360141277228,0,-1.0885269287212533,0,-0.6334613177662154,0,-0.15478630954907213,0,-1.8561944901923448,1.5707963267948966,-0.17165647447109222,-0.1390499621629715,0.2898402512073517
0.19782033016696243,0.526340093598116,0,-0.028766803009101727,0,-0.4139040647565783,0,-0.19083009227351766,0,-1.8561944901923448,1.5707963267948966,-0.1828395426273346,-0.14405447244644165,0.241103857755661
0.21887724248634916,0.09157771670844428,0,1.1240664805805625,0,-0.15060743308051971,0,-0.6781089022132478,0,-1.8561944901923448,1.5707963267948966,-0.2153160572052002,-0.13999666273593903,0.26195329427719116
-0.07794580249092789,0.636086579949892,0,0.6530122081738425,0,-0.5823878026173543,0,-0.18848688328115193,0,-1.8561944901923448,1.5707963267948966,-0.23611794412136078,-0.15116770565509796,0.2894169092178345
-0.17924368134897004,0.3472501577654399,0,1.057429915870479,0,-0.3850510635540079,0,-0.035930280886127486,0,-1.8561944901923448,1.5707963267948966,-0.2519657611846924,-0.15377244353294373,0.35133904218673706
0.254387509252542,0.11545305018620411,0,0.9380583746738722,0,-0.5716354968912647,0,-0.03151374946248375,0,-1.8561944901923448,1.5707963267948966,-0.25453490018844604,-0.16276763379573822,0.4370521306991577
-0.2121747635263228,0.09419874235377179,0,-0.666017916058038,0,-0.5010842913444746,0,-0.5599896432614653,0,-1.8561944901923448,1.5707963267948966,0.216718852519989,-0.3241666853427887,0.4712313115596771
-0.1767890633770954,0.4714617047179359,0,-1.2993480483324538,0,-0.7579549423399802,0,-0.3424393754052647,0,-1.8561944901923448,1.5707963267948966,0.20939205586910248,-0.3278140425682068,0.4042511284351349
-0.2015835308800617,0.1793282850856025,0,-1.5602752103870596,0,-0.5017504609237802,0,-0.13493525884432944,0,-1.8561944901923448,1.5707963267948966,0.20228926837444305,-0.3375127911567688,0.3386128842830658
-0.11744472831576744,-0.5925616550229172,0,0.5084363226377349,0,-0.6341924365490158,0,-0.06470794182541728,0,-1.8561944901923448,1.5707963267948966,0.2464735060930252,-0.1747773289680481,0.2657734155654907
0.051764570642725716,-0.3630792074769913,0,-1.1216055329777461,0,-0.5890788185155584,0,-0.6994794466794454,0,-1.8561944901923448,1.5707963267948966,0.24050970375537872,-0.16768604516983032,0.3482114374637604
0.22096663278630352,-0.5831521603303624,0,-0.4084051931418029,0,-0.29567630987462457,0,-0.4613392828128323,0,-1.8561944901923448,1.5707963267948966,0.21859264373779297,-0.18386852741241455,0.428681343793869
-0.2242745270232424,-0.3455013571236467,0,1.4398646375296122,0,-0.6648036206309804,0,-0.1882131187217203,0,-1.8561944901923448,1.5707963267948966,0.1820196509361267,-0.2081741839647293,0.46473509073257446
0.19586218571838948,-0.7838094270005049,0,-1.406957005878071,0,-0.5628106150100396,0,-0.02338567126733959,0,-1.8561944901923448,1.5707963267948966,0.13019590079784393,-0.2133830189704895,0.4917917847633362
0.056514492702041286,0.03799051195846226,0,-0.1710661424573514,0,-0.6875098299261734,0,-0.14689470457715803,0,-1.8561944901923448,1.5707963267948966,-0.38801658153533936,-0.36483490467071533,0.5036308169364929
0.05170411522910018,-0.24528335936198775,0,-1.1949841059176325,0,-0.09544386222102097,0,-0.6442533104835942,0,-1.8561944901923448,1.5707963267948966,-0.42086267471313477,-0.3661673069000244,0.46006229519844055
-0.2587556163275809,-0.6810038298090304,0,1.1040371784281464,0,-0.7009546301477003,0,-0.3046132039216891,0,-1.8561944901923448,1.5707963267948966,-0.44414427876472473,-0.35628175735473633,0.4481624364852905
-0.05456549534401417,-0.5344979427257288,0,0.3507241515563275,0,-0.09603702335940478,0,-0.2857740702850175,0,-1.8561944901923448,1.5707963267948966,-0.4539160430431366,-0.33444032073020935,0.41107794642448425
0.26843610666117906,-0.5885686516682038,0,-0.6228254053548115,0,-0.6978250944396239,0,-0.6029841931373812,0,-1.8561944901923448,1.5707963267948966,-0.44467484951019287,-0.2815917432308197,0.3247973620891571
-0.1430148172618452,-0.7914363742447383,0,0.6432084563587934,0,-0.057676671888229114,0,-0.28360630669865183,0,-1.8561944901923448,1.5707963267948966,-0.45085808634757996,-0.26769089698791504,0.3038749396800995
0.17004777240375546,0.18358431312829937,0,0.5626200274169348,0,-0.5829156404144695,0,-0.3441944024386297,0,-1.8561944901923448,1.5707963267948966,-0.4704320728778839,-0.24879500269889832,0.27754130959510803
-0.183489945601225,-0.2946971789658763,0,-0.4954654336729636,0,-0.5055851493290777,0,-0.3027175958202245,0,-1.8561944901923448,1.5707963267948966,-0.5022932887077332,-0.2307407259941101,0.27709832787513733
0.27704289855275127,-0.26422384702144286,0,0.30400394784421203,0,-0.6961956499516769,0,-0.027955675741756947,0,-1.8561944901923448,1.5707963267948966,-0.5332733392715454,-0.21233968436717987,0.2972123622894287
0.07035812908089689,0.3094338241923602,0,1.1296996782658608,0,-0.6912067038137848,0,-0.0061931899191961515,0,-1.8561944901923448,1.5707963267948966,-0.5522316098213196,-0.19508463144302368,0.3212249279022217
-0.20385407694978042,0.18259327947824067,0,-0.9233097170469107,0,-0.4726992419033928,0,-0.6887053789493336,0,-1.8561944901923448,1.5707963267948966,-0.5552726984024048,-0.1704195886850357,0.38123106956481934
0.009903933827904055,0.7977948338152518,0,-0.6823509183710961,0,-0.08395570115007789,0,-0.14554022969083968,0,-1.8561944901923448,1.5707963267948966,-0.5416747331619263,-0.17549467086791992,0.43769559264183044
-0.25319996762484465,-0.11539923635891802,0,1.431013617679445,0,-0.3407214783662446,0,-0.1503120349293473,0,-1.8561944901923448,1.5707963267948966,-0.5135396122932434,-0.182900071144104,0.45196738839149475
-0.08525183168487596,-0.45329318327578183,0,-1.2486235227262592,0,-0.13439354292779948,0,-0.029152378948956725,0,-1.8561944901923448,1.5707963267948966,-0.4692058563232422,-0.18370161950588226,0.46582022309303284
0.04721569182567731,-0.20881643128796434,0,-0.6523082516133427,0,-0.5032703735771318,0,-0.34146702569922516,0,-1.8561944901923448,1.5707963267948966,-0.032277803868055344,-0.2748831510543823,0.3963690400123596
-0.20091131941939072,-0.6179501267834393,0,0.0010093518901905796,0,-0.7748198547744636,0,-0.4167486910917941,0,-1.8561944901923448,1.5707963267948966,-0.007983420975506306,-0.274516224861145,0.3337693512439728
-0.23570257406425763,0.7282212147671576,0,0.8008228201925061,0,-0.5896569139709259,0,-0.30813999842863826,0,-1.8561944901923448,1.5707963267948966,-0.00017463778203818947,-0.2698930501937866,0.3027620017528534
-0.04971745331532956,-0.4121200541895402,0,-1.2275606957836918,0,-0.6460336444103687,0,-0.5412115818150989,0,-1.8561944901923448,1.5707963267948966,-0.007541443686932325,-0.2738717794418335,0.29341527819633484
-0.011283400048558045,-0.10398417693143036,0,0.6992874005430258,0,-0.586153853775336,0,-0.39918077047470896,0,-1.8561944901923448,1.5707963267948966,-0.01506678108125925,-0.2876069247722626,0.290132075548172
-0.004916642174193742,-0.7806757558347299,0,-1.3913223282885356,0,-0.43643285544089505,0,-0.3868053155547232,0,-1.8561944901923448,1.5707963267948966,-0.04016393795609474,-0.28294143080711365,0.29293060302734375
0.1209091089408888,0.12229215031676421,0,-0.8081785156061454,0,-0.635032990671863,0,-0.520557584291925,0,-1.8561944901923448,1.5707963267948966,-0.0469275563955307,-0.2613840699195862,0.3338514566421509
-0.17908831498475097,0.35485906095804043,0,-0.41556726477851424,0,-0.4666113234569076,0,-0.3056230467333246,0,-1.8561944901923448,1.5707963267948966,-0.05492814630270004,-0.2638245224952698,0.32449769973754883
0.0993426047831727,0.6137686168468706,0,-1.4840054199926727,0,-0.26576373902566464,0,-0.6043762576227582,0,-1.8561944901923448,1.5707963267948966,-0.0572955496609211,-0.2576635479927063,0.30095374584198
0.17771619917053866,-0.7018930594628598,0,-0.11684836641786855,0,-0.6440404229073051,0,-0.2284233865489616,0,-1.8561944901923448,1.5707963267948966,-0.04643051698803902,-0.25499093532562256,0.2883486747741699
-0.29848588823584765,-0.5904160384812922,0,-0.5488221444726145,0,-0.6607324738641163,0,-0.1670223136719191,0,-1.8561944901923448,1.5707963267948966,0.00023526146833319217,-0.2117370069026947,0.27369993925094604
0.02082714647665157,0.7772243108646699,0,-1.3937825386741296,0,-0.40209971200978184,0,-0.4277652220994514,0,-1.8561944901923448,1.5707963267948966,0.00997254904359579,-0.1909397393465042,0.29079577326774597
-0.017352319717722886,-0.4684398543477835,0,0.46953092194348356,0,-0.6874539290149336,0,-0.5637706172712479,0,-1.8561944901923448,1.5707963267948966,0.006286952178925276,-0.18594007194042206,0.28029900789260864
-0.2607571678241651,0.7710684756252364,0,-1.522642695601847,0,-0.18021767188977889,0,-0.2884286388278079,0,-1.8561944901923448,1.5707963267948966,-0.011446182616055012,-0.20232051610946655,0.25821614265441895
0.2076679594726561,0.37417228231523114,0,0.24092640774683294,0,-0.4517863063876966,0,-0.41554674808836417,0,-1.8561944901923448,1.5707963267948966,-0.021482689306139946,-0.19269098341464996,0.3083468973636627
-0.1263006757666176,-0.4716716952599823,0,0.7315898648565753,0,-0.3283813202997168,0,-0.3065197125850528,0,-1.8561944901923448,1.5707963267948966,-0.041347283869981766,-0.179392009973526,0.34909915924072266
0.2842884125381722,-0.6876705647843044,0,-0.7764818517167349,0,-0.22831885049109846,0,-0.09321905042076095,0,-1.8561944901923448,1.5707963267948966,-0.060803208500146866,-0.18633173406124115,0.3553256392478943
-0.15390619817558374,-0.504670704507657,0,1.0379779260077417,0,-0.4019279083767267,0,-0.6183151870294241,0,-1.8561944901923448,1.5707963267948966,-0.08552321791648865,-0.19690945744514465,0.3710891008377075
